; generated by PrusaSlicer 2.4.2+win64 on 2022-10-31 at 13:15:45 UTC


;
;

;
;
; 

; external perimeters extrusion width = 0.45mm
; perimeters extrusion width = 0.45mm
; infill extrusion width = 0.45mm
; solid infill extrusion width = 0.45mm
; top infill extrusion width = 0.40mm
; first layer extrusion width = 0.42mm

M73 P0 R31
M201 X2500 Y2500 Z400 E5000 ; sets maximum accelerations, mm/sec^2
M203 X180 Y180 Z12 E80 ; sets maximum feedrates, mm / sec
M204 P1250 R1250 T2500 ; sets acceleration (P, T) and retract acceleration (R), mm/sec^2
M205 X8.00 Y8.00 Z2.00 E10.00 ; sets the jerk limits, mm/sec
M205 S0 T0 ; sets the minimum extruding and travel feed rate, mm/sec
M107
;TYPE:Custom
M862.3 P "MINI" ; printer model check
G90 ; use absolute coordinates
M83 ; extruder relative mode
M104 S170 ; set extruder temp for bed leveling
M140 S60 ; set bed temp
M109 R170 ; wait for bed leveling temp
M190 S60 ; wait for bed temp
M204 T1250 ; set travel acceleration
G28 ; home all without mesh bed level
G29 ; mesh bed leveling 
M204 T2500 ; restore travel acceleration
M104 S215 ; set extruder temp
G92 E0
G1 Y-2 X179 F2400
G1 Z3 F720
M109 S215 ; wait for extruder temp

; intro line
G1 X170 F1000
G1 Z0.2 F720
G1 X110 E8 F900
G1 X40 E10 F700
G92 E0

M221 S95 ; set flow
G21 ; set units to millimeters
G90 ; use absolute coordinates
M83 ; use relative distances for extrusion
M900 K0.2 ; Filament gcode LA 1.5
; ; Filament gcode LA 1.0
M107
;LAYER_CHANGE
;Z:0.2
;HEIGHT:0.2
;BEFORE_LAYER_CHANGE
G92 E0.0
;0.2


G1 E-3.2 F4200
G1 Z.2 F720
;AFTER_LAYER_CHANGE
;0.2
G1 Z.4
G1 X59.491 Y76.429 F9000
G1 Z.2 F720
G1 E3.2 F2400
M204 P800
;TYPE:Skirt/Brim
;WIDTH:0.42
G1 F1200
G1 X60.703 Y75.64 E.04535
G1 X61.905 Y75.237 E.03974
G1 X63 Y75.123 E.03453
G1 X117.11 Y75.125 E1.69657
G1 X118.095 Y75.237 E.03111
M73 P1 R31
G1 X119.044 Y75.528 E.0311
G1 X119.923 Y75.988 E.0311
G1 X120.702 Y76.602 E.0311
G1 X121.355 Y77.349 E.0311
G1 X121.86 Y78.203 E.0311
G1 X122.199 Y79.135 E.0311
G1 X122.362 Y80.113 E.0311
G1 X122.341 Y100.105 E.62683
G1 X122.199 Y100.865 E.02424
G1 X121.972 Y101.544 E.02244
G1 X121.355 Y102.651 E.03975
G1 X120.509 Y103.571 E.03917
G1 X119.297 Y104.36 E.04535
G1 X118.095 Y104.763 E.03974
G1 X117 Y104.877 E.03453
G1 X62.89 Y104.875 E1.69657
G1 X62.12 Y104.803 E.02424
G1 X61.424 Y104.639 E.02244
G1 X60.703 Y104.36 E.02424
G1 X60.077 Y104.012 E.02244
G1 X59.46 Y103.546 E.02424
G1 X58.954 Y103.04 E.02244
G1 X58.488 Y102.423 E.02424
G1 X58.14 Y101.797 E.02244
G1 X57.737 Y100.595 E.03974
G1 X57.623 Y99.5 E.03453
G1 X57.659 Y79.895 E.61471
G1 X57.949 Y78.661 E.03975
G1 X58.238 Y78.006 E.02244
G1 X58.645 Y77.349 E.02425
G1 X59.45 Y76.473 E.03729
M204 P1000
; printing object PiScopeLabel.stl id:0 copy 0
G1 E-2.24 F4200
;WIPE_START
G1 F7200
G1 X60.703 Y75.64 E-.83378
G1 X60.836 Y75.595 E-.07822
;WIPE_END
G1 E-.048 F4200
G1 Z.4 F720
G1 X61.667 Y78.735 F9000
G1 Z.2 F720
G1 E3.2 F2400
M204 P800
;TYPE:Perimeter
G1 F1200
G1 X61.824 Y78.627 E.00598
G1 X62.202 Y78.439 E.01322
G1 X62.594 Y78.327 E.01278
G1 X63.032 Y78.287 E.01379
G1 X116.986 Y78.287 E1.69171
G1 X117.191 Y78.297 E.00641
G1 X117.605 Y78.374 E.01322
G1 X117.985 Y78.522 E.01279
G1 X118.332 Y78.736 E.01279
G1 X118.633 Y79.011 E.01279
G1 X118.879 Y79.336 E.01279
G1 X119.061 Y79.702 E.01279
G1 X119.173 Y80.094 E.01278
G1 X119.213 Y80.531 E.01378
G1 X119.201 Y99.717 E.60156
G1 X119.176 Y99.893 E.00556
G1 X119.061 Y100.298 E.01322
G1 X118.873 Y100.676 E.01322
G1 X118.773 Y100.822 E.00555
G1 X118.48 Y101.143 E.01364
G1 X118.176 Y101.373 E.01195
G1 X117.798 Y101.561 E.01322
G1 X117.406 Y101.673 E.01278
G1 X116.968 Y101.713 E.01379
G1 X63.018 Y101.713 E1.69157
G1 X62.809 Y101.703 E.00655
G1 X62.395 Y101.626 E.01322
G1 X62.002 Y101.474 E.01322
G1 X61.678 Y101.273 E.01195
G1 X61.367 Y100.989 E.01322
G1 X61.121 Y100.664 E.01279
G1 X60.939 Y100.298 E.01279
G1 X60.827 Y99.906 E.01278
G1 X60.787 Y99.469 E.01378
G1 X60.799 Y80.296 E.60113
G1 X60.877 Y79.882 E.01322
G1 X60.933 Y79.714 E.00555
G1 X61.127 Y79.324 E.01364
G1 X61.227 Y79.178 E.00555
G1 X61.52 Y78.857 E.01364
G1 X61.621 Y78.773 E.0041
M204 P1000
G1 X62.065 Y78.086 F9000
M204 P800
;TYPE:External perimeter
G1 F1200
G1 X62.524 Y77.955 E.01498
G1 X63.014 Y77.91 E.01543
G1 X116.995 Y77.91 E1.69253
G1 X117.234 Y77.921 E.0075
G1 X117.708 Y78.01 E.01513
G1 X118.154 Y78.183 E.01498
G1 X118.56 Y78.434 E.01498
G1 X118.913 Y78.756 E.01498
G1 X119.201 Y79.137 E.01498
G1 X119.414 Y79.565 E.01498
G1 X119.545 Y80.024 E.01498
G1 X119.59 Y80.514 E.01543
G1 X119.578 Y99.744 E.60293
G1 X119.546 Y99.971 E.0072
G1 X119.414 Y100.435 E.01513
G1 X119.199 Y100.867 E.01513
G1 X119.069 Y101.057 E.00719
G1 X118.741 Y101.417 E.01529
G1 X118.367 Y101.699 E.01468
G1 X117.935 Y101.914 E.01513
G1 X117.476 Y102.045 E.01498
G1 X116.986 Y102.09 E.01543
G1 X63.009 Y102.09 E1.69239
G1 X62.766 Y102.079 E.00765
M73 P2 R31
G1 X62.292 Y101.99 E.01513
G1 X61.841 Y101.816 E.01513
G1 X61.443 Y101.569 E.01468
G1 X61.087 Y101.244 E.01513
G1 X60.799 Y100.863 E.01498
G1 X60.586 Y100.435 E.01498
G1 X60.455 Y99.976 E.01498
G1 X60.41 Y99.486 E.01543
G1 X60.422 Y80.261 E.60277
G1 X60.511 Y79.787 E.01513
G1 X60.584 Y79.569 E.0072
G1 X60.801 Y79.133 E.01529
G1 X60.931 Y78.943 E.00719
G1 X61.259 Y78.583 E.01529
G1 X61.439 Y78.433 E.00735
G1 X61.633 Y78.301 E.00735
G1 X62.011 Y78.113 E.01325
M204 P1000
G1 X62.372 Y78.342 F9000
G1 E-2.24 F4200
;WIPE_START
G1 F7200
G1 X62.524 Y77.955 E-.29748
G1 X63.014 Y77.91 E-.27272
G1 X63.631 Y77.91 E-.3418
;WIPE_END
G1 E-.048 F4200
G1 Z.4 F720
G1 X119.087 Y80.399 F9000
G1 Z.2 F720
G1 E3.2 F2400
M204 P800
;TYPE:Solid infill
;WIDTH:0.420253
G1 F1200
G1 X117.291 Y78.603 E.07968
G1 X117.158 Y78.578 E.00426
G1 X116.725 Y78.57 E.0136
G1 X118.93 Y80.775 E.09786
G1 X118.93 Y81.309 E.01673
G1 X116.191 Y78.57 E.12152
G1 X115.657 Y78.57 E.01674
G1 X118.929 Y81.842 E.14518
G1 X118.929 Y82.375 E.01673
G1 X115.124 Y78.57 E.16885
G1 X114.59 Y78.57 E.01674
G1 X118.929 Y82.909 E.19251
G1 X118.928 Y83.442 E.01673
G1 X114.056 Y78.57 E.21617
G1 X113.523 Y78.57 E.01674
G1 X118.928 Y83.975 E.23983
G1 X118.928 Y84.509 E.01673
G1 X112.989 Y78.57 E.2635
G1 X112.456 Y78.57 E.01674
G1 X118.927 Y85.042 E.28716
G1 X118.927 Y85.575 E.01673
G1 X111.922 Y78.57 E.31082
G1 X111.388 Y78.57 E.01674
G1 X118.927 Y86.108 E.33449
G1 X118.926 Y86.642 E.01673
G1 X110.855 Y78.57 E.35815
G1 X110.321 Y78.57 E.01674
G1 X118.926 Y87.175 E.38181
G1 X118.926 Y87.708 E.01673
G1 X109.787 Y78.57 E.40548
G1 X109.254 Y78.57 E.01674
M73 P2 R30
G1 X118.925 Y88.242 E.42914
G1 X118.925 Y88.775 E.01673
G1 X108.72 Y78.57 E.4528
G1 X108.186 Y78.57 E.01674
G1 X118.925 Y89.308 E.47647
G1 X118.924 Y89.841 E.01673
G1 X107.653 Y78.57 E.50013
G1 X107.119 Y78.57 E.01674
G1 X118.924 Y90.375 E.52379
G1 X118.924 Y90.908 E.01673
G1 X106.586 Y78.57 E.54745
G1 X106.052 Y78.57 E.01674
G1 X118.923 Y91.441 E.57112
G1 X118.923 Y91.975 E.01673
G1 X105.518 Y78.57 E.59478
G1 X104.985 Y78.57 E.01674
G1 X118.923 Y92.508 E.61844
G1 X118.922 Y93.041 E.01673
G1 X104.451 Y78.57 E.64211
G1 X103.917 Y78.57 E.01674
M73 P3 R30
G1 X118.922 Y93.575 E.66577
G1 X118.922 Y94.108 E.01673
G1 X103.384 Y78.57 E.68943
G1 X102.85 Y78.57 E.01674
G1 X118.921 Y94.641 E.7131
G1 X118.921 Y95.174 E.01673
G1 X102.317 Y78.57 E.73676
G1 X101.783 Y78.57 E.01674
G1 X118.921 Y95.708 E.76042
G1 X118.92 Y96.241 E.01673
G1 X101.249 Y78.57 E.78409
G1 X100.716 Y78.57 E.01674
G1 X118.92 Y96.774 E.80775
G1 X118.92 Y97.308 E.01673
G1 X100.182 Y78.57 E.83141
G1 X99.648 Y78.57 E.01674
G1 X118.919 Y97.841 E.85507
G1 X118.919 Y98.374 E.01673
G1 X99.115 Y78.57 E.87874
G1 X98.581 Y78.57 E.01674
G1 X118.919 Y98.907 E.9024
G1 X118.918 Y99.441 E.01673
G1 X98.047 Y78.57 E.92606
G1 X97.514 Y78.57 E.01674
G1 X118.872 Y99.928 E.9477
G1 X118.796 Y100.196 E.00872
G1 X118.733 Y100.323 E.00445
G1 X96.98 Y78.57 E.9652
G1 X96.447 Y78.57 E.01674
M73 P4 R30
G1 X118.537 Y100.661 E.9802
G1 X118.283 Y100.94 E.01185
G1 X95.913 Y78.57 E.99257
G1 X95.379 Y78.57 E.01674
G1 X117.969 Y101.16 E1.00235
G1 X117.696 Y101.296 E.00958
G1 X117.599 Y101.324 E.00315
G1 X94.846 Y78.57 E1.00961
G1 X94.312 Y78.57 E.01674
G1 X117.154 Y101.412 E1.01352
G1 X116.639 Y101.43 E.01618
G1 X93.778 Y78.57 E1.01434
G1 X93.245 Y78.57 E.01674
G1 X116.105 Y101.43 E1.01434
G1 X115.571 Y101.43 E.01674
G1 X92.711 Y78.57 E1.01434
G1 X92.178 Y78.57 E.01674
G1 X115.038 Y101.43 E1.01434
G1 X114.504 Y101.43 E.01674
G1 X91.644 Y78.57 E1.01434
G1 X91.11 Y78.57 E.01674
G1 X113.97 Y101.43 E1.01434
G1 X113.437 Y101.43 E.01674
G1 X90.577 Y78.57 E1.01434
G1 X90.043 Y78.57 E.01674
M73 P5 R30
G1 X112.903 Y101.43 E1.01434
G1 X112.369 Y101.43 E.01674
G1 X89.509 Y78.57 E1.01434
G1 X88.976 Y78.57 E.01674
G1 X111.836 Y101.43 E1.01434
G1 X111.302 Y101.43 E.01674
G1 X88.442 Y78.57 E1.01434
G1 X87.908 Y78.57 E.01674
G1 X110.769 Y101.43 E1.01434
G1 X110.235 Y101.43 E.01674
G1 X87.375 Y78.57 E1.01434
G1 X86.841 Y78.57 E.01674
G1 X109.701 Y101.43 E1.01434
G1 X109.168 Y101.43 E.01674
G1 X86.308 Y78.57 E1.01434
G1 X85.774 Y78.57 E.01674
M73 P5 R29
G1 X108.634 Y101.43 E1.01434
G1 X108.1 Y101.43 E.01674
G1 X85.24 Y78.57 E1.01434
G1 X84.707 Y78.57 E.01674
G1 X107.567 Y101.43 E1.01434
G1 X107.033 Y101.43 E.01674
M73 P6 R29
G1 X84.173 Y78.57 E1.01434
G1 X83.639 Y78.57 E.01674
G1 X106.5 Y101.43 E1.01434
G1 X105.966 Y101.43 E.01674
G1 X83.106 Y78.57 E1.01434
G1 X82.572 Y78.57 E.01674
G1 X105.432 Y101.43 E1.01434
G1 X104.899 Y101.43 E.01674
G1 X82.039 Y78.57 E1.01434
G1 X81.505 Y78.57 E.01674
G1 X104.365 Y101.43 E1.01434
G1 X103.831 Y101.43 E.01674
G1 X80.971 Y78.57 E1.01434
G1 X80.438 Y78.57 E.01674
G1 X103.298 Y101.43 E1.01434
G1 X102.764 Y101.43 E.01674
G1 X79.904 Y78.57 E1.01434
G1 X79.37 Y78.57 E.01674
G1 X102.231 Y101.43 E1.01434
G1 X101.697 Y101.43 E.01674
G1 X78.837 Y78.57 E1.01434
G1 X78.303 Y78.57 E.01674
G1 X101.163 Y101.43 E1.01434
G1 X100.63 Y101.43 E.01674
M73 P7 R29
G1 X77.769 Y78.57 E1.01434
G1 X77.236 Y78.57 E.01674
G1 X100.096 Y101.43 E1.01434
G1 X99.562 Y101.43 E.01674
G1 X76.702 Y78.57 E1.01434
G1 X76.169 Y78.57 E.01674
G1 X99.029 Y101.43 E1.01434
G1 X98.495 Y101.43 E.01674
G1 X75.635 Y78.57 E1.01434
G1 X75.101 Y78.57 E.01674
G1 X97.961 Y101.43 E1.01434
G1 X97.428 Y101.43 E.01674
G1 X74.568 Y78.57 E1.01434
G1 X74.034 Y78.57 E.01674
G1 X96.894 Y101.43 E1.01434
G1 X96.361 Y101.43 E.01674
G1 X73.5 Y78.57 E1.01434
G1 X72.967 Y78.57 E.01674
G1 X95.827 Y101.43 E1.01434
G1 X95.293 Y101.43 E.01674
G1 X72.433 Y78.57 E1.01434
G1 X71.9 Y78.57 E.01674
M73 P8 R29
G1 X94.76 Y101.43 E1.01434
G1 X94.226 Y101.43 E.01674
G1 X71.366 Y78.57 E1.01434
G1 X70.832 Y78.57 E.01674
G1 X93.692 Y101.43 E1.01434
G1 X93.159 Y101.43 E.01674
G1 X70.299 Y78.57 E1.01434
G1 X69.765 Y78.57 E.01674
G1 X92.625 Y101.43 E1.01434
G1 X92.092 Y101.43 E.01674
G1 X69.231 Y78.57 E1.01434
G1 X68.698 Y78.57 E.01674
G1 X91.558 Y101.43 E1.01434
G1 X91.024 Y101.43 E.01674
G1 X68.164 Y78.57 E1.01434
G1 X67.63 Y78.57 E.01674
G1 X90.491 Y101.43 E1.01434
G1 X89.957 Y101.43 E.01674
G1 X67.097 Y78.57 E1.01434
G1 X66.563 Y78.57 E.01674
M73 P8 R28
G1 X89.423 Y101.43 E1.01434
G1 X88.89 Y101.43 E.01674
G1 X66.03 Y78.57 E1.01434
G1 X65.496 Y78.57 E.01674
M73 P9 R28
G1 X88.356 Y101.43 E1.01434
G1 X87.823 Y101.43 E.01674
G1 X64.962 Y78.57 E1.01434
G1 X64.429 Y78.57 E.01674
G1 X87.289 Y101.43 E1.01434
G1 X86.755 Y101.43 E.01674
G1 X63.895 Y78.57 E1.01434
G1 X63.361 Y78.57 E.01674
G1 X86.222 Y101.43 E1.01434
G1 X85.688 Y101.43 E.01674
G1 X62.846 Y78.588 E1.01353
G1 X62.646 Y78.607 E.00631
G1 X62.401 Y78.676 E.008
G1 X85.154 Y101.43 E1.00961
G1 X84.621 Y101.43 E.01674
G1 X62.031 Y78.84 E1.00235
G1 X61.717 Y79.06 E.01202
G1 X84.087 Y101.43 E.99258
G1 X83.554 Y101.43 E.01674
G1 X61.463 Y79.339 E.9802
G1 X61.371 Y79.468 E.00495
G1 X61.267 Y79.677 E.00734
G1 X83.02 Y101.43 E.9652
G1 X82.486 Y101.43 E.01674
G1 X61.129 Y80.073 E.94767
G1 X61.082 Y80.323 E.00798
M73 P10 R28
G1 X61.082 Y80.559 E.00743
G1 X81.953 Y101.43 E.92607
G1 X81.419 Y101.43 E.01674
G1 X61.081 Y81.093 E.9024
G1 X61.081 Y81.626 E.01673
G1 X80.885 Y101.43 E.87874
G1 X80.352 Y101.43 E.01674
G1 X61.081 Y82.159 E.85508
G1 X61.08 Y82.693 E.01673
G1 X79.818 Y101.43 E.83142
G1 X79.284 Y101.43 E.01674
G1 X61.08 Y83.226 E.80775
G1 X61.08 Y83.759 E.01673
G1 X78.751 Y101.43 E.78409
G1 X78.217 Y101.43 E.01674
G1 X61.079 Y84.292 E.76043
G1 X61.079 Y84.826 E.01673
G1 X77.684 Y101.43 E.73676
G1 X77.15 Y101.43 E.01674
G1 X61.079 Y85.359 E.7131
G1 X61.078 Y85.892 E.01673
G1 X76.616 Y101.43 E.68944
G1 X76.083 Y101.43 E.01674
G1 X61.078 Y86.426 E.66577
G1 X61.078 Y86.959 E.01673
G1 X75.549 Y101.43 E.64211
G1 X75.015 Y101.43 E.01674
G1 X61.077 Y87.492 E.61845
G1 X61.077 Y88.025 E.01673
M73 P11 R28
G1 X74.482 Y101.43 E.59479
G1 X73.948 Y101.43 E.01674
G1 X61.077 Y88.559 E.57112
G1 X61.076 Y89.092 E.01673
G1 X73.415 Y101.43 E.54746
G1 X72.881 Y101.43 E.01674
G1 X61.076 Y89.625 E.5238
G1 X61.076 Y90.159 E.01673
G1 X72.347 Y101.43 E.50013
G1 X71.814 Y101.43 E.01674
G1 X61.075 Y90.692 E.47647
G1 X61.075 Y91.225 E.01673
G1 X71.28 Y101.43 E.45281
G1 X70.746 Y101.43 E.01674
G1 X61.075 Y91.758 E.42914
G1 X61.074 Y92.292 E.01673
G1 X70.213 Y101.43 E.40548
G1 X69.679 Y101.43 E.01674
G1 X61.074 Y92.825 E.38182
G1 X61.074 Y93.358 E.01673
G1 X69.146 Y101.43 E.35816
G1 X68.612 Y101.43 E.01674
G1 X61.073 Y93.892 E.33449
G1 X61.073 Y94.425 E.01673
G1 X68.078 Y101.43 E.31083
G1 X67.545 Y101.43 E.01674
G1 X61.073 Y94.958 E.28717
G1 X61.072 Y95.492 E.01673
G1 X67.011 Y101.43 E.2635
G1 X66.477 Y101.43 E.01674
G1 X61.072 Y96.025 E.23984
G1 X61.072 Y96.558 E.01673
G1 X65.944 Y101.43 E.21618
G1 X65.41 Y101.43 E.01674
G1 X61.071 Y97.091 E.19251
G1 X61.071 Y97.625 E.01673
G1 X64.876 Y101.43 E.16885
G1 X64.343 Y101.43 E.01674
G1 X61.071 Y98.158 E.14519
G1 X61.07 Y98.691 E.01673
G1 X63.809 Y101.43 E.12153
G1 X63.276 Y101.43 E.01674
G1 X61.07 Y99.225 E.09786
G1 X61.07 Y99.456 E.00725
G1 X61.101 Y99.789 E.0105
G1 X62.906 Y101.595 E.08012
M204 P1000
; stop printing object PiScopeLabel.stl id:0 copy 0
M106 S84.15
;LAYER_CHANGE
;Z:0.35
;HEIGHT:0.15
;BEFORE_LAYER_CHANGE
G92 E0.0
;0.35


G1 E-2.24 F4200
;WIPE_START
G1 F7200
G1 X61.743 Y100.431 E-.912
;WIPE_END
G1 E-.048 F4200
G1 Z.4 F720
;AFTER_LAYER_CHANGE
;0.35
G1 X58.712 Y102.719 F9000
G1 Z.35 F720
G1 E3.2 F2400
;TYPE:Skirt/Brim
;WIDTH:0.42
G1 X58.488 Y102.423 E.00899
G1 X58.14 Y101.797 E.01731
G1 X57.737 Y100.595 E.03066
G1 X57.623 Y99.5 E.02664
G1 X57.659 Y79.895 E.47415
G1 X57.949 Y78.661 E.03066
G1 X58.238 Y78.006 E.01731
G1 X58.645 Y77.349 E.0187
G1 X59.491 Y76.429 E.03021
G1 X60.703 Y75.64 E.03498
G1 X61.905 Y75.237 E.03066
G1 X63 Y75.123 E.02664
G1 X117.11 Y75.125 E1.30864
G1 X118.095 Y75.237 E.02399
G1 X119.044 Y75.528 E.02399
G1 X119.923 Y75.988 E.02399
G1 X120.702 Y76.602 E.02399
G1 X121.355 Y77.349 E.02399
G1 X121.86 Y78.203 E.02399
G1 X122.199 Y79.135 E.02399
G1 X122.362 Y80.113 E.02399
G1 X122.341 Y100.105 E.4835
G1 X122.199 Y100.865 E.0187
G1 X121.972 Y101.544 E.01731
G1 X121.355 Y102.651 E.03066
G1 X120.509 Y103.571 E.03021
G1 X119.297 Y104.36 E.03498
G1 X118.095 Y104.763 E.03066
G1 X117 Y104.877 E.02664
G1 X62.89 Y104.875 E1.30864
G1 X62.12 Y104.803 E.0187
G1 X61.424 Y104.639 E.01731
G1 X60.703 Y104.36 E.0187
G1 X60.077 Y104.012 E.01731
G1 X59.46 Y103.546 E.0187
G1 X58.954 Y103.04 E.01731
G1 X58.748 Y102.767 E.00826
; printing object PiScopeLabel.stl id:0 copy 0
G1 E-2.24 F4200
;WIPE_START
G1 F7200
G1 X58.488 Y102.423 E-.23921
G1 X58.14 Y101.797 E-.39666
G1 X57.982 Y101.325 E-.27613
;WIPE_END
G1 E-.048 F4200
G1 Z.55 F720
G1 X61.121 Y100.922 F9000
G1 Z.35 F720
G1 E3.2 F2400
M204 P800
;TYPE:Perimeter
;WIDTH:0.45
G1 X60.994 Y100.733 E.00592
G1 X60.798 Y100.338 E.0115
G1 X60.733 Y100.145 E.0053
G1 X60.654 Y99.717 E.01133
G1 X60.643 Y99.485 E.00606
G1 X60.643 Y80.515 E.49429
G1 X60.684 Y80.067 E.01172
M73 P11 R27
G1 X60.802 Y79.651 E.01127
G1 X60.895 Y79.444 E.00592
M73 P12 R27
G1 X61.129 Y79.069 E.0115
G1 X61.412 Y78.759 E.01096
G1 X61.58 Y78.619 E.00567
G1 X61.95 Y78.391 E.01133
G1 X62.149 Y78.303 E.00567
G1 X62.567 Y78.184 E.01133
G1 X63.015 Y78.143 E.01172
G1 X116.995 Y78.144 E1.40649
G1 X117.447 Y78.187 E.01183
