; generated by PrusaSlicer 2.4.2+win64 on 2022-10-31 at 16:11:07 UTC


;
;

;
;
; 

; external perimeters extrusion width = 0.45mm
; perimeters extrusion width = 0.45mm
; infill extrusion width = 0.45mm
; solid infill extrusion width = 0.45mm
; top infill extrusion width = 0.40mm
; first layer extrusion width = 0.42mm

M73 P0 R69
M201 X2500 Y2500 Z400 E5000 ; sets maximum accelerations, mm/sec^2
M203 X180 Y180 Z12 E80 ; sets maximum feedrates, mm / sec
M204 P1250 R1250 T2500 ; sets acceleration (P, T) and retract acceleration (R), mm/sec^2
M205 X8.00 Y8.00 Z2.00 E10.00 ; sets the jerk limits, mm/sec
M205 S0 T0 ; sets the minimum extruding and travel feed rate, mm/sec
M107
;TYPE:Custom
M862.3 P "MINI" ; printer model check
G90 ; use absolute coordinates
M83 ; extruder relative mode
M104 S170 ; set extruder temp for bed leveling
M140 S60 ; set bed temp
M109 R170 ; wait for bed leveling temp
M190 S60 ; wait for bed temp
M204 T1250 ; set travel acceleration
G28 ; home all without mesh bed level
G29 ; mesh bed leveling 
M204 T2500 ; restore travel acceleration
M104 S215 ; set extruder temp
G92 E0
G1 Y-2 X179 F2400
G1 Z3 F720
M109 S215 ; wait for extruder temp

; intro line
G1 X170 F1000
G1 Z0.2 F720
G1 X110 E8 F900
G1 X40 E10 F700
G92 E0

M221 S95 ; set flow
G21 ; set units to millimeters
G90 ; use absolute coordinates
M83 ; use relative distances for extrusion
M900 K0.2 ; Filament gcode LA 1.5
; ; Filament gcode LA 1.0
M107
;LAYER_CHANGE
;Z:0.2
;HEIGHT:0.2
;BEFORE_LAYER_CHANGE
G92 E0.0
;0.2


G1 E-3.2 F4200
G1 Z.2 F720
;AFTER_LAYER_CHANGE
;0.2
G1 Z.4
G1 X49.741 Y73.726 F9000
G1 Z.2 F720
G1 E3.2 F2400
M204 P800
;TYPE:Skirt/Brim
;WIDTH:0.42
G1 F1200
G1 X50.928 Y73.04 E.04298
G1 X52.004 Y72.718 E.03523
G1 X53 Y72.623 E.03136
G1 X127.124 Y72.626 E2.32412
G1 X127.996 Y72.718 E.02747
G1 X129.072 Y73.04 E.03523
G1 X130.058 Y73.579 E.03523
G1 X130.688 Y74.09 E.02543
G1 X131.421 Y74.942 E.03523
G1 X131.859 Y75.701 E.02747
G1 X132.149 Y76.458 E.02543
G1 X132.357 Y77.562 E.03523
G1 X132.331 Y102.685 E.78773
G1 X131.96 Y104.072 E.04501
G1 X131.274 Y105.259 E.04298
G1 X130.259 Y106.274 E.04501
G1 X129.072 Y106.96 E.04298
G1 X127.996 Y107.282 E.03523
G1 X127 Y107.377 E.03136
G1 X52.876 Y107.374 E2.32412
G1 X51.458 Y107.149 E.04501
G1 X50.701 Y106.859 E.02543
G1 X49.942 Y106.421 E.02747
G1 X48.923 Y105.503 E.04298
G1 X48.408 Y104.795 E.02747
G1 X48.04 Y104.072 E.02543
G1 X47.718 Y102.996 E.03523
G1 X47.623 Y102 E.03136
G1 X47.643 Y77.562 E.76624
G1 X47.928 Y76.221 E.04298
G1 X48.284 Y75.421 E.02747
G1 X48.726 Y74.741 E.02543
G1 X49.698 Y73.768 E.04313
M204 P1000
; printing object PiScopeLabel.stl id:0 copy 0
G1 E-2.24 F4200
;WIPE_START
G1 F7200
G1 X50.928 Y73.04 E-.79186
G1 X51.136 Y72.978 E-.12014
;WIPE_END
G1 E-.048 F4200
G1 Z.4 F720
G1 X51.922 Y76.516 F9000
G1 Z.2 F720
G1 E3.2 F2400
M204 P800
;TYPE:Perimeter
G1 F1200
G1 X52.254 Y76.324 E.01202
G1 X52.433 Y76.256 E.00602
G1 X52.808 Y76.176 E.01202
G1 X53.031 Y76.164 E.00698
G1 X126.975 Y76.164 E2.31847
G1 X127.192 Y76.176 E.00681
G1 X127.567 Y76.256 E.01202
G1 X127.917 Y76.412 E.01202
G1 X128.078 Y76.516 E.00602
G1 X128.363 Y76.773 E.01202
G1 X128.484 Y76.922 E.00602
G1 X128.676 Y77.254 E.01202
G1 X128.744 Y77.433 E.00602
G1 X128.824 Y77.808 E.01202
G1 X128.836 Y78.03 E.00698
G1 X128.836 Y101.97 E.75059
G1 X128.824 Y102.192 E.00698
G1 X128.744 Y102.567 E.01202
G1 X128.676 Y102.746 E.00602
G1 X128.484 Y103.078 E.01202
G1 X128.227 Y103.363 E.01202
G1 X128.078 Y103.484 E.00602
G1 X127.746 Y103.676 E.01202
G1 X127.567 Y103.744 E.00602
G1 X127.192 Y103.824 E.01202
G1 X126.97 Y103.836 E.00698
G1 X53.03 Y103.836 E2.31831
G1 X52.808 Y103.824 E.00698
G1 X52.433 Y103.744 E.01202
G1 X52.254 Y103.676 E.00602
G1 X51.922 Y103.484 E.01202
G1 X51.637 Y103.227 E.01202
G1 X51.516 Y103.078 E.00602
G1 X51.411 Y102.917 E.00602
G1 X51.256 Y102.567 E.01202
G1 X51.176 Y102.192 E.01202
G1 X51.164 Y101.97 E.00698
G1 X51.164 Y78.03 E.75059
G1 X51.206 Y77.619 E.01298
G1 X51.324 Y77.254 E.01202
G1 X51.516 Y76.922 E.01202
G1 X51.637 Y76.773 E.00602
G1 X51.875 Y76.554 E.01014
M204 P1000
G1 X51.686 Y76.222 F9000
M204 P800
G1 F1200
G1 X51.894 Y76.084 E.00783
G1 X52.317 Y75.896 E.0145
G1 X52.769 Y75.8 E.0145
G1 X53.021 Y75.787 E.00791
G1 X126.985 Y75.787 E2.31909
G1 X127.231 Y75.8 E.00774
M73 P1 R69
G1 X127.683 Y75.896 E.0145
G1 X127.9 Y75.979 E.00726
G1 X128.3 Y76.211 E.0145
G1 X128.644 Y76.52 E.0145
G1 X128.916 Y76.894 E.0145
G1 X129.021 Y77.1 E.00726
G1 X129.104 Y77.317 E.00726
G1 X129.2 Y77.769 E.0145
G1 X129.213 Y78.021 E.00791
G1 X129.213 Y101.979 E.75121
G1 X129.2 Y102.231 E.00791
G1 X129.104 Y102.684 E.0145
G1 X128.916 Y103.106 E.0145
G1 X128.789 Y103.3 E.00726
G1 X128.48 Y103.644 E.0145
G1 X128.3 Y103.789 E.00726
G1 X127.9 Y104.021 E.0145
G1 X127.683 Y104.104 E.00726
G1 X127.231 Y104.2 E.0145
G1 X126.979 Y104.213 E.00791
G1 X53.021 Y104.213 E2.31892
G1 X52.769 Y104.2 E.00791
G1 X52.316 Y104.104 E.0145
G1 X52.1 Y104.021 E.00726
G1 X51.7 Y103.789 E.0145
G1 X51.356 Y103.48 E.0145
G1 X51.211 Y103.3 E.00726
G1 X51.084 Y103.106 E.00726
G1 X50.896 Y102.684 E.0145
G1 X50.8 Y102.231 E.0145
G1 X50.787 Y101.979 E.00791
G1 X50.787 Y78.021 E.75121
G1 X50.8 Y77.769 E.00791
G1 X50.836 Y77.54 E.00726
G1 X50.979 Y77.1 E.0145
G1 X51.211 Y76.7 E.0145
G1 X51.356 Y76.52 E.00726
G1 X51.639 Y76.26 E.01204
M204 P1000
G1 X51.448 Y75.929 F9000
M204 P800
;TYPE:External perimeter
G1 F1200
G1 X51.705 Y75.757 E.00969
G1 X51.947 Y75.634 E.0085
G1 X52.2 Y75.537 E.0085
G1 X52.462 Y75.467 E.0085
G1 X52.729 Y75.425 E.0085
G1 X53.011 Y75.41 E.00884
G1 X126.994 Y75.41 E2.31971
G1 X127.271 Y75.425 E.00867
M73 P1 R68
G1 X127.538 Y75.467 E.0085
G1 X127.8 Y75.537 E.0085
G1 X128.053 Y75.634 E.0085
G1 X128.295 Y75.757 E.0085
G1 X128.522 Y75.905 E.0085
G1 X128.733 Y76.076 E.0085
G1 X128.924 Y76.267 E.0085
G1 X129.095 Y76.478 E.0085
G1 X129.243 Y76.705 E.0085
G1 X129.366 Y76.947 E.0085
G1 X129.463 Y77.2 E.0085
G1 X129.533 Y77.462 E.0085
G1 X129.575 Y77.729 E.0085
G1 X129.59 Y78.011 E.00884
G1 X129.59 Y101.989 E.75183
G1 X129.575 Y102.271 E.00884
G1 X129.533 Y102.538 E.0085
G1 X129.463 Y102.8 E.0085
G1 X129.366 Y103.053 E.0085
G1 X129.243 Y103.295 E.0085
G1 X129.095 Y103.522 E.0085
G1 X128.924 Y103.733 E.0085
G1 X128.733 Y103.924 E.0085
G1 X128.522 Y104.095 E.0085
G1 X128.295 Y104.243 E.0085
G1 X128.053 Y104.366 E.0085
G1 X127.8 Y104.463 E.0085
G1 X127.538 Y104.533 E.0085
G1 X127.271 Y104.575 E.0085
G1 X126.989 Y104.59 E.00884
G1 X53.011 Y104.59 E2.31954
G1 X52.729 Y104.575 E.00884
G1 X52.462 Y104.533 E.0085
G1 X52.2 Y104.463 E.0085
G1 X51.947 Y104.366 E.0085
G1 X51.705 Y104.243 E.0085
G1 X51.478 Y104.095 E.0085
G1 X51.267 Y103.924 E.0085
G1 X51.076 Y103.733 E.0085
G1 X50.905 Y103.522 E.0085
G1 X50.757 Y103.295 E.0085
G1 X50.634 Y103.053 E.0085
G1 X50.537 Y102.8 E.0085
G1 X50.467 Y102.538 E.0085
G1 X50.425 Y102.271 E.0085
G1 X50.41 Y101.989 E.00884
G1 X50.41 Y78.011 E.75183
G1 X50.425 Y77.729 E.00884
G1 X50.467 Y77.462 E.0085
G1 X50.537 Y77.2 E.0085
G1 X50.634 Y76.947 E.0085
G1 X50.757 Y76.705 E.0085
G1 X50.905 Y76.478 E.0085
G1 X51.076 Y76.267 E.0085
G1 X51.402 Y75.967 E.0139
M204 P1000
G1 X51.734 Y76.047 F9000
G1 E-2.24 F4200
;WIPE_START
G1 F7200
G1 X51.705 Y75.757 E-.2044
G1 X51.947 Y75.634 E-.1502
G1 X52.2 Y75.537 E-.15021
G1 X52.462 Y75.467 E-.15019
G1 X52.729 Y75.425 E-.1502
G1 X52.922 Y75.415 E-.1068
;WIPE_END
G1 E-.048 F4200
G1 Z.4 F720
G1 X128.62 Y77.431 F9000
G1 Z.2 F720
G1 E3.2 F2400
M204 P800
;TYPE:Solid infill
;WIDTH:0.421934
G1 F1200
G1 X127.911 Y76.746 E.03107
G1 X127.63 Y76.584 E.01021
G1 X127.323 Y76.484 E.0102
G1 X127.116 Y76.463 E.00656
G1 X128.545 Y77.893 E.06373
G1 X128.553 Y78.437 E.01713
G1 X126.564 Y76.447 E.08866
G1 X126.028 Y76.447 E.01689
G1 X128.553 Y78.973 E.11255
G1 X128.553 Y79.509 E.01689
G1 X125.492 Y76.447 E.13644
G1 X124.956 Y76.447 E.01689
G1 X128.553 Y80.045 E.16033
G1 X128.553 Y80.581 E.01689
G1 X124.42 Y76.447 E.18422
G1 X123.884 Y76.447 E.01689
G1 X128.553 Y81.117 E.20811
G1 X128.553 Y81.653 E.01689
G1 X123.348 Y76.447 E.232
G1 X122.812 Y76.447 E.01689
G1 X128.553 Y82.189 E.25589
G1 X128.553 Y82.725 E.01689
G1 X122.276 Y76.447 E.27978
G1 X121.74 Y76.447 E.01689
G1 X128.553 Y83.261 E.30367
G1 X128.553 Y83.797 E.01689
G1 X121.204 Y76.447 E.32756
G1 X120.668 Y76.447 E.01689
G1 X128.553 Y84.333 E.35145
G1 X128.553 Y84.869 E.01689
G1 X120.132 Y76.447 E.37533
G1 X119.596 Y76.447 E.01689
G1 X128.553 Y85.405 E.39922
G1 X128.553 Y85.941 E.01689
G1 X119.06 Y76.447 E.42311
G1 X118.524 Y76.447 E.01689
G1 X128.553 Y86.477 E.447
G1 X128.553 Y87.013 E.01689
G1 X117.988 Y76.447 E.47089
G1 X117.452 Y76.447 E.01689
G1 X128.553 Y87.549 E.49478
G1 X128.553 Y88.085 E.01689
G1 X116.916 Y76.447 E.51867
G1 X116.38 Y76.447 E.01689
G1 X128.553 Y88.621 E.54256
G1 X128.553 Y89.157 E.01689
G1 X115.844 Y76.447 E.56645
G1 X115.308 Y76.447 E.01689
G1 X128.553 Y89.693 E.59034
G1 X128.553 Y90.229 E.01689
G1 X114.772 Y76.447 E.61423
G1 X114.236 Y76.447 E.01689
G1 X128.553 Y90.765 E.63812
G1 X128.553 Y91.301 E.01689
G1 X113.7 Y76.447 E.66201
G1 X113.164 Y76.447 E.01689
G1 X128.553 Y91.837 E.6859
G1 X128.553 Y92.373 E.01689
G1 X112.628 Y76.447 E.70979
G1 X112.092 Y76.447 E.01689
G1 X128.553 Y92.909 E.73368
G1 X128.553 Y93.445 E.01689
G1 X111.556 Y76.447 E.75757
G1 X111.019 Y76.447 E.01689
G1 X128.553 Y93.981 E.78146
G1 X128.553 Y94.517 E.01689
G1 X110.483 Y76.447 E.80534
G1 X109.947 Y76.447 E.01689
M73 P2 R68
G1 X128.553 Y95.053 E.82923
G1 X128.553 Y95.589 E.01689
G1 X109.411 Y76.447 E.85312
G1 X108.875 Y76.447 E.01689
G1 X128.553 Y96.125 E.87701
G1 X128.553 Y96.661 E.01689
G1 X108.339 Y76.447 E.9009
G1 X107.803 Y76.447 E.01689
G1 X128.553 Y97.197 E.92479
G1 X128.553 Y97.733 E.01689
G1 X107.267 Y76.447 E.94868
G1 X106.731 Y76.447 E.01689
G1 X128.553 Y98.269 E.97257
G1 X128.553 Y98.805 E.01689
G1 X106.195 Y76.447 E.99646
G1 X105.659 Y76.447 E.01689
G1 X128.553 Y99.341 E1.02035
G1 X128.553 Y99.877 E.01689
G1 X105.123 Y76.447 E1.04424
G1 X104.587 Y76.447 E.01689
G1 X128.553 Y100.413 E1.06813
G1 X128.553 Y100.949 E.01689
G1 X104.051 Y76.447 E1.09202
G1 X103.515 Y76.447 E.01689
G1 X128.553 Y101.485 E1.11591
G1 X128.55 Y102.018 E.0168
G1 X102.979 Y76.447 E1.13967
G1 X102.443 Y76.447 E.01689
G1 X128.474 Y102.478 E1.16017
G1 X128.42 Y102.624 E.00491
G1 X128.297 Y102.837 E.00774
G1 X101.907 Y76.447 E1.17616
G1 X101.371 Y76.447 E.01689
M73 P2 R67
G1 X128.056 Y103.131 E1.18929
G1 X127.917 Y103.25 E.00574
G1 X127.741 Y103.352 E.00644
G1 X100.835 Y76.447 E1.19914
G1 X100.299 Y76.447 E.01689
G1 X127.353 Y103.501 E1.20576
G1 X127.155 Y103.543 E.00639
G1 X126.869 Y103.553 E.009
G1 X99.763 Y76.447 E1.20809
G1 X99.227 Y76.447 E.01689
G1 X126.333 Y103.553 E1.20809
G1 X125.797 Y103.553 E.01689
G1 X98.691 Y76.447 E1.20809
G1 X98.155 Y76.447 E.01689
G1 X125.261 Y103.553 E1.20809
G1 X124.725 Y103.553 E.01689
G1 X97.619 Y76.447 E1.20809
G1 X97.083 Y76.447 E.01689
M73 P3 R67
G1 X124.189 Y103.553 E1.20809
G1 X123.653 Y103.553 E.01689
G1 X96.547 Y76.447 E1.20809
G1 X96.011 Y76.447 E.01689
G1 X123.117 Y103.553 E1.20809
G1 X122.581 Y103.553 E.01689
G1 X95.475 Y76.447 E1.20809
G1 X94.939 Y76.447 E.01689
G1 X122.045 Y103.553 E1.20809
G1 X121.509 Y103.553 E.01689
G1 X94.403 Y76.447 E1.20809
G1 X93.867 Y76.447 E.01689
G1 X120.973 Y103.553 E1.20809
G1 X120.437 Y103.553 E.01689
G1 X93.331 Y76.447 E1.20809
G1 X92.795 Y76.447 E.01689
G1 X119.901 Y103.553 E1.20809
G1 X119.365 Y103.553 E.01689
G1 X92.259 Y76.447 E1.20809
G1 X91.723 Y76.447 E.01689
G1 X118.829 Y103.553 E1.20809
G1 X118.293 Y103.553 E.01689
G1 X91.187 Y76.447 E1.20809
G1 X90.651 Y76.447 E.01689
G1 X117.757 Y103.553 E1.20809
G1 X117.221 Y103.553 E.01689
G1 X90.115 Y76.447 E1.20809
G1 X89.579 Y76.447 E.01689
G1 X116.685 Y103.553 E1.20809
G1 X116.149 Y103.553 E.01689
G1 X89.043 Y76.447 E1.20809
G1 X88.507 Y76.447 E.01689
G1 X115.613 Y103.553 E1.20809
G1 X115.077 Y103.553 E.01689
G1 X87.971 Y76.447 E1.20809
G1 X87.435 Y76.447 E.01689
G1 X114.541 Y103.553 E1.20809
G1 X114.005 Y103.553 E.01689
G1 X86.899 Y76.447 E1.20809
G1 X86.363 Y76.447 E.01689
G1 X113.469 Y103.553 E1.20809
G1 X112.933 Y103.553 E.01689
G1 X85.827 Y76.447 E1.20809
G1 X85.291 Y76.447 E.01689
M73 P4 R67
G1 X112.397 Y103.553 E1.20809
G1 X111.861 Y103.553 E.01689
M73 P4 R66
G1 X84.755 Y76.447 E1.20809
G1 X84.219 Y76.447 E.01689
G1 X111.325 Y103.553 E1.20809
G1 X110.789 Y103.553 E.01689
G1 X83.683 Y76.447 E1.20809
G1 X83.147 Y76.447 E.01689
G1 X110.253 Y103.553 E1.20809
G1 X109.717 Y103.553 E.01689
G1 X82.611 Y76.447 E1.20809
G1 X82.075 Y76.447 E.01689
G1 X109.181 Y103.553 E1.20809
G1 X108.645 Y103.553 E.01689
G1 X81.539 Y76.447 E1.20809
G1 X81.003 Y76.447 E.01689
G1 X108.109 Y103.553 E1.20809
G1 X107.573 Y103.553 E.01689
G1 X80.467 Y76.447 E1.20809
G1 X79.931 Y76.447 E.01689
G1 X107.037 Y103.553 E1.20809
G1 X106.501 Y103.553 E.01689
G1 X79.395 Y76.447 E1.20809
G1 X78.859 Y76.447 E.01689
G1 X105.965 Y103.553 E1.20809
G1 X105.429 Y103.553 E.01689
G1 X78.323 Y76.447 E1.20809
G1 X77.787 Y76.447 E.01689
G1 X104.893 Y103.553 E1.20809
G1 X104.357 Y103.553 E.01689
G1 X77.251 Y76.447 E1.20809
G1 X76.715 Y76.447 E.01689
G1 X103.821 Y103.553 E1.20809
G1 X103.285 Y103.553 E.01689
G1 X76.179 Y76.447 E1.20809
G1 X75.643 Y76.447 E.01689
G1 X102.749 Y103.553 E1.20809
G1 X102.213 Y103.553 E.01689
G1 X75.107 Y76.447 E1.20809
G1 X74.571 Y76.447 E.01689
G1 X101.677 Y103.553 E1.20809
G1 X101.141 Y103.553 E.01689
M73 P5 R66
G1 X74.035 Y76.447 E1.20809
G1 X73.499 Y76.447 E.01689
G1 X100.605 Y103.553 E1.20809
G1 X100.069 Y103.553 E.01689
G1 X72.963 Y76.447 E1.20809
G1 X72.427 Y76.447 E.01689
G1 X99.533 Y103.553 E1.20809
G1 X98.997 Y103.553 E.01689
G1 X71.891 Y76.447 E1.20809
G1 X71.355 Y76.447 E.01689
G1 X98.461 Y103.553 E1.20809
G1 X97.925 Y103.553 E.01689
G1 X70.819 Y76.447 E1.20809
G1 X70.283 Y76.447 E.01689
G1 X97.389 Y103.553 E1.20809
G1 X96.853 Y103.553 E.01689
G1 X69.747 Y76.447 E1.20809
G1 X69.211 Y76.447 E.01689
G1 X96.317 Y103.553 E1.20809
G1 X95.781 Y103.553 E.01689
G1 X68.675 Y76.447 E1.20809
G1 X68.139 Y76.447 E.01689
M73 P5 R65
G1 X95.245 Y103.553 E1.20809
G1 X94.709 Y103.553 E.01689
G1 X67.603 Y76.447 E1.20809
G1 X67.067 Y76.447 E.01689
G1 X94.173 Y103.553 E1.20809
G1 X93.637 Y103.553 E.01689
G1 X66.531 Y76.447 E1.20809
G1 X65.995 Y76.447 E.01689
G1 X93.101 Y103.553 E1.20809
G1 X92.565 Y103.553 E.01689
G1 X65.459 Y76.447 E1.20809
G1 X64.923 Y76.447 E.01689
G1 X92.029 Y103.553 E1.20809
G1 X91.493 Y103.553 E.01689
G1 X64.387 Y76.447 E1.20809
G1 X63.851 Y76.447 E.01689
G1 X90.957 Y103.553 E1.20809
G1 X90.421 Y103.553 E.01689
G1 X63.315 Y76.447 E1.20809
G1 X62.779 Y76.447 E.01689
G1 X89.885 Y103.553 E1.20809
G1 X89.349 Y103.553 E.01689
M73 P6 R65
G1 X62.243 Y76.447 E1.20809
G1 X61.707 Y76.447 E.01689
G1 X88.813 Y103.553 E1.20809
G1 X88.277 Y103.553 E.01689
G1 X61.171 Y76.447 E1.20809
G1 X60.635 Y76.447 E.01689
G1 X87.741 Y103.553 E1.20809
G1 X87.205 Y103.553 E.01689
G1 X60.099 Y76.447 E1.20809
G1 X59.563 Y76.447 E.01689
G1 X86.669 Y103.553 E1.20809
G1 X86.133 Y103.553 E.01689
G1 X59.027 Y76.447 E1.20809
G1 X58.491 Y76.447 E.01689
G1 X85.597 Y103.553 E1.20809
G1 X85.061 Y103.553 E.01689
G1 X57.955 Y76.447 E1.20809
G1 X57.419 Y76.447 E.01689
G1 X84.525 Y103.553 E1.20809
G1 X83.989 Y103.553 E.01689
G1 X56.883 Y76.447 E1.20809
G1 X56.347 Y76.447 E.01689
G1 X83.453 Y103.553 E1.20809
G1 X82.917 Y103.553 E.01689
G1 X55.811 Y76.447 E1.20809
G1 X55.275 Y76.447 E.01689
G1 X82.381 Y103.553 E1.20809
G1 X81.845 Y103.553 E.01689
G1 X54.739 Y76.447 E1.20809
G1 X54.203 Y76.447 E.01689
G1 X81.309 Y103.553 E1.2081
G1 X80.773 Y103.553 E.01689
G1 X53.667 Y76.447 E1.2081
G1 X53.131 Y76.447 E.01689
G1 X80.237 Y103.553 E1.2081
G1 X79.701 Y103.553 E.01689
G1 X52.647 Y76.499 E1.20577
G1 X52.514 Y76.528 E.00429
M73 P6 R64
G1 X52.259 Y76.648 E.00887
G1 X79.165 Y103.553 E1.19915
G1 X78.629 Y103.553 E.01689
G1 X51.948 Y76.873 E1.18912
G1 X51.843 Y76.968 E.00448
M73 P7 R64
G1 X51.703 Y77.164 E.00757
G1 X78.093 Y103.553 E1.17616
G1 X77.557 Y103.553 E.01689
G1 X51.526 Y77.522 E1.16017
G1 X51.457 Y77.845 E.01041
G1 X51.45 Y77.982 E.00432
G1 X77.021 Y103.553 E1.13967
