; generated by PrusaSlicer 2.4.2+win64 on 2022-10-31 at 12:07:19 UTC


;
;

;
;
; 

; external perimeters extrusion width = 0.45mm
; perimeters extrusion width = 0.45mm
; infill extrusion width = 0.45mm
; solid infill extrusion width = 0.45mm
; top infill extrusion width = 0.40mm
; first layer extrusion width = 0.42mm

; external perimeters extrusion width = 0.45mm
; perimeters extrusion width = 0.45mm
; infill extrusion width = 0.45mm
; solid infill extrusion width = 0.45mm
; top infill extrusion width = 0.40mm
; first layer extrusion width = 0.42mm

M73 P0 R57
M201 X2500 Y2500 Z400 E5000 ; sets maximum accelerations, mm/sec^2
M203 X180 Y180 Z12 E80 ; sets maximum feedrates, mm / sec
M204 P1250 R1250 T2500 ; sets acceleration (P, T) and retract acceleration (R), mm/sec^2
M205 X8.00 Y8.00 Z2.00 E10.00 ; sets the jerk limits, mm/sec
M205 S0 T0 ; sets the minimum extruding and travel feed rate, mm/sec
M107
;TYPE:Custom
M862.3 P "MINI" ; printer model check
G90 ; use absolute coordinates
M83 ; extruder relative mode
M104 S170 ; set extruder temp for bed leveling
M140 S60 ; set bed temp
M109 R170 ; wait for bed leveling temp
M190 S60 ; wait for bed temp
M204 T1250 ; set travel acceleration
G28 ; home all without mesh bed level
G29 ; mesh bed leveling 
M204 T2500 ; restore travel acceleration
M104 S215 ; set extruder temp
G92 E0
G1 Y-2 X179 F2400
G1 Z3 F720
M109 S215 ; wait for extruder temp

; intro line
M73 P0 R56
G1 X170 F1000
G1 Z0.2 F720
G1 X110 E8 F900
G1 X40 E10 F700
G92 E0

M221 S95 ; set flow
G21 ; set units to millimeters
G90 ; use absolute coordinates
M83 ; use relative distances for extrusion
M900 K0.2 ; Filament gcode LA 1.5
; ; Filament gcode LA 1.0
M107
;LAYER_CHANGE
;Z:0.2
;HEIGHT:0.2
;BEFORE_LAYER_CHANGE
G92 E0.0
;0.2


G1 E-3.2 F4200
G1 Z.2 F720
;AFTER_LAYER_CHANGE
;0.2
G1 Z.4
G1 X47.984 Y77.086 F9000
G1 Z.2 F720
G1 E3.2 F2400
M204 P800
;TYPE:Skirt/Brim
;WIDTH:0.42
G1 F1200
G1 X49.2 Y76.39 E.04394
G1 X96.807 Y65.728 E1.52964
G1 X97.326 Y65.67 E.01639
G1 X139.326 Y65.67 E1.31688
G1 X141.007 Y66.366 E.05704
G1 X144.007 Y69.366 E.13303
G1 X144.703 Y71.047 E.05704
G1 X144.703 Y109.047 E1.19146
G1 X144.007 Y110.728 E.05704
G1 X141.007 Y113.728 E.13303
G1 X139.596 Y114.409 E.04913
G1 X72.22 Y122.087 E2.1262
G1 X68.859 Y122.059 E.1054
G1 X49.359 Y119.059 E.6186
G1 X48.126 Y118.473 E.04278
G1 X47.377 Y117.111 E.04874
G1 X44.377 Y99.611 E.5567
G1 X44.343 Y96.21 E.10666
G1 X47.377 Y78.308 E.5693
G1 X47.957 Y77.14 E.0409
M204 P1000
; printing object Top.stl id:1 copy 0
G1 E-2.24 F4200
;WIPE_START
G1 F7200
G1 X49.2 Y76.39 E-.80452
G1 X49.39 Y76.348 E-.10748
;WIPE_END
G1 E-.048 F4200
G1 Z.4 F720
G1 X113.596 Y89.313 F9000
G1 Z.2 F720
G1 E3.2 F2400
M204 P800
;TYPE:Perimeter
G1 F1200
G1 X113.677 Y88.903 E.01313
G1 X113.785 Y88.531 E.01213
G1 X113.922 Y88.171 E.01209
G1 X114.087 Y87.822 E.01209
G1 X114.28 Y87.488 E.01209
G1 X114.499 Y87.171 E.01209
G1 X114.743 Y86.872 E.01209
G1 X115.01 Y86.594 E.01209
G1 X115.298 Y86.339 E.01209
G1 X115.606 Y86.107 E.01209
G1 X115.932 Y85.901 E.01209
G1 X116.274 Y85.722 E.01209
G1 X116.628 Y85.571 E.01209
G1 X116.994 Y85.448 E.01209
G1 X117.349 Y85.361 E.01146
G1 X117.748 Y85.294 E.01268
G1 X118.133 Y85.263 E.01213
G1 X118.519 Y85.263 E.01209
G1 X118.903 Y85.294 E.01209
G1 X119.284 Y85.356 E.01209
G1 X119.658 Y85.448 E.01209
G1 X120.024 Y85.571 E.01209
G1 X120.379 Y85.722 E.01209
G1 X120.72 Y85.901 E.01209
G1 X121.046 Y86.107 E.01209
G1 X121.354 Y86.339 E.01209
G1 X121.643 Y86.594 E.01209
G1 X121.91 Y86.872 E.01209
G1 X122.141 Y87.155 E.01146
G1 X122.372 Y87.487 E.01268
G1 X122.565 Y87.822 E.01213
G1 X122.731 Y88.171 E.01209
G1 X122.868 Y88.531 E.01209
G1 X122.975 Y88.901 E.01209
G1 X123.052 Y89.279 E.01209
G1 X123.098 Y89.662 E.01209
G1 X123.114 Y90.047 E.01209
G1 X123.098 Y90.432 E.01209
G1 X123.052 Y90.815 E.01209
G1 X122.975 Y91.193 E.01209
G1 X122.868 Y91.563 E.01209
G1 X122.731 Y91.924 E.01209
G1 X122.566 Y92.272 E.01209
G1 X122.373 Y92.606 E.01209
G1 X122.165 Y92.907 E.01146
G1 X121.911 Y93.221 E.01268
G1 X121.643 Y93.5 E.01213
G1 X121.354 Y93.756 E.01209
G1 X121.046 Y93.987 E.01209
G1 X120.72 Y94.193 E.01209
G1 X120.379 Y94.373 E.01209
G1 X120.024 Y94.524 E.01209
G1 X119.658 Y94.646 E.01209
G1 X119.303 Y94.733 E.01146
G1 X118.905 Y94.8 E.01268
G1 X118.519 Y94.831 E.01213
G1 X118.133 Y94.831 E.01209
G1 X117.749 Y94.8 E.01209
G1 X117.369 Y94.738 E.01209
G1 X116.994 Y94.646 E.01209
G1 X116.628 Y94.524 E.01209
G1 X116.274 Y94.373 E.01209
G1 X115.932 Y94.193 E.01209
G1 X115.606 Y93.987 E.01209
G1 X115.298 Y93.756 E.01209
G1 X115.01 Y93.5 E.01209
G1 X114.743 Y93.222 E.01209
G1 X114.499 Y92.923 E.01209
G1 X114.291 Y92.623 E.01146
G1 X114.087 Y92.273 E.01268
G1 X113.922 Y91.924 E.01213
G1 X113.785 Y91.563 E.01209
G1 X113.678 Y91.193 E.01209
G1 X113.6 Y90.815 E.01209
G1 X113.554 Y90.432 E.01209
G1 X113.538 Y90.047 E.01209
G1 X113.554 Y89.662 E.01209
G1 X113.589 Y89.373 E.00913
M204 P1000
G1 X113.971 Y89.359 F9000
M204 P800
;TYPE:External perimeter
G1 F1200
G1 X114.044 Y88.992 E.01172
G1 X114.143 Y88.651 E.01115
G1 X114.269 Y88.318 E.01114
G1 X114.421 Y87.998 E.01114
G1 X114.599 Y87.69 E.01114
G1 X114.8 Y87.398 E.01114
G1 X115.025 Y87.123 E.01114
G1 X115.271 Y86.866 E.01114
G1 X115.537 Y86.631 E.01114
G1 X115.821 Y86.418 E.01114
G1 X116.121 Y86.228 E.01114
G1 X116.436 Y86.063 E.01114
G1 X116.762 Y85.923 E.01114
G1 X117.099 Y85.811 E.01114
G1 X117.425 Y85.731 E.01053
G1 X117.794 Y85.669 E.01172
G1 X118.149 Y85.64 E.01115
G1 X118.504 Y85.64 E.01114
G1 X118.858 Y85.669 E.01114
G1 X119.208 Y85.726 E.01114
G1 X119.553 Y85.811 E.01114
G1 X119.89 Y85.923 E.01114
G1 X120.217 Y86.063 E.01114
G1 X120.531 Y86.228 E.01114
G1 X120.832 Y86.418 E.01114
G1 X121.115 Y86.631 E.01114
G1 X121.381 Y86.866 E.01114
G1 X121.627 Y87.123 E.01114
G1 X121.84 Y87.383 E.01053
G1 X122.054 Y87.69 E.01172
G1 X122.231 Y87.998 E.01115
G1 X122.384 Y88.318 E.01114
G1 X122.51 Y88.651 E.01114
G1 X122.608 Y88.992 E.01114
G1 X122.679 Y89.34 E.01114
G1 X122.722 Y89.692 E.01114
G1 X122.737 Y90.047 E.01114
G1 X122.722 Y90.402 E.01114
G1 X122.679 Y90.755 E.01114
G1 X122.608 Y91.103 E.01114
G1 X122.51 Y91.444 E.01114
G1 X122.384 Y91.776 E.01114
G1 X122.231 Y92.097 E.01114
G1 X122.054 Y92.404 E.01114
G1 X121.863 Y92.681 E.01053
G1 X121.628 Y92.971 E.01172
G1 X121.381 Y93.228 E.01115
G1 X121.115 Y93.463 E.01114
G1 X120.832 Y93.677 E.01114
G1 X120.531 Y93.867 E.01114
G1 X120.217 Y94.032 E.01114
G1 X119.89 Y94.171 E.01114
G1 X119.553 Y94.283 E.01114
G1 X119.227 Y94.364 E.01053
G1 X118.858 Y94.425 E.01172
G1 X118.504 Y94.454 E.01115
G1 X118.149 Y94.454 E.01114
G1 X117.795 Y94.425 E.01114
G1 X117.444 Y94.368 E.01114
G1 X117.099 Y94.283 E.01114
G1 X116.762 Y94.171 E.01114
G1 X116.436 Y94.032 E.01114
G1 X116.121 Y93.867 E.01114
G1 X115.821 Y93.677 E.01114
G1 X115.537 Y93.463 E.01114
G1 X115.271 Y93.228 E.01114
G1 X115.025 Y92.972 E.01114
G1 X114.8 Y92.697 E.01114
G1 X114.61 Y92.42 E.01053
G1 X114.421 Y92.097 E.01172
G1 X114.269 Y91.776 E.01115
G1 X114.143 Y91.444 E.01114
G1 X114.044 Y91.103 E.01114
G1 X113.973 Y90.755 E.01114
G1 X113.93 Y90.402 E.01114
G1 X113.916 Y90.047 E.01114
G1 X113.93 Y89.692 E.01114
G1 X113.963 Y89.418 E.00865
M204 P1000
G1 X113.68 Y89.123 F9000
G1 E-2.24 F4200
;WIPE_START
G1 F7200
G1 X114.044 Y88.992 E-.24037
G1 X114.143 Y88.651 E-.19706
M73 P1 R56
G1 X114.269 Y88.318 E-.19683
G1 X114.421 Y87.998 E-.19683
G1 X114.494 Y87.871 E-.08091
;WIPE_END
G1 E-.048 F4200
G1 Z.4 F720
G1 X98.113 Y89.334 F9000
G1 Z.2 F720
G1 E3.2 F2400
M204 P800
;TYPE:Perimeter
G1 F1200
G1 X98.113 Y73.26 E.50399
G1 X95.113 Y73.26 E.09406
G1 X95.113 Y71.834 E.04471
G1 X98.113 Y71.834 E.09406
G1 X98.113 Y68.834 E.09406
G1 X99.539 Y68.834 E.04471
G1 X99.539 Y71.834 E.09406
G1 X104.113 Y71.834 E.14342
G1 X104.113 Y68.834 E.09406
G1 X116.039 Y68.834 E.37393
G1 X116.039 Y71.834 E.09406
G1 X120.613 Y71.834 E.14342
G1 X120.613 Y68.834 E.09406
G1 X132.539 Y68.834 E.37393
G1 X132.539 Y71.834 E.09406
G1 X137.113 Y71.834 E.14342
G1 X137.113 Y68.834 E.09406
G1 X138.539 Y68.834 E.04471
G1 X138.539 Y71.834 E.09406
G1 X141.539 Y71.834 E.09406
G1 X141.539 Y73.26 E.04471
G1 X138.539 Y73.26 E.09406
G1 X138.539 Y89.334 E.50399
G1 X141.539 Y89.334 E.09406
G1 X141.539 Y90.76 E.04471
G1 X138.539 Y90.76 E.09406
G1 X138.539 Y106.834 E.50399
G1 X141.539 Y106.834 E.09406
G1 X141.539 Y108.26 E.04471
G1 X138.539 Y108.26 E.09406
G1 X138.539 Y111.26 E.09406
G1 X137.113 Y111.26 E.04471
G1 X137.113 Y108.26 E.09406
G1 X132.539 Y108.26 E.14342
G1 X132.539 Y111.26 E.09406
G1 X120.613 Y111.26 E.37393
G1 X120.613 Y108.26 E.09406
G1 X116.039 Y108.26 E.14342
G1 X116.039 Y111.26 E.09406
G1 X104.113 Y111.26 E.37393
G1 X104.113 Y108.26 E.09406
G1 X99.539 Y108.26 E.14342
G1 X99.539 Y111.26 E.09406
G1 X98.113 Y111.26 E.04471
G1 X98.113 Y108.26 E.09406
G1 X95.113 Y108.26 E.09406
G1 X95.113 Y106.834 E.04471
G1 X98.113 Y106.834 E.09406
G1 X98.113 Y90.76 E.50399
G1 X95.113 Y90.76 E.09406
G1 X95.113 Y89.334 E.04471
G1 X98.053 Y89.334 E.09218
M204 P1000
G1 X97.736 Y88.957 F9000
M204 P800
;TYPE:External perimeter
G1 F1200
G1 X97.736 Y73.637 E.48035
G1 X94.736 Y73.637 E.09406
G1 X94.736 Y71.457 E.06835
G1 X97.736 Y71.457 E.09406
G1 X97.736 Y68.457 E.09406
G1 X99.916 Y68.457 E.06835
G1 X99.916 Y71.457 E.09406
G1 X103.736 Y71.457 E.11977
G1 X103.736 Y68.457 E.09406
G1 X116.416 Y68.457 E.39757
G1 X116.416 Y71.457 E.09406
G1 X120.236 Y71.457 E.11977
G1 X120.236 Y68.457 E.09406
G1 X132.916 Y68.457 E.39757
G1 X132.916 Y71.457 E.09406
G1 X136.736 Y71.457 E.11977
G1 X136.736 Y68.457 E.09406
G1 X138.916 Y68.457 E.06835
G1 X138.916 Y71.457 E.09406
G1 X141.916 Y71.457 E.09406
G1 X141.916 Y73.637 E.06835
G1 X138.916 Y73.637 E.09406
G1 X138.916 Y88.957 E.48035
G1 X141.916 Y88.957 E.09406
G1 X141.916 Y91.137 E.06835
G1 X138.916 Y91.137 E.09406
G1 X138.916 Y106.457 E.48035
G1 X141.916 Y106.457 E.09406
G1 X141.916 Y108.637 E.06835
G1 X138.916 Y108.637 E.09406
G1 X138.916 Y111.637 E.09406
G1 X136.736 Y111.637 E.06835
G1 X136.736 Y108.637 E.09406
G1 X132.916 Y108.637 E.11977
G1 X132.916 Y111.637 E.09406
G1 X120.236 Y111.637 E.39757
G1 X120.236 Y108.637 E.09406
G1 X116.416 Y108.637 E.11977
G1 X116.416 Y111.637 E.09406
G1 X103.736 Y111.637 E.39757
G1 X103.736 Y108.637 E.09406
G1 X99.916 Y108.637 E.11977
G1 X99.916 Y111.637 E.09406
G1 X97.736 Y111.637 E.06835
G1 X97.736 Y108.637 E.09406
G1 X94.736 Y108.637 E.09406
G1 X94.736 Y106.457 E.06835
G1 X97.736 Y106.457 E.09406
G1 X97.736 Y91.137 E.48035
G1 X94.736 Y91.137 E.09406
G1 X94.736 Y88.957 E.06835
G1 X97.676 Y88.957 E.09218
M204 P1000
G1 X98.127 Y88.874 F9000
G1 E-2.24 F4200
;WIPE_START
G1 F7200
G1 X97.683 Y87.311 E-.912
;WIPE_END
G1 E-.048 F4200
G1 Z.4 F720
G1 X140.85 Y106.947 F9000
G1 Z.2 F720
G1 E3.2 F2400
M204 P800
;TYPE:Solid infill
;WIDTH:0.42161
G1 F1200
G1 X141.256 Y107.354 E.01811
G1 X141.256 Y107.89 E.01686
G1 X140.484 Y107.117 E.0344
G1 X139.948 Y107.117 E.01686
G1 X140.808 Y107.977 E.03831
G1 X140.273 Y107.977 E.01686
G1 X139.413 Y107.117 E.03831
G1 X138.877 Y107.117 E.01686
G1 X139.907 Y108.147 E.04586
M204 P1000
G1 E-2.24 F4200
;WIPE_START
G1 F7200
G1 X138.877 Y107.117 E-.80717
G1 X139.066 Y107.117 E-.10483
;WIPE_END
G1 E-.048 F4200
G1 Z.4 F720
G1 X141.426 Y89.851 F9000
G1 Z.2 F720
G1 E3.2 F2400
M204 P800
G1 F1200
G1 X141.192 Y89.617 E.0104
G1 X140.657 Y89.617 E.01686
G1 X141.256 Y90.216 E.02669
G1 X141.256 Y90.477 E.00821
G1 X140.982 Y90.477 E.00865
G1 X140.121 Y89.617 E.03831
G1 X139.586 Y89.617 E.01686
G1 X140.446 Y90.477 E.03831
G1 X139.91 Y90.477 E.01686
G1 X138.881 Y89.447 E.04586
M204 P1000
G1 E-2.24 F4200
;WIPE_START
G1 F7200
G1 X139.91 Y90.477 E-.80717
G1 X140.1 Y90.477 E-.10483
;WIPE_END
G1 E-.048 F4200
G1 Z.4 F720
G1 X141.426 Y72.713 F9000
G1 Z.2 F720
G1 E3.2 F2400
M204 P800
G1 F1200
G1 X140.83 Y72.117 E.02654
G1 X140.294 Y72.117 E.01686
G1 X141.155 Y72.977 E.03831
G1 X140.619 Y72.977 E.01686
G1 X139.759 Y72.117 E.03831
G1 X139.223 Y72.117 E.01686
G1 X140.253 Y73.147 E.04586
M204 P1000
G1 E-2.24 F4200
;WIPE_START
G1 F7200
G1 X139.223 Y72.117 E-.80717
G1 X139.413 Y72.117 E-.10483
;WIPE_END
G1 E-.048 F4200
G1 Z.4 F720
G1 X138.426 Y69.713 F9000
G1 Z.2 F720
G1 E3.2 F2400
M204 P800
G1 F1200
G1 X137.83 Y69.117 E.02654
G1 X137.396 Y69.117 E.01366
G1 X137.396 Y69.219 E.0032
G1 X138.256 Y70.079 E.03831
G1 X138.256 Y70.614 E.01686
M73 P1 R55
G1 X137.396 Y69.754 E.03831
G1 X137.396 Y70.29 E.01686
G1 X138.426 Y71.32 E.04586
M204 P1000
G1 X137.226 Y70.656 F9000
M204 P800
G1 F1200
G1 X138.256 Y71.686 E.04586
G1 X138.256 Y72.117 E.01359
G1 X138.688 Y72.117 E.01359
G1 X139.548 Y72.977 E.03831
G1 X139.012 Y72.977 E.01686
G1 X137.396 Y71.361 E.07198
G1 X137.396 Y71.896 E.01686
G1 X138.477 Y72.977 E.04813
G1 X138.256 Y72.977 E.00695
G1 X138.256 Y73.292 E.00992
G1 X137.081 Y72.117 E.05233
G1 X136.546 Y72.117 E.01686
G1 X138.256 Y73.828 E.07618
G1 X138.256 Y74.363 E.01686
G1 X136.01 Y72.117 E.10003
G1 X135.475 Y72.117 E.01686
G1 X138.256 Y74.899 E.12388
G1 X138.256 Y75.434 E.01686
G1 X134.939 Y72.117 E.14773
G1 X134.403 Y72.117 E.01686
G1 X138.256 Y75.97 E.17157
G1 X138.256 Y76.505 E.01686
G1 X133.868 Y72.117 E.19542
G1 X133.332 Y72.117 E.01686
G1 X138.256 Y77.041 E.21927
G1 X138.256 Y77.577 E.01686
G1 X132.627 Y71.947 E.25068
M204 P1000
G1 E-2.24 F4200
;WIPE_START
G1 F7200
G1 X133.791 Y73.111 E-.912
;WIPE_END
G1 E-.048 F4200
G1 Z.4 F720
G1 X131.769 Y68.947 F9000
G1 Z.2 F720
G1 E3.2 F2400
M204 P800
G1 F1200
G1 X132.256 Y69.434 E.02169
G1 X132.256 Y69.97 E.01686
G1 X131.403 Y69.117 E.03798
G1 X130.868 Y69.117 E.01686
G1 X132.256 Y70.505 E.06183
G1 X132.256 Y71.041 E.01686
G1 X130.332 Y69.117 E.08568
G1 X129.797 Y69.117 E.01686
G1 X132.426 Y71.746 E.11708
M204 P1000
G1 E-2.24 F4200
;WIPE_START
G1 F7200
G1 X131.262 Y70.583 E-.912
;WIPE_END
G1 E-.048 F4200
G1 Z.4 F720
G1 X129.092 Y68.947 F9000
G1 Z.2 F720
G1 E3.2 F2400
M204 P800
G1 F1200
G1 X138.256 Y78.112 E.40812
G1 X138.256 Y78.648 E.01686
G1 X128.726 Y69.117 E.42441
G1 X128.19 Y69.117 E.01686
M73 P2 R55
G1 X138.256 Y79.183 E.44826
G1 X138.256 Y79.719 E.01686
G1 X127.655 Y69.117 E.47211
G1 X127.119 Y69.117 E.01686
G1 X138.256 Y80.254 E.49595
G1 X138.256 Y80.79 E.01686
G1 X126.583 Y69.117 E.5198
G1 X126.048 Y69.117 E.01686
G1 X138.256 Y81.325 E.54365
G1 X138.256 Y81.861 E.01686
G1 X125.512 Y69.117 E.5675
G1 X124.977 Y69.117 E.01686
G1 X138.256 Y82.397 E.59135
G1 X138.256 Y82.932 E.01686
G1 X124.441 Y69.117 E.6152
G1 X123.906 Y69.117 E.01686
G1 X138.256 Y83.468 E.63905
G1 X138.256 Y84.003 E.01686
G1 X123.37 Y69.117 E.66289
G1 X122.835 Y69.117 E.01686
G1 X138.256 Y84.539 E.68674
G1 X138.256 Y85.074 E.01686
G1 X122.299 Y69.117 E.71059
G1 X121.764 Y69.117 E.01686
G1 X138.256 Y85.61 E.73444
G1 X138.256 Y86.145 E.01686
G1 X121.228 Y69.117 E.75829
G1 X120.896 Y69.117 E.01045
G1 X120.896 Y69.321 E.00641
G1 X138.256 Y86.681 E.77307
G1 X138.256 Y87.216 E.01686
G1 X120.896 Y69.856 E.77307
G1 X120.896 Y70.392 E.01686
G1 X138.256 Y87.752 E.77307
G1 X138.256 Y88.288 E.01686
G1 X120.896 Y70.927 E.77307
G1 X120.896 Y71.463 E.01686
G1 X138.426 Y88.993 E.78063
M204 P1000
G1 E-2.24 F4200
;WIPE_START
G1 F7200
G1 X137.262 Y87.829 E-.912
;WIPE_END
G1 E-.048 F4200
G1 Z.4 F720
G1 X139.545 Y90.647 F9000
G1 Z.2 F720
G1 E3.2 F2400
M204 P800
G1 F1200
G1 X120.896 Y71.998 E.83044
G1 X120.896 Y72.117 E.00374
G1 X120.479 Y72.117 E.01313
G1 X138.839 Y90.477 E.8176
G1 X138.304 Y90.477 E.01686
G1 X119.944 Y72.117 E.8176
G1 X119.408 Y72.117 E.01686
G1 X138.256 Y90.965 E.83933
G1 X138.256 Y91.501 E.01686
G1 X118.873 Y72.117 E.86318
G1 X118.337 Y72.117 E.01686
G1 X138.256 Y92.036 E.88703
G1 X138.256 Y92.572 E.01686
G1 X117.801 Y72.117 E.91088
G1 X117.266 Y72.117 E.01686
G1 X138.256 Y93.107 E.93473
G1 X138.256 Y93.643 E.01686
G1 X116.561 Y71.947 E.96613
M204 P1000
G1 E-2.24 F4200
;WIPE_START
G1 F7200
G1 X117.724 Y73.111 E-.912
;WIPE_END
G1 E-.048 F4200
G1 Z.4 F720
G1 X115.926 Y69.706 F9000
G1 Z.2 F720
M73 P3 R55
G1 E3.2 F2400
M204 P800
G1 F1200
G1 X115.337 Y69.117 E.02623
G1 X114.801 Y69.117 E.01686
G1 X115.756 Y70.072 E.04252
G1 X115.756 Y70.607 E.01686
G1 X114.266 Y69.117 E.06637
G1 X113.73 Y69.117 E.01686
