; generated by PrusaSlicer 2.4.2+win64 on 2022-09-25 at 11:37:02 UTC


;
;

;
;
; 

; external perimeters extrusion width = 0.45mm
; perimeters extrusion width = 0.45mm
; infill extrusion width = 0.45mm
; solid infill extrusion width = 0.45mm
; top infill extrusion width = 0.40mm
; first layer extrusion width = 0.42mm

M73 P0 R34
M201 X2500 Y2500 Z400 E5000 ; sets maximum accelerations, mm/sec^2
M203 X180 Y180 Z12 E80 ; sets maximum feedrates, mm / sec
M204 P1250 R1250 T2500 ; sets acceleration (P, T) and retract acceleration (R), mm/sec^2
M205 X8.00 Y8.00 Z2.00 E10.00 ; sets the jerk limits, mm/sec
M205 S0 T0 ; sets the minimum extruding and travel feed rate, mm/sec
M107
;TYPE:Custom
M862.3 P "MINI" ; printer model check
G90 ; use absolute coordinates
M83 ; extruder relative mode
M104 S170 ; set extruder temp for bed leveling
M140 S60 ; set bed temp
M109 R170 ; wait for bed leveling temp
M190 S60 ; wait for bed temp
M204 T1250 ; set travel acceleration
G28 ; home all without mesh bed level
G29 ; mesh bed leveling 
M204 T2500 ; restore travel acceleration
M104 S215 ; set extruder temp
G92 E0
G1 Y-2 X179 F2400
G1 Z3 F720
M109 S215 ; wait for extruder temp

; intro line
G1 X170 F1000
G1 Z0.2 F720
G1 X110 E8 F900
G1 X40 E10 F700
G92 E0

M221 S95 ; set flow
G21 ; set units to millimeters
G90 ; use absolute coordinates
M83 ; use relative distances for extrusion
M900 K0.2 ; Filament gcode LA 1.5
; ; Filament gcode LA 1.0
M107
;LAYER_CHANGE
;Z:0.2
;HEIGHT:0.2
;BEFORE_LAYER_CHANGE
G92 E0.0
;0.2


G1 E-3.2 F4200
G1 Z.2 F720
;AFTER_LAYER_CHANGE
;0.2
G1 Z.4
G1 X57.319 Y65.319 F9000
G1 Z.2 F720
G1 E3.2 F2400
M204 P800
;TYPE:Skirt/Brim
;WIDTH:0.42
G1 F1200
G1 X59 Y64.623 E.05704
G1 X121 Y64.623 E1.94397
G1 X122.681 Y65.319 E.05704
G1 X128.681 Y71.319 E.26605
G1 X129.377 Y73 E.05704
G1 X129.377 Y107 E1.06605
G1 X128.681 Y108.681 E.05704
M73 P1 R34
G1 X122.681 Y114.681 E.26605
G1 X121 Y115.377 E.05704
G1 X59 Y115.377 E1.94397
G1 X57.319 Y114.681 E.05704
G1 X51.319 Y108.681 E.26605
G1 X50.623 Y107 E.05704
G1 X50.623 Y73 E1.06605
G1 X51.319 Y71.319 E.05704
G1 X57.277 Y65.362 E.26417
M204 P1000
; printing object Side Wall 2.stl id:0 copy 0
G1 E-2.24 F4200
;WIPE_START
G1 F7200
G1 X58.789 Y64.713 E-.912
;WIPE_END
G1 E-.048 F4200
G1 Z.4 F720
G1 X59.213 Y72.713 F9000
G1 Z.2 F720
G1 E3.2 F2400
M204 P800
;TYPE:Perimeter
G1 F1200
G1 X116.787 Y72.713 E1.8052
G1 X116.787 Y94.287 E.67644
G1 X59.213 Y94.287 E1.8052
G1 X59.213 Y72.773 E.67456
M204 P1000
M73 P1 R33
G1 X59.59 Y73.09 F9000
M204 P800
;TYPE:External perimeter
G1 F1200
G1 X116.41 Y73.09 E1.78155
G1 X116.41 Y93.91 E.6528
G1 X59.59 Y93.91 E1.78155
G1 X59.59 Y73.15 E.65092
M204 P1000
M73 P2 R33
G1 X59.432 Y72.723 F9000
G1 E-2.24 F4200
;WIPE_START
G1 F7200
G1 X61.236 Y73.148 E-.912
;WIPE_END
G1 E-.048 F4200
G1 Z.4 F720
G1 X59.787 Y70.787 F9000
G1 Z.2 F720
G1 E3.2 F2400
M204 P800
;TYPE:Perimeter
G1 F1200
G1 X59.787 Y67.787 E.09406
G1 X61.213 Y67.787 E.04471
G1 X61.213 Y70.787 E.09406
G1 X89.287 Y70.787 E.88025
G1 X89.287 Y67.787 E.09406
G1 X90.713 Y67.787 E.04471
G1 X90.713 Y70.787 E.09406
G1 X118.787 Y70.787 E.88025
G1 X118.787 Y67.787 E.09406
G1 X120.213 Y67.787 E.04471
G1 X120.213 Y70.787 E.09406
G1 X123.213 Y70.787 E.09406
G1 X123.213 Y73.787 E.09406
G1 X126.213 Y73.787 E.09406
G1 X126.213 Y75.213 E.04471
G1 X123.213 Y75.213 E.09406
G1 X123.213 Y89.287 E.44129
G1 X126.213 Y89.287 E.09406
G1 X126.213 Y90.713 E.04471
G1 X123.213 Y90.713 E.09406
G1 X123.213 Y104.787 E.44129
G1 X126.213 Y104.787 E.09406
G1 X126.213 Y106.213 E.04471
G1 X123.213 Y106.213 E.09406
G1 X123.213 Y109.213 E.09406
G1 X120.213 Y109.213 E.09406
G1 X120.213 Y112.213 E.09406
G1 X118.787 Y112.213 E.04471
G1 X118.787 Y109.213 E.09406
G1 X90.713 Y109.213 E.88025
G1 X90.713 Y112.213 E.09406
G1 X89.287 Y112.213 E.04471
G1 X89.287 Y109.213 E.09406
G1 X61.213 Y109.213 E.88025
G1 X61.213 Y112.213 E.09406
G1 X59.787 Y112.213 E.04471
G1 X59.787 Y109.213 E.09406
G1 X56.787 Y109.213 E.09406
G1 X56.787 Y106.213 E.09406
G1 X53.787 Y106.213 E.09406
G1 X53.787 Y104.787 E.04471
G1 X56.787 Y104.787 E.09406
G1 X56.787 Y90.713 E.44129
G1 X53.787 Y90.713 E.09406
G1 X53.787 Y89.287 E.04471
G1 X56.787 Y89.287 E.09406
G1 X56.787 Y75.213 E.44129
G1 X53.787 Y75.213 E.09406
G1 X53.787 Y73.787 E.04471
G1 X56.787 Y73.787 E.09406
G1 X56.787 Y70.787 E.09406
G1 X59.727 Y70.787 E.09218
M204 P1000
G1 X59.41 Y70.41 F9000
M204 P800
;TYPE:External perimeter
G1 F1200
G1 X59.41 Y67.41 E.09406
G1 X61.59 Y67.41 E.06835
G1 X61.59 Y70.41 E.09406
G1 X88.91 Y70.41 E.8566
G1 X88.91 Y67.41 E.09406
G1 X91.09 Y67.41 E.06835
G1 X91.09 Y70.41 E.09406
G1 X118.41 Y70.41 E.8566
G1 X118.41 Y67.41 E.09406
M73 P3 R33
G1 X120.59 Y67.41 E.06835
G1 X120.59 Y70.41 E.09406
G1 X123.59 Y70.41 E.09406
G1 X123.59 Y73.41 E.09406
G1 X126.59 Y73.41 E.09406
G1 X126.59 Y75.59 E.06835
G1 X123.59 Y75.59 E.09406
G1 X123.59 Y88.91 E.41764
G1 X126.59 Y88.91 E.09406
G1 X126.59 Y91.09 E.06835
G1 X123.59 Y91.09 E.09406
G1 X123.59 Y104.41 E.41764
G1 X126.59 Y104.41 E.09406
G1 X126.59 Y106.59 E.06835
G1 X123.59 Y106.59 E.09406
G1 X123.59 Y109.59 E.09406
G1 X120.59 Y109.59 E.09406
G1 X120.59 Y112.59 E.09406
G1 X118.41 Y112.59 E.06835
G1 X118.41 Y109.59 E.09406
G1 X91.09 Y109.59 E.8566
G1 X91.09 Y112.59 E.09406
G1 X88.91 Y112.59 E.06835
G1 X88.91 Y109.59 E.09406
G1 X61.59 Y109.59 E.8566
G1 X61.59 Y112.59 E.09406
G1 X59.41 Y112.59 E.06835
G1 X59.41 Y109.59 E.09406
G1 X56.41 Y109.59 E.09406
G1 X56.41 Y106.59 E.09406
G1 X53.41 Y106.59 E.09406
G1 X53.41 Y104.41 E.06835
G1 X56.41 Y104.41 E.09406
G1 X56.41 Y91.09 E.41764
G1 X53.41 Y91.09 E.09406
G1 X53.41 Y88.91 E.06835
G1 X56.41 Y88.91 E.09406
G1 X56.41 Y75.59 E.41764
G1 X53.41 Y75.59 E.09406
G1 X53.41 Y73.41 E.06835
G1 X56.41 Y73.41 E.09406
G1 X56.41 Y70.41 E.09406
G1 X59.35 Y70.41 E.09218
M204 P1000
G1 X59.796 Y70.306 F9000
G1 E-2.24 F4200
;WIPE_START
G1 F7200
G1 X59.383 Y68.765 E-.912
;WIPE_END
G1 E-.048 F4200
G1 Z.4 F720
G1 X125.297 Y89.4 F9000
G1 Z.2 F720
G1 E3.2 F2400
M204 P800
;TYPE:Solid infill
;WIDTH:0.421764
G1 F1200
G1 X125.93 Y90.034 E.02822
G1 X125.93 Y90.43 E.01249
G1 X125.791 Y90.43 E.00439
G1 X124.93 Y89.57 E.03832
G1 X124.395 Y89.57 E.01688
G1 X125.255 Y90.43 E.03832
G1 X124.719 Y90.43 E.01688
G1 X123.689 Y89.4 E.04588
M204 P1000
G1 E-2.24 F4200
;WIPE_START
G1 F7200
G1 X124.719 Y90.43 E-.80717
G1 X124.908 Y90.43 E-.10483
;WIPE_END
G1 E-.048 F4200
G1 Z.4 F720
G1 X120.1 Y68.666 F9000
G1 Z.2 F720
G1 E3.2 F2400
M204 P800
G1 F1200
G1 X119.503 Y68.07 E.02657
G1 X119.07 Y68.07 E.01366
G1 X119.07 Y68.172 E.00322
G1 X119.93 Y69.032 E.03832
G1 X119.93 Y69.568 E.01688
G1 X119.07 Y68.708 E.03832
G1 X119.07 Y69.244 E.01688
G1 X120.1 Y70.274 E.04588
M204 P1000
G1 E-2.24 F4200
;WIPE_START
G1 F7200
G1 X119.07 Y69.244 E-.80717
G1 X119.07 Y69.054 E-.10483
;WIPE_END
G1 E-.048 F4200
G1 Z.4 F720
G1 X122.334 Y70.9 F9000
G1 Z.2 F720
G1 E3.2 F2400
M204 P800
G1 F1200
G1 X122.93 Y71.497 E.02657
G1 X122.93 Y72.032 E.01688
G1 X121.968 Y71.07 E.04287
G1 X121.432 Y71.07 E.01688
G1 X122.93 Y72.568 E.06674
G1 X122.93 Y73.104 E.01688
G1 X120.726 Y70.9 E.09817
M204 P1000
G1 E-2.24 F4200
;WIPE_START
G1 F7200
G1 X121.89 Y72.064 E-.912
;WIPE_END
G1 E-.048 F4200
G1 Z.4 F720
G1 X125.334 Y73.9 F9000
G1 Z.2 F720
G1 E3.2 F2400
M204 P800
G1 F1200
G1 X125.93 Y74.497 E.02657
G1 X125.93 Y74.93 E.01366
G1 X125.828 Y74.93 E.00322
G1 X124.968 Y74.07 E.03832
G1 X124.432 Y74.07 E.01688
G1 X125.292 Y74.93 E.03832
G1 X124.756 Y74.93 E.01688
G1 X123.726 Y73.9 E.04588
M204 P1000
G1 X124.39 Y75.1 F9000
M204 P800
G1 F1200
G1 X123.36 Y74.07 E.04588
G1 X122.93 Y74.07 E.01355
G1 X122.93 Y73.64 E.01355
G1 X120.36 Y71.07 E.11448
G1 X119.93 Y71.07 E.01355
G1 X119.93 Y70.64 E.01355
G1 X119.07 Y69.779 E.03832
G1 X119.07 Y70.315 E.01688
G1 X123.685 Y74.93 E.2056
G1 X123.149 Y74.93 E.01688
G1 X119.07 Y70.851 E.18173
G1 X119.07 Y71.07 E.0069
G1 X118.753 Y71.07 E.00998
G1 X122.93 Y75.247 E.18608
G1 X122.93 Y75.783 E.01688
G1 X118.217 Y71.07 E.20995
G1 X117.682 Y71.07 E.01688
G1 X122.93 Y76.318 E.23382
G1 X122.93 Y76.854 E.01688
G1 X117.146 Y71.07 E.25769
G1 X116.61 Y71.07 E.01688
G1 X122.93 Y77.39 E.28155
G1 X122.93 Y77.926 E.01688
G1 X116.074 Y71.07 E.30542
G1 X115.539 Y71.07 E.01688
G1 X122.93 Y78.461 E.32929
G1 X122.93 Y78.997 E.01688
G1 X117.07 Y73.137 E.26107
G1 X117.07 Y73.673 E.01688
G1 X122.93 Y79.533 E.26107
G1 X122.93 Y80.069 E.01688
M73 P4 R33
G1 X117.07 Y74.209 E.26107
G1 X117.07 Y74.744 E.01688
G1 X122.93 Y80.605 E.26107
G1 X122.93 Y81.14 E.01688
G1 X117.07 Y75.28 E.26107
G1 X117.07 Y75.816 E.01688
G1 X122.93 Y81.676 E.26107
G1 X122.93 Y82.212 E.01688
G1 X117.07 Y76.352 E.26107
G1 X117.07 Y76.887 E.01688
G1 X122.93 Y82.748 E.26107
G1 X122.93 Y83.283 E.01688
G1 X117.07 Y77.423 E.26107
G1 X117.07 Y77.959 E.01688
G1 X122.93 Y83.819 E.26107
G1 X122.93 Y84.355 E.01688
G1 X117.07 Y78.495 E.26107
G1 X117.07 Y79.03 E.01688
G1 X122.93 Y84.891 E.26107
G1 X122.93 Y85.426 E.01688
G1 X117.07 Y79.566 E.26107
G1 X117.07 Y80.102 E.01688
G1 X122.93 Y85.962 E.26107
G1 X122.93 Y86.498 E.01688
G1 X117.07 Y80.638 E.26107
G1 X117.07 Y81.173 E.01688
G1 X122.93 Y87.034 E.26107
G1 X122.93 Y87.57 E.01688
G1 X117.07 Y81.709 E.26107
G1 X117.07 Y82.245 E.01688
G1 X122.93 Y88.105 E.26107
G1 X122.93 Y88.641 E.01688
G1 X117.07 Y82.781 E.26107
G1 X117.07 Y83.317 E.01688
G1 X122.93 Y89.177 E.26107
G1 X122.93 Y89.57 E.01238
G1 X123.323 Y89.57 E.01238
G1 X124.183 Y90.43 E.03832
G1 X123.648 Y90.43 E.01688
G1 X117.07 Y83.852 E.29304
G1 X117.07 Y84.388 E.01688
G1 X123.112 Y90.43 E.26917
G1 X122.93 Y90.43 E.00573
G1 X122.93 Y90.784 E.01115
G1 X117.07 Y84.924 E.26107
G1 X117.07 Y85.46 E.01688
M73 P4 R32
G1 X122.93 Y91.32 E.26107
G1 X122.93 Y91.856 E.01688
G1 X117.07 Y85.995 E.26107
G1 X117.07 Y86.531 E.01688
G1 X122.93 Y92.391 E.26107
G1 X122.93 Y92.927 E.01688
G1 X117.07 Y87.067 E.26107
G1 X117.07 Y87.603 E.01688
G1 X122.93 Y93.463 E.26107
G1 X122.93 Y93.999 E.01688
G1 X117.07 Y88.138 E.26107
G1 X117.07 Y88.674 E.01688
G1 X122.93 Y94.534 E.26107
G1 X122.93 Y95.07 E.01688
G1 X117.07 Y89.21 E.26107
G1 X117.07 Y89.746 E.01688
G1 X122.93 Y95.606 E.26107
G1 X122.93 Y96.142 E.01688
G1 X117.07 Y90.282 E.26107
G1 X117.07 Y90.817 E.01688
G1 X122.93 Y96.678 E.26107
G1 X122.93 Y97.213 E.01688
G1 X117.07 Y91.353 E.26107
G1 X117.07 Y91.889 E.01688
G1 X122.93 Y97.749 E.26107
G1 X122.93 Y98.285 E.01688
G1 X117.07 Y92.425 E.26107
G1 X117.07 Y92.96 E.01688
G1 X122.93 Y98.821 E.26107
G1 X122.93 Y99.356 E.01688
G1 X117.07 Y93.496 E.26107
G1 X117.07 Y94.032 E.01688
G1 X122.93 Y99.892 E.26107
G1 X122.93 Y100.428 E.01688
G1 X117.07 Y94.568 E.26107
G1 X116.536 Y94.57 E.01681
G1 X122.93 Y100.964 E.28484
G1 X122.93 Y101.499 E.01688
G1 X116.001 Y94.57 E.30871
G1 X115.465 Y94.57 E.01688
G1 X122.93 Y102.035 E.33257
G1 X122.93 Y102.571 E.01688
G1 X114.929 Y94.57 E.35644
G1 X114.393 Y94.57 E.01688
G1 X122.93 Y103.107 E.38031
G1 X122.93 Y103.642 E.01688
M73 P5 R32
G1 X113.858 Y94.57 E.40418
G1 X113.322 Y94.57 E.01688
G1 X123.1 Y104.348 E.4356
M204 P1000
G1 E-2.24 F4200
;WIPE_START
G1 F7200
G1 X121.936 Y103.184 E-.912
;WIPE_END
G1 E-.048 F4200
G1 Z.4 F720
G1 X125.259 Y104.9 F9000
G1 Z.2 F720
G1 E3.2 F2400
M204 P800
G1 F1200
G1 X125.93 Y105.571 E.02988
G1 X125.93 Y105.93 E.01131
G1 X125.754 Y105.93 E.00556
G1 X124.893 Y105.07 E.03832
G1 X124.358 Y105.07 E.01688
G1 X125.218 Y105.93 E.03832
G1 X124.682 Y105.93 E.01688
G1 X123.652 Y104.9 E.04588
M204 P1000
G1 X124.316 Y106.1 F9000
M204 P800
G1 F1200
G1 X123.286 Y105.07 E.04588
G1 X122.93 Y105.07 E.01121
G1 X122.93 Y104.714 E.01121
G1 X112.786 Y94.57 E.45191
G1 X112.25 Y94.57 E.01688
G1 X123.61 Y105.93 E.50609
G1 X123.075 Y105.93 E.01688
G1 X111.714 Y94.57 E.50609
G1 X111.179 Y94.57 E.01688
G1 X122.93 Y106.321 E.52352
G1 X122.93 Y106.857 E.01688
G1 X110.643 Y94.57 E.54739
G1 X110.107 Y94.57 E.01688
G1 X122.93 Y107.393 E.57125
G1 X122.93 Y107.929 E.01688
G1 X109.571 Y94.57 E.59512
G1 X109.036 Y94.57 E.01688
G1 X122.93 Y108.464 E.61899
G1 X122.93 Y108.93 E.01467
G1 X122.86 Y108.93 E.00221
G1 X108.5 Y94.57 E.63974
G1 X107.964 Y94.57 E.01688
G1 X122.324 Y108.93 E.63974
G1 X121.789 Y108.93 E.01688
G1 X107.428 Y94.57 E.63974
G1 X106.893 Y94.57 E.01688
G1 X121.253 Y108.93 E.63974
G1 X120.717 Y108.93 E.01688
G1 X106.357 Y94.57 E.63974
G1 X105.821 Y94.57 E.01688
G1 X120.181 Y108.93 E.63974
G1 X119.93 Y108.93 E.00791
G1 X119.93 Y109.215 E.00897
G1 X105.285 Y94.57 E.65242
G1 X104.749 Y94.57 E.01688
G1 X119.93 Y109.751 E.67628
G1 X119.93 Y110.286 E.01688
G1 X119.07 Y109.426 E.03832
G1 X119.07 Y108.93 E.01562
G1 X118.574 Y108.93 E.01562
G1 X104.214 Y94.57 E.63974
G1 X103.678 Y94.57 E.01688
G1 X118.038 Y108.93 E.63974
G1 X117.502 Y108.93 E.01688
G1 X103.142 Y94.57 E.63974
G1 X102.606 Y94.57 E.01688
M73 P6 R32
G1 X116.967 Y108.93 E.63974
G1 X116.431 Y108.93 E.01688
G1 X102.071 Y94.57 E.63974
G1 X101.535 Y94.57 E.01688
G1 X115.895 Y108.93 E.63974
G1 X115.359 Y108.93 E.01688
G1 X100.999 Y94.57 E.63974
G1 X100.463 Y94.57 E.01688
G1 X114.824 Y108.93 E.63974
G1 X114.288 Y108.93 E.01688
G1 X99.928 Y94.57 E.63974
G1 X99.392 Y94.57 E.01688
G1 X113.752 Y108.93 E.63974
G1 X113.216 Y108.93 E.01688
G1 X98.856 Y94.57 E.63974
G1 X98.32 Y94.57 E.01688
G1 X112.681 Y108.93 E.63974
G1 X112.145 Y108.93 E.01688
G1 X97.785 Y94.57 E.63974
G1 X97.249 Y94.57 E.01688
G1 X111.609 Y108.93 E.63974
G1 X111.073 Y108.93 E.01688
G1 X96.713 Y94.57 E.63974
G1 X96.177 Y94.57 E.01688
G1 X110.537 Y108.93 E.63974
G1 X110.002 Y108.93 E.01688
G1 X95.641 Y94.57 E.63974
G1 X95.106 Y94.57 E.01688
G1 X109.466 Y108.93 E.63974
G1 X108.93 Y108.93 E.01688
G1 X94.57 Y94.57 E.63974
G1 X94.034 Y94.57 E.01688
G1 X108.394 Y108.93 E.63974
G1 X107.859 Y108.93 E.01688
G1 X93.498 Y94.57 E.63974
G1 X92.963 Y94.57 E.01688
G1 X107.323 Y108.93 E.63974
G1 X106.787 Y108.93 E.01688
M73 P7 R32
G1 X92.427 Y94.57 E.63974
G1 X91.891 Y94.57 E.01688
G1 X106.251 Y108.93 E.63974
G1 X105.716 Y108.93 E.01688
G1 X91.355 Y94.57 E.63974
G1 X90.82 Y94.57 E.01688
G1 X105.18 Y108.93 E.63974
G1 X104.644 Y108.93 E.01688
G1 X90.284 Y94.57 E.63974
G1 X89.748 Y94.57 E.01688
G1 X104.108 Y108.93 E.63974
G1 X103.573 Y108.93 E.01688
G1 X89.212 Y94.57 E.63974
G1 X88.676 Y94.57 E.01688
G1 X103.037 Y108.93 E.63974
G1 X102.501 Y108.93 E.01688
M73 P7 R31
G1 X88.141 Y94.57 E.63974
G1 X87.605 Y94.57 E.01688
G1 X101.965 Y108.93 E.63974
G1 X101.429 Y108.93 E.01688
G1 X87.069 Y94.57 E.63974
G1 X86.533 Y94.57 E.01688
G1 X100.894 Y108.93 E.63974
G1 X100.358 Y108.93 E.01688
G1 X85.998 Y94.57 E.63974
G1 X85.462 Y94.57 E.01688
G1 X99.822 Y108.93 E.63974
G1 X99.286 Y108.93 E.01688
G1 X84.926 Y94.57 E.63974
G1 X84.39 Y94.57 E.01688
G1 X98.751 Y108.93 E.63974
G1 X98.215 Y108.93 E.01688
G1 X83.855 Y94.57 E.63974
G1 X83.319 Y94.57 E.01688
G1 X97.679 Y108.93 E.63974
G1 X97.143 Y108.93 E.01688
G1 X82.783 Y94.57 E.63974
G1 X82.247 Y94.57 E.01688
G1 X96.608 Y108.93 E.63974
G1 X96.072 Y108.93 E.01688
M73 P8 R31
G1 X81.712 Y94.57 E.63974
G1 X81.176 Y94.57 E.01688
G1 X95.536 Y108.93 E.63974
G1 X95 Y108.93 E.01688
G1 X80.64 Y94.57 E.63974
G1 X80.104 Y94.57 E.01688
G1 X94.464 Y108.93 E.63974
G1 X93.929 Y108.93 E.01688
G1 X79.568 Y94.57 E.63974
G1 X79.033 Y94.57 E.01688
G1 X93.393 Y108.93 E.63974
G1 X92.857 Y108.93 E.01688
G1 X78.497 Y94.57 E.63974
G1 X77.961 Y94.57 E.01688
G1 X92.321 Y108.93 E.63974
G1 X91.786 Y108.93 E.01688
G1 X77.425 Y94.57 E.63974
G1 X76.89 Y94.57 E.01688
G1 X91.25 Y108.93 E.63974
G1 X90.714 Y108.93 E.01688
G1 X76.354 Y94.57 E.63974
G1 X75.818 Y94.57 E.01688
G1 X90.43 Y109.182 E.65095
G1 X90.43 Y109.718 E.01688
G1 X75.282 Y94.57 E.67482
G1 X74.747 Y94.57 E.01688
G1 X89.107 Y108.93 E.63974
G1 X89.57 Y108.93 E.01459
G1 X89.57 Y109.393 E.01459
G1 X90.6 Y110.423 E.04588
M204 P1000
G1 X89.4 Y109.759 F9000
M204 P800
G1 F1200
G1 X90.43 Y110.789 E.04588
G1 X90.43 Y111.325 E.01688
G1 X89.57 Y110.465 E.03832
G1 X89.57 Y111 E.01688
G1 X90.43 Y111.861 E.03832
G1 X90.43 Y111.93 E.00219
G1 X89.964 Y111.93 E.01469
G1 X89.4 Y111.367 E.02511
M204 P1000
G1 E-2.24 F4200
;WIPE_START
G1 F7200
G1 X89.964 Y111.93 E-.44166
G1 X90.43 Y111.93 E-.25845
G1 X90.43 Y111.861 E-.03845
G1 X90.209 Y111.639 E-.17343
;WIPE_END
