; generated by PrusaSlicer 2.4.2+win64 on 2022-10-31 at 03:05:27 UTC


;
;

;
;
; 

; external perimeters extrusion width = 0.45mm
; perimeters extrusion width = 0.45mm
; infill extrusion width = 0.45mm
; solid infill extrusion width = 0.45mm
; top infill extrusion width = 0.40mm
; first layer extrusion width = 0.42mm

; external perimeters extrusion width = 0.45mm
; perimeters extrusion width = 0.45mm
; infill extrusion width = 0.45mm
; solid infill extrusion width = 0.45mm
; top infill extrusion width = 0.40mm
; first layer extrusion width = 0.42mm

M73 P0 R123
M201 X2500 Y2500 Z400 E5000 ; sets maximum accelerations, mm/sec^2
M203 X180 Y180 Z12 E80 ; sets maximum feedrates, mm / sec
M204 P1250 R1250 T2500 ; sets acceleration (P, T) and retract acceleration (R), mm/sec^2
M205 X8.00 Y8.00 Z2.00 E10.00 ; sets the jerk limits, mm/sec
M205 S0 T0 ; sets the minimum extruding and travel feed rate, mm/sec
M107
;TYPE:Custom
M862.3 P "MINI" ; printer model check
G90 ; use absolute coordinates
M83 ; extruder relative mode
M104 S170 ; set extruder temp for bed leveling
M140 S60 ; set bed temp
M109 R170 ; wait for bed leveling temp
M190 S60 ; wait for bed temp
M204 T1250 ; set travel acceleration
G28 ; home all without mesh bed level
G29 ; mesh bed leveling 
M204 T2500 ; restore travel acceleration
M104 S215 ; set extruder temp
G92 E0
G1 Y-2 X179 F2400
G1 Z3 F720
M109 S215 ; wait for extruder temp

; intro line
G1 X170 F1000
G1 Z0.2 F720
M73 P0 R122
G1 X110 E8 F900
G1 X40 E10 F700
G92 E0

M221 S95 ; set flow
G21 ; set units to millimeters
G90 ; use absolute coordinates
M83 ; use relative distances for extrusion
M900 K0.2 ; Filament gcode LA 1.5
; ; Filament gcode LA 1.0
M107
;LAYER_CHANGE
;Z:0.2
;HEIGHT:0.2
;BEFORE_LAYER_CHANGE
G92 E0.0
;0.2


G1 E-3.2 F4200
G1 Z.2 F720
;AFTER_LAYER_CHANGE
;0.2
G1 Z.4
G1 X40.744 Y40.371 F9000
G1 Z.2 F720
G1 E3.2 F2400
M204 P800
;TYPE:Skirt/Brim
;WIDTH:0.42
G1 F1200
G1 X41.575 Y39.6 E.03554
G1 X50.575 Y34.6 E.32281
G1 X51.728 Y34.301 E.03733
G1 X128.335 Y34.262 E2.40197
G1 X129.49 Y34.561 E.03739
G1 X138.49 Y39.561 E.32281
G1 X139.442 Y40.538 E.04278
G1 X139.712 Y41.639 E.03554
G1 X139.712 Y141.639 E3.13543
G1 X139.321 Y142.946 E.04278
G1 X138.275 Y143.822 E.04278
G1 X137.337 Y144.016 E.03003
G1 X42.73 Y144.055 E2.96635
G1 X41.423 Y143.664 E.04278
G1 X40.546 Y142.618 E.04278
G1 X40.353 Y141.678 E.03008
G1 X40.353 Y41.678 E3.13543
G1 X40.727 Y40.429 E.0409
M204 P1000
; printing object Side2.stl id:1 copy 0
G1 E-2.24 F4200
;WIPE_START
G1 F7200
G1 X41.575 Y39.6 E-.65706
G1 X41.978 Y39.377 E-.25494
;WIPE_END
G1 E-.048 F4200
G1 Z.4 F720
G1 X113.048 Y114.852 F9000
G1 Z.2 F720
G1 E3.2 F2400
M204 P800
;TYPE:Perimeter
G1 F1200
G1 X117.622 Y114.852 E.14342
G1 X117.622 Y119.426 E.14342
G1 X113.048 Y119.426 E.14342
G1 X113.048 Y114.912 E.14154
M204 P1000
G1 X113.425 Y115.229 F9000
M204 P800
;TYPE:External perimeter
G1 F1200
G1 X117.245 Y115.229 E.11977
G1 X117.245 Y119.049 E.11977
G1 X113.425 Y119.049 E.11977
G1 X113.425 Y115.289 E.11789
M204 P1000
G1 X113.322 Y114.842 F9000
G1 E-2.24 F4200
;WIPE_START
G1 F7200
G1 X115.071 Y115.263 E-.912
;WIPE_END
G1 E-.048 F4200
G1 Z.4 F720
G1 X97.122 Y111.926 F9000
G1 Z.2 F720
G1 E3.2 F2400
M204 P800
;TYPE:Perimeter
G1 F1200
G1 X97.122 Y107.352 E.14342
G1 X94.122 Y107.352 E.09406
G1 X94.122 Y87.426 E.62476
G1 X97.122 Y87.426 E.09406
G1 X97.122 Y82.852 E.14342
G1 X94.122 Y82.852 E.09406
G1 X94.122 Y42.426 E1.26752
G1 X103.122 Y42.426 E.28219
G1 X103.122 Y37.426 E.15677
G1 X127.548 Y37.426 E.76586
G1 X127.548 Y42.426 E.15677
G1 X136.548 Y42.426 E.28219
G1 X136.548 Y82.852 E1.26752
G1 X133.548 Y82.852 E.09406
G1 X133.548 Y87.426 E.14342
G1 X136.548 Y87.426 E.09406
G1 X136.548 Y107.352 E.62476
G1 X133.548 Y107.352 E.09406
G1 X133.548 Y111.926 E.14342
G1 X136.548 Y111.926 E.09406
G1 X136.548 Y131.852 E.62476
G1 X133.548 Y131.852 E.09406
G1 X133.548 Y136.426 E.14342
G1 X136.548 Y136.426 E.09406
G1 X136.548 Y140.852 E.13877
G1 X135.122 Y140.852 E.04471
G1 X135.122 Y137.852 E.09406
G1 X130.548 Y137.852 E.14342
G1 X130.548 Y140.852 E.09406
G1 X117.622 Y140.852 E.40528
G1 X117.622 Y137.852 E.09406
G1 X113.048 Y137.852 E.14342
G1 X113.048 Y140.852 E.09406
G1 X100.122 Y140.852 E.40528
G1 X100.122 Y137.852 E.09406
G1 X95.548 Y137.852 E.14342
G1 X95.548 Y140.852 E.09406
G1 X94.122 Y140.852 E.04471
G1 X94.122 Y136.426 E.13877
G1 X97.122 Y136.426 E.09406
G1 X97.122 Y131.852 E.14342
G1 X94.122 Y131.852 E.09406
G1 X94.122 Y111.926 E.62476
G1 X97.062 Y111.926 E.09218
M204 P1000
G1 X96.745 Y111.549 F9000
M204 P800
;TYPE:External perimeter
G1 F1200
G1 X96.745 Y107.729 E.11977
G1 X93.745 Y107.729 E.09406
G1 X93.745 Y87.049 E.64841
G1 X96.745 Y87.049 E.09406
G1 X96.745 Y83.229 E.11977
G1 X93.745 Y83.229 E.09406
G1 X93.745 Y42.049 E1.29117
G1 X102.745 Y42.049 E.28219
G1 X102.745 Y37.049 E.15677
G1 X127.925 Y37.049 E.7895
G1 X127.925 Y42.049 E.15677
G1 X136.925 Y42.049 E.28219
G1 X136.925 Y83.229 E1.29117
G1 X133.925 Y83.229 E.09406
M73 P0 R121
G1 X133.925 Y87.049 E.11977
G1 X136.925 Y87.049 E.09406
G1 X136.925 Y107.729 E.64841
G1 X133.925 Y107.729 E.09406
G1 X133.925 Y111.549 E.11977
G1 X136.925 Y111.549 E.09406
G1 X136.925 Y132.229 E.64841
G1 X133.925 Y132.229 E.09406
G1 X133.925 Y136.049 E.11977
G1 X136.925 Y136.049 E.09406
G1 X136.925 Y141.229 E.16242
G1 X134.745 Y141.229 E.06835
G1 X134.745 Y138.229 E.09406
G1 X130.925 Y138.229 E.11977
G1 X130.925 Y141.229 E.09406
G1 X117.245 Y141.229 E.42893
G1 X117.245 Y138.229 E.09406
G1 X113.425 Y138.229 E.11977
G1 X113.425 Y141.229 E.09406
G1 X99.745 Y141.229 E.42893
G1 X99.745 Y138.229 E.09406
G1 X95.925 Y138.229 E.11977
G1 X95.925 Y141.229 E.09406
G1 X93.745 Y141.229 E.06835
G1 X93.745 Y136.049 E.16242
G1 X96.745 Y136.049 E.09406
G1 X96.745 Y132.229 E.11977
G1 X93.745 Y132.229 E.09406
M73 P1 R121
G1 X93.745 Y111.549 E.64841
G1 X96.685 Y111.549 E.09218
M204 P1000
G1 X97.101 Y111.366 F9000
G1 E-2.24 F4200
;WIPE_START
G1 F7200
G1 X96.711 Y109.903 E-.912
;WIPE_END
G1 E-.048 F4200
G1 Z.4 F720
G1 X135.666 Y136.539 F9000
G1 Z.2 F720
G1 E3.2 F2400
M204 P800
;TYPE:Solid infill
;WIDTH:0.420602
G1 F1200
G1 X136.265 Y137.138 E.02663
G1 X136.265 Y137.673 E.01677
G1 X135.302 Y136.709 E.04281
G1 X134.767 Y136.709 E.01677
G1 X136.265 Y138.207 E.06653
G1 X136.265 Y138.741 E.01677
G1 X134.064 Y136.539 E.09779
M204 P1000
G1 E-2.24 F4200
;WIPE_START
G1 F7200
G1 X135.227 Y137.703 E-.912
;WIPE_END
G1 E-.048 F4200
G1 Z.4 F720
G1 X135.236 Y138.245 F9000
G1 Z.2 F720
G1 E3.2 F2400
M204 P800
G1 F1200
G1 X136.265 Y139.275 E.04574
G1 X136.265 Y139.809 E.01677
G1 X135.405 Y138.949 E.03821
G1 X135.405 Y139.483 E.01677
G1 X136.265 Y140.343 E.03821
G1 X136.265 Y140.569 E.00709
G1 X135.957 Y140.569 E.00969
G1 X135.405 Y140.017 E.02451
G1 X135.405 Y140.551 E.01677
G1 X135.593 Y140.738 E.00832
M204 P1000
G1 E-2.24 F4200
;WIPE_START
G1 F7200
G1 X135.405 Y140.551 E-.14684
G1 X135.405 Y140.017 E-.29599
G1 X135.957 Y140.569 E-.43246
G1 X136.023 Y140.569 E-.03671
;WIPE_END
G1 E-.048 F4200
G1 Z.4 F720
G1 X136.435 Y112.738 F9000
G1 Z.2 F720
G1 E3.2 F2400
M204 P800
G1 F1200
G1 X135.905 Y112.209 E.02353
G1 X135.371 Y112.209 E.01677
G1 X136.265 Y113.103 E.03972
G1 X136.265 Y113.637 E.01677
G1 X134.837 Y112.209 E.06344
G1 X134.303 Y112.209 E.01677
G1 X136.435 Y114.341 E.0947
M204 P1000
G1 E-2.24 F4200
;WIPE_START
G1 F7200
G1 X135.271 Y113.177 E-.912
;WIPE_END
G1 E-.048 F4200
G1 Z.4 F720
G1 X135.672 Y42.539 F9000
G1 Z.2 F720
G1 E3.2 F2400
M204 P800
G1 F1200
G1 X136.265 Y43.133 E.02637
G1 X136.265 Y43.667 E.01677
G1 X135.307 Y42.709 E.04256
G1 X134.773 Y42.709 E.01677
G1 X136.265 Y44.201 E.06628
G1 X136.265 Y44.735 E.01677
G1 X134.239 Y42.709 E.09
G1 X133.705 Y42.709 E.01677
G1 X136.265 Y45.269 E.11373
G1 X136.265 Y45.803 E.01677
G1 X133.171 Y42.709 E.13745
G1 X132.637 Y42.709 E.01677
G1 X136.265 Y46.337 E.16117
G1 X136.265 Y46.872 E.01677
G1 X132.102 Y42.709 E.18489
G1 X131.568 Y42.709 E.01677
G1 X136.265 Y47.406 E.20861
G1 X136.265 Y47.94 E.01677
G1 X131.034 Y42.709 E.23233
G1 X130.5 Y42.709 E.01677
G1 X136.265 Y48.474 E.25606
G1 X136.265 Y49.008 E.01677
G1 X129.966 Y42.709 E.27978
G1 X129.432 Y42.709 E.01677
G1 X136.265 Y49.542 E.3035
G1 X136.265 Y50.076 E.01677
G1 X128.898 Y42.709 E.32722
G1 X128.364 Y42.709 E.01677
G1 X136.265 Y50.61 E.35094
G1 X136.265 Y51.145 E.01677
G1 X127.66 Y42.539 E.3822
M204 P1000
G1 E-2.24 F4200
;WIPE_START
G1 F7200
G1 X128.823 Y43.703 E-.912
;WIPE_END
G1 E-.048 F4200
G1 Z.4 F720
G1 X127.435 Y38.041 F9000
G1 Z.2 F720
G1 E3.2 F2400
M204 P800
G1 F1200
G1 X127.102 Y37.709 E.01478
G1 X126.568 Y37.709 E.01677
G1 X127.265 Y38.406 E.03096
G1 X127.265 Y38.94 E.01677
G1 X126.034 Y37.709 E.05468
G1 X125.5 Y37.709 E.01677
G1 X127.265 Y39.474 E.07841
G1 X127.265 Y40.008 E.01677
G1 X124.966 Y37.709 E.10213
G1 X124.432 Y37.709 E.01677
G1 X127.265 Y40.542 E.12585
G1 X127.265 Y41.076 E.01677
G1 X123.898 Y37.709 E.14957
G1 X123.364 Y37.709 E.01677
G1 X127.265 Y41.61 E.17329
G1 X127.265 Y42.145 E.01677
G1 X122.829 Y37.709 E.19701
G1 X122.295 Y37.709 E.01677
G1 X136.265 Y51.679 E.62045
G1 X136.265 Y52.213 E.01677
G1 X121.761 Y37.709 E.64417
G1 X121.227 Y37.709 E.01677
G1 X136.265 Y52.747 E.66789
G1 X136.265 Y53.281 E.01677
G1 X120.693 Y37.709 E.69161
G1 X120.159 Y37.709 E.01677
G1 X136.265 Y53.815 E.71534
G1 X136.265 Y54.349 E.01677
G1 X119.625 Y37.709 E.73906
G1 X119.091 Y37.709 E.01677
G1 X136.265 Y54.883 E.76278
G1 X136.265 Y55.418 E.01677
G1 X118.556 Y37.709 E.7865
G1 X118.022 Y37.709 E.01677
G1 X136.265 Y55.952 E.81022
G1 X136.265 Y56.486 E.01677
G1 X117.488 Y37.709 E.83394
G1 X116.954 Y37.709 E.01677
G1 X136.265 Y57.02 E.85767
G1 X136.265 Y57.554 E.01677
G1 X116.42 Y37.709 E.88139
G1 X115.886 Y37.709 E.01677
G1 X136.265 Y58.088 E.90511
G1 X136.265 Y58.622 E.01677
G1 X115.352 Y37.709 E.92883
G1 X114.818 Y37.709 E.01677
G1 X136.265 Y59.156 E.95255
G1 X136.265 Y59.691 E.01677
G1 X114.283 Y37.709 E.97628
G1 X113.749 Y37.709 E.01677
G1 X136.265 Y60.225 E1
G1 X136.265 Y60.759 E.01677
G1 X113.215 Y37.709 E1.02372
G1 X112.681 Y37.709 E.01677
G1 X136.265 Y61.293 E1.04744
G1 X136.265 Y61.827 E.01677
G1 X112.147 Y37.709 E1.07116
G1 X111.613 Y37.709 E.01677
G1 X136.265 Y62.361 E1.09488
G1 X136.265 Y62.895 E.01677
G1 X111.079 Y37.709 E1.11861
G1 X110.545 Y37.709 E.01677
G1 X136.265 Y63.429 E1.14233
G1 X136.265 Y63.964 E.01677
G1 X110.01 Y37.709 E1.16605
G1 X109.476 Y37.709 E.01677
G1 X136.265 Y64.498 E1.18977
G1 X136.265 Y65.032 E.01677
G1 X108.942 Y37.709 E1.21349
G1 X108.408 Y37.709 E.01677
M73 P1 R120
G1 X136.265 Y65.566 E1.23721
G1 X136.265 Y66.1 E.01677
G1 X107.874 Y37.709 E1.26094
G1 X107.34 Y37.709 E.01677
G1 X136.265 Y66.634 E1.28466
G1 X136.265 Y67.168 E.01677
G1 X106.806 Y37.709 E1.30838
G1 X106.272 Y37.709 E.01677
G1 X136.265 Y67.702 E1.3321
G1 X136.265 Y68.237 E.01677
G1 X105.738 Y37.709 E1.35582
G1 X105.203 Y37.709 E.01677
G1 X136.265 Y68.771 E1.37955
G1 X136.265 Y69.305 E.01677
G1 X104.669 Y37.709 E1.40327
G1 X104.135 Y37.709 E.01677
G1 X136.265 Y69.839 E1.42699
G1 X136.265 Y70.373 E.01677
G1 X103.601 Y37.709 E1.45071
G1 X103.405 Y37.709 E.00615
M73 P2 R120
G1 X103.405 Y38.047 E.01062
G1 X136.265 Y70.907 E1.45941
G1 X136.265 Y71.441 E.01677
G1 X103.405 Y38.581 E1.45941
G1 X103.405 Y39.115 E.01677
G1 X136.265 Y71.975 E1.45941
G1 X136.265 Y72.51 E.01677
G1 X103.405 Y39.649 E1.45941
G1 X103.405 Y40.183 E.01677
G1 X136.265 Y73.044 E1.45941
G1 X136.265 Y73.578 E.01677
G1 X103.405 Y40.718 E1.45941
G1 X103.405 Y41.252 E.01677
G1 X136.265 Y74.112 E1.45941
G1 X136.265 Y74.646 E.01677
G1 X103.405 Y41.786 E1.45941
G1 X103.405 Y42.32 E.01677
G1 X136.265 Y75.18 E1.45941
G1 X136.265 Y75.714 E.01677
G1 X103.26 Y42.709 E1.46587
G1 X102.726 Y42.709 E.01677
G1 X136.265 Y76.248 E1.48959
G1 X136.265 Y76.782 E.01677
G1 X102.192 Y42.709 E1.51331
G1 X101.657 Y42.709 E.01677
G1 X136.265 Y77.317 E1.53703
G1 X136.265 Y77.851 E.01677
G1 X101.123 Y42.709 E1.56075
G1 X100.589 Y42.709 E.01677
G1 X136.265 Y78.385 E1.58447
G1 X136.265 Y78.919 E.01677
G1 X100.055 Y42.709 E1.6082
G1 X99.521 Y42.709 E.01677
M73 P2 R119
G1 X136.265 Y79.453 E1.63192
G1 X136.265 Y79.987 E.01677
G1 X98.987 Y42.709 E1.65564
G1 X98.453 Y42.709 E.01677
G1 X136.265 Y80.521 E1.67936
G1 X136.265 Y81.055 E.01677
G1 X97.919 Y42.709 E1.70308
G1 X97.384 Y42.709 E.01677
G1 X136.265 Y81.59 E1.7268
G1 X136.265 Y82.124 E.01677
G1 X96.85 Y42.709 E1.75053
G1 X96.316 Y42.709 E.01677
G1 X136.176 Y82.569 E1.77029
G1 X135.642 Y82.569 E.01677
G1 X95.782 Y42.709 E1.77029
G1 X95.248 Y42.709 E.01677
G1 X135.108 Y82.569 E1.77029
G1 X134.574 Y82.569 E.01677
G1 X94.714 Y42.709 E1.77029
G1 X94.405 Y42.709 E.00969
G1 X94.405 Y42.934 E.00708
G1 X134.04 Y82.569 E1.76028
G1 X133.506 Y82.569 E.01677
G1 X94.405 Y43.468 E1.73656
G1 X94.405 Y44.002 E.01677
G1 X133.265 Y82.863 E1.72588
G1 X133.265 Y83.397 E.01677
M73 P3 R119
G1 X94.405 Y44.536 E1.72588
G1 X94.405 Y45.071 E.01677
G1 X133.265 Y83.931 E1.72588
G1 X133.265 Y84.465 E.01677
G1 X94.405 Y45.605 E1.72588
G1 X94.405 Y46.139 E.01677
G1 X133.265 Y84.999 E1.72588
G1 X133.265 Y85.533 E.01677
G1 X94.405 Y46.673 E1.72588
G1 X94.405 Y47.207 E.01677
G1 X133.265 Y86.067 E1.72588
G1 X133.265 Y86.601 E.01677
G1 X94.405 Y47.741 E1.72588
G1 X94.405 Y48.275 E.01677
G1 X133.435 Y87.305 E1.73342
M204 P1000
G1 E-2.24 F4200
;WIPE_START
G1 F7200
G1 X132.271 Y86.142 E-.912
;WIPE_END
G1 E-.048 F4200
G1 Z.4 F720
G1 X135.805 Y87.539 F9000
G1 Z.2 F720
M73 P3 R118
G1 E3.2 F2400
M204 P800
G1 F1200
G1 X136.265 Y87.999 E.02044
G1 X136.265 Y88.533 E.01677
G1 X135.441 Y87.709 E.03662
G1 X134.907 Y87.709 E.01677
G1 X136.265 Y89.067 E.06035
G1 X136.265 Y89.601 E.01677
G1 X134.373 Y87.709 E.08407
G1 X133.838 Y87.709 E.01677
G1 X136.265 Y90.136 E.10779
G1 X136.265 Y90.67 E.01677
G1 X94.405 Y48.809 E1.85912
G1 X94.405 Y49.344 E.01677
G1 X136.265 Y91.204 E1.85912
G1 X136.265 Y91.738 E.01677
G1 X94.405 Y49.878 E1.85912
G1 X94.405 Y50.412 E.01677
G1 X136.265 Y92.272 E1.85912
G1 X136.265 Y92.806 E.01677
G1 X94.405 Y50.946 E1.85912
G1 X94.405 Y51.48 E.01677
G1 X136.265 Y93.34 E1.85912
G1 X136.265 Y93.874 E.01677
G1 X94.405 Y52.014 E1.85912
G1 X94.405 Y52.548 E.01677
G1 X136.265 Y94.409 E1.85912
G1 X136.265 Y94.943 E.01677
G1 X94.405 Y53.082 E1.85912
G1 X94.405 Y53.617 E.01677
G1 X136.265 Y95.477 E1.85912
G1 X136.265 Y96.011 E.01677
G1 X94.405 Y54.151 E1.85912
G1 X94.405 Y54.685 E.01677
G1 X136.265 Y96.545 E1.85912
G1 X136.265 Y97.079 E.01677
G1 X94.405 Y55.219 E1.85912
G1 X94.405 Y55.753 E.01677
G1 X136.265 Y97.613 E1.85912
G1 X136.265 Y98.147 E.01677
G1 X94.405 Y56.287 E1.85912
G1 X94.405 Y56.821 E.01677
G1 X136.265 Y98.682 E1.85912
G1 X136.265 Y99.216 E.01677
G1 X94.405 Y57.355 E1.85912
G1 X94.405 Y57.89 E.01677
M73 P4 R118
G1 X136.265 Y99.75 E1.85912
G1 X136.265 Y100.284 E.01677
G1 X94.405 Y58.424 E1.85912
G1 X94.405 Y58.958 E.01677
G1 X136.265 Y100.818 E1.85912
G1 X136.265 Y101.352 E.01677
M73 P4 R117
G1 X94.405 Y59.492 E1.85912
G1 X94.405 Y60.026 E.01677
G1 X136.265 Y101.886 E1.85912
G1 X136.265 Y102.42 E.01677
G1 X94.405 Y60.56 E1.85912
G1 X94.405 Y61.094 E.01677
G1 X136.265 Y102.955 E1.85912
G1 X136.265 Y103.489 E.01677
G1 X94.405 Y61.628 E1.85912
G1 X94.405 Y62.163 E.01677
G1 X136.265 Y104.023 E1.85912
G1 X136.265 Y104.557 E.01677
G1 X94.405 Y62.697 E1.85912
G1 X94.405 Y63.231 E.01677
G1 X136.265 Y105.091 E1.85912
G1 X136.265 Y105.625 E.01677
G1 X94.405 Y63.765 E1.85912
G1 X94.405 Y64.299 E.01677
G1 X136.265 Y106.159 E1.85912
G1 X136.265 Y106.693 E.01677
G1 X94.405 Y64.833 E1.85912
G1 X94.405 Y65.367 E.01677
G1 X136.107 Y107.069 E1.85207
G1 X135.573 Y107.069 E.01677
G1 X94.405 Y65.901 E1.82835
G1 X94.405 Y66.435 E.01677
G1 X135.039 Y107.069 E1.80463
G1 X134.504 Y107.069 E.01677
G1 X94.405 Y66.97 E1.78091
G1 X94.405 Y67.504 E.01677
G1 X133.97 Y107.069 E1.75718
G1 X133.436 Y107.069 E.01677
G1 X94.405 Y68.038 E1.73346
G1 X94.405 Y68.572 E.01677
G1 X133.265 Y107.432 E1.72588
G1 X133.265 Y107.966 E.01677
G1 X94.405 Y69.106 E1.72588
G1 X94.405 Y69.64 E.01677
G1 X133.265 Y108.5 E1.72588
G1 X133.265 Y109.035 E.01677
G1 X94.405 Y70.174 E1.72588
G1 X94.405 Y70.708 E.01677
M73 P4 R116
G1 X133.265 Y109.569 E1.72588
