; generated by PrusaSlicer 2.4.2+win64 on 2022-09-25 at 12:21:22 UTC


;
;

;
;
; 

; external perimeters extrusion width = 0.45mm
; perimeters extrusion width = 0.45mm
; infill extrusion width = 0.45mm
; solid infill extrusion width = 0.45mm
; top infill extrusion width = 0.40mm
; first layer extrusion width = 0.42mm

M73 P0 R53
M201 X2500 Y2500 Z400 E5000 ; sets maximum accelerations, mm/sec^2
M203 X180 Y180 Z12 E80 ; sets maximum feedrates, mm / sec
M204 P1250 R1250 T2500 ; sets acceleration (P, T) and retract acceleration (R), mm/sec^2
M205 X8.00 Y8.00 Z2.00 E10.00 ; sets the jerk limits, mm/sec
M205 S0 T0 ; sets the minimum extruding and travel feed rate, mm/sec
M107
;TYPE:Custom
M862.3 P "MINI" ; printer model check
G90 ; use absolute coordinates
M83 ; extruder relative mode
M104 S170 ; set extruder temp for bed leveling
M140 S60 ; set bed temp
M109 R170 ; wait for bed leveling temp
M190 S60 ; wait for bed temp
M204 T1250 ; set travel acceleration
G28 ; home all without mesh bed level
G29 ; mesh bed leveling 
M204 T2500 ; restore travel acceleration
M104 S215 ; set extruder temp
G92 E0
G1 Y-2 X179 F2400
G1 Z3 F720
M109 S215 ; wait for extruder temp

; intro line
G1 X170 F1000
G1 Z0.2 F720
G1 X110 E8 F900
G1 X40 E10 F700
G92 E0

M221 S95 ; set flow
G21 ; set units to millimeters
G90 ; use absolute coordinates
M83 ; use relative distances for extrusion
M900 K0.2 ; Filament gcode LA 1.5
; ; Filament gcode LA 1.0
M107
;LAYER_CHANGE
;Z:0.2
;HEIGHT:0.2
;BEFORE_LAYER_CHANGE
G92 E0.0
;0.2


G1 E-3.2 F4200
G1 Z.2 F720
;AFTER_LAYER_CHANGE
;0.2
G1 Z.4
G1 X67.874 Y33.937 F9000
G1 Z.2 F720
G1 E3.2 F2400
M204 P800
;TYPE:Skirt/Brim
;WIDTH:0.42
G1 F1200
G1 X68.809 Y32.943 E.04278
G1 X70 Y32.623 E.03868
G1 X110 Y32.623 E1.25417
G1 X111.307 Y33.015 E.04278
G1 X112.126 Y33.937 E.03868
G1 X115.126 Y39.937 E.21033
G1 X115.377 Y41 E.03425
G1 X115.377 Y139 E3.07272
G1 X115.126 Y140.063 E.03425
G1 X112.126 Y146.063 E.21033
G1 X111.191 Y147.057 E.04278
G1 X110 Y147.377 E.03868
G1 X70 Y147.377 E1.25417
G1 X68.693 Y146.985 E.04278
G1 X67.874 Y146.063 E.03868
G1 X64.874 Y140.063 E.21033
G1 X64.623 Y139 E.03425
G1 X64.623 Y41 E3.07272
G1 X64.874 Y39.937 E.03425
M73 P0 R52
G1 X67.847 Y33.991 E.20845
M204 P1000
; printing object Side Wall 3.stl id:0 copy 0
G1 E-2.24 F4200
;WIPE_START
G1 F7200
M73 P1 R52
G1 X68.809 Y32.943 E-.78803
G1 X69.025 Y32.885 E-.12397
;WIPE_END
G1 E-.048 F4200
G1 Z.4 F720
G1 X72.713 Y41.213 F9000
G1 Z.2 F720
G1 E3.2 F2400
M204 P800
;TYPE:Perimeter
G1 F1200
G1 X94.287 Y41.213 E.67644
G1 X94.287 Y112.787 E2.24416
G1 X72.713 Y112.787 E.67644
G1 X72.713 Y41.273 E2.24228
M204 P1000
G1 X73.09 Y41.59 F9000
M204 P800
;TYPE:External perimeter
G1 F1200
G1 X93.91 Y41.59 E.6528
G1 X93.91 Y112.41 E2.22051
G1 X73.09 Y112.41 E.6528
G1 X73.09 Y41.65 E2.21863
M204 P1000
G1 X73.052 Y41.192 F9000
G1 E-2.24 F4200
;WIPE_START
G1 F7200
G1 X74.736 Y41.645 E-.912
;WIPE_END
G1 E-.048 F4200
G1 Z.4 F720
G1 X70.787 Y41.787 F9000
G1 Z.2 F720
G1 E3.2 F2400
M204 P800
;TYPE:Perimeter
G1 F1200
G1 X70.787 Y35.787 E.18813
G1 X72.213 Y35.787 E.04471
G1 X72.213 Y38.787 E.09406
G1 X76.787 Y38.787 E.14342
G1 X76.787 Y35.787 E.09406
G1 X87.713 Y35.787 E.34257
G1 X87.713 Y38.787 E.09406
G1 X92.287 Y38.787 E.14342
G1 X92.287 Y35.787 E.09406
G1 X103.213 Y35.787 E.34257
G1 X103.213 Y38.787 E.09406
G1 X107.787 Y38.787 E.14342
G1 X107.787 Y35.787 E.09406
G1 X109.213 Y35.787 E.04471
G1 X109.213 Y41.787 E.18813
G1 X112.213 Y41.787 E.09406
G1 X112.213 Y43.213 E.04471
G1 X109.213 Y43.213 E.09406
G1 X109.213 Y73.454 E.94818
G1 X112.213 Y73.454 E.09406
G1 X112.213 Y74.88 E.04471
G1 X109.213 Y74.88 E.09406
G1 X109.213 Y105.12 E.94818
G1 X112.213 Y105.12 E.09406
G1 X112.213 Y106.546 E.04471
G1 X109.213 Y106.546 E.09406
G1 X109.213 Y136.787 E.94818
G1 X112.213 Y136.787 E.09406
G1 X112.213 Y138.213 E.04471
G1 X109.213 Y138.213 E.09406
G1 X109.213 Y144.213 E.18813
G1 X107.787 Y144.213 E.04471
G1 X107.787 Y141.213 E.09406
G1 X103.213 Y141.213 E.14342
G1 X103.213 Y144.213 E.09406
G1 X92.287 Y144.213 E.34257
G1 X92.287 Y141.213 E.09406
G1 X87.713 Y141.213 E.14342
G1 X87.713 Y144.213 E.09406
G1 X76.787 Y144.213 E.34257
G1 X76.787 Y141.213 E.09406
G1 X72.213 Y141.213 E.14342
G1 X72.213 Y144.213 E.09406
G1 X70.787 Y144.213 E.04471
M73 P2 R52
G1 X70.787 Y138.213 E.18813
G1 X67.787 Y138.213 E.09406
G1 X67.787 Y136.787 E.04471
G1 X70.787 Y136.787 E.09406
G1 X70.787 Y106.546 E.94818
G1 X67.787 Y106.546 E.09406
G1 X67.787 Y105.12 E.04471
G1 X70.787 Y105.12 E.09406
G1 X70.787 Y74.88 E.94818
G1 X67.787 Y74.88 E.09406
G1 X67.787 Y73.454 E.04471
G1 X70.787 Y73.454 E.09406
G1 X70.787 Y43.213 E.94818
G1 X67.787 Y43.213 E.09406
G1 X67.787 Y41.787 E.04471
G1 X70.727 Y41.787 E.09218
M204 P1000
G1 X70.41 Y41.41 F9000
M204 P800
;TYPE:External perimeter
G1 F1200
G1 X70.41 Y35.41 E.18813
G1 X72.59 Y35.41 E.06835
G1 X72.59 Y38.41 E.09406
G1 X76.41 Y38.41 E.11977
G1 X76.41 Y35.41 E.09406
G1 X88.09 Y35.41 E.36622
G1 X88.09 Y38.41 E.09406
G1 X91.91 Y38.41 E.11977
G1 X91.91 Y35.41 E.09406
G1 X103.59 Y35.41 E.36622
G1 X103.59 Y38.41 E.09406
G1 X107.41 Y38.41 E.11977
G1 X107.41 Y35.41 E.09406
G1 X109.59 Y35.41 E.06835
G1 X109.59 Y41.41 E.18813
G1 X112.59 Y41.41 E.09406
G1 X112.59 Y43.59 E.06835
G1 X109.59 Y43.59 E.09406
G1 X109.59 Y73.077 E.92453
G1 X112.59 Y73.077 E.09406
G1 X112.59 Y75.257 E.06835
G1 X109.59 Y75.257 E.09406
G1 X109.59 Y104.743 E.92453
G1 X112.59 Y104.743 E.09406
G1 X112.59 Y106.923 E.06835
G1 X109.59 Y106.923 E.09406
G1 X109.59 Y136.41 E.92453
G1 X112.59 Y136.41 E.09406
G1 X112.59 Y138.59 E.06835
G1 X109.59 Y138.59 E.09406
G1 X109.59 Y144.59 E.18813
G1 X107.41 Y144.59 E.06835
G1 X107.41 Y141.59 E.09406
G1 X103.59 Y141.59 E.11977
G1 X103.59 Y144.59 E.09406
G1 X91.91 Y144.59 E.36622
G1 X91.91 Y141.59 E.09406
G1 X88.09 Y141.59 E.11977
G1 X88.09 Y144.59 E.09406
G1 X76.41 Y144.59 E.36622
G1 X76.41 Y141.59 E.09406
G1 X72.59 Y141.59 E.11977
G1 X72.59 Y144.59 E.09406
G1 X70.41 Y144.59 E.06835
G1 X70.41 Y138.59 E.18813
G1 X67.41 Y138.59 E.09406
G1 X67.41 Y136.41 E.06835
G1 X70.41 Y136.41 E.09406
G1 X70.41 Y106.923 E.92453
G1 X67.41 Y106.923 E.09406
G1 X67.41 Y104.743 E.06835
G1 X70.41 Y104.743 E.09406
G1 X70.41 Y75.257 E.92453
G1 X67.41 Y75.257 E.09406
M73 P2 R51
G1 X67.41 Y73.077 E.06835
G1 X70.41 Y73.077 E.09406
G1 X70.41 Y43.59 E.92453
G1 X67.41 Y43.59 E.09406
G1 X67.41 Y41.41 E.06835
G1 X70.35 Y41.41 E.09218
M204 P1000
G1 X70.801 Y41.327 F9000
G1 E-2.24 F4200
;WIPE_START
G1 F7200
G1 X70.366 Y39.764 E-.912
;WIPE_END
G1 E-.048 F4200
G1 Z.4 F720
G1 X109.1 Y36.664 F9000
G1 Z.2 F720
G1 E3.2 F2400
M204 P800
;TYPE:Solid infill
;WIDTH:0.420924
G1 F1200
G1 X108.505 Y36.07 E.02643
G1 X108.07 Y36.07 E.01368
G1 X108.07 Y36.169 E.00312
G1 X108.93 Y37.029 E.03824
G1 X108.93 Y37.564 E.0168
G1 X108.07 Y36.704 E.03824
G1 X108.07 Y37.238 E.0168
G1 X108.93 Y38.098 E.03824
G1 X108.93 Y38.633 E.0168
G1 X108.07 Y37.773 E.03824
G1 X108.07 Y38.307 E.0168
G1 X108.93 Y39.168 E.03824
G1 X108.93 Y39.702 E.0168
G1 X108.07 Y38.842 E.03824
G1 X108.07 Y39.07 E.00716
G1 X107.763 Y39.07 E.00964
G1 X108.93 Y40.237 E.05187
G1 X108.93 Y40.771 E.0168
G1 X107.229 Y39.07 E.07563
G1 X106.694 Y39.07 E.0168
G1 X109.1 Y41.476 E.10694
M204 P1000
G1 E-2.24 F4200
;WIPE_START
G1 F7200
G1 X107.936 Y40.312 E-.912
;WIPE_END
G1 E-.048 F4200
G1 Z.4 F720
G1 X111.663 Y41.9 F9000
G1 Z.2 F720
G1 E3.2 F2400
M204 P800
G1 F1200
G1 X111.93 Y42.168 E.01189
G1 X111.93 Y42.702 E.0168
G1 X111.298 Y42.07 E.02811
G1 X110.763 Y42.07 E.0168
G1 X111.623 Y42.93 E.03824
G1 X111.089 Y42.93 E.0168
G1 X110.229 Y42.07 E.03824
G1 X109.694 Y42.07 E.0168
G1 X110.554 Y42.93 E.03824
G1 X110.02 Y42.93 E.0168
G1 X106.159 Y39.07 E.17159
G1 X105.625 Y39.07 E.0168
G1 X109.485 Y42.93 E.17159
G1 X108.951 Y42.93 E.0168
G1 X105.09 Y39.07 E.17159
G1 X104.556 Y39.07 E.0168
G1 X108.93 Y43.444 E.19444
G1 X108.93 Y43.979 E.0168
G1 X104.021 Y39.07 E.21821
G1 X103.487 Y39.07 E.0168
G1 X109.1 Y44.683 E.24951
M204 P1000
G1 E-2.24 F4200
;WIPE_START
G1 F7200
G1 X107.936 Y43.519 E-.912
;WIPE_END
G1 E-.048 F4200
G1 Z.4 F720
G1 X103.1 Y36.545 F9000
G1 Z.2 F720
G1 E3.2 F2400
M204 P800
G1 F1200
G1 X102.625 Y36.07 E.02111
G1 X102.09 Y36.07 E.0168
G1 X102.93 Y36.91 E.03733
G1 X102.93 Y37.444 E.0168
G1 X101.556 Y36.07 E.06109
G1 X101.021 Y36.07 E.0168
G1 X102.93 Y37.979 E.08485
G1 X102.93 Y38.513 E.0168
G1 X100.487 Y36.07 E.10862
G1 X99.952 Y36.07 E.0168
G1 X108.93 Y45.048 E.39908
M73 P3 R51
G1 X108.93 Y45.583 E.0168
G1 X99.417 Y36.07 E.42284
G1 X98.883 Y36.07 E.0168
G1 X108.93 Y46.117 E.44661
G1 X108.93 Y46.652 E.0168
G1 X98.348 Y36.07 E.47037
G1 X97.814 Y36.07 E.0168
G1 X108.93 Y47.186 E.49413
G1 X108.93 Y47.721 E.0168
G1 X97.279 Y36.07 E.51789
G1 X96.745 Y36.07 E.0168
G1 X108.93 Y48.255 E.54165
G1 X108.93 Y48.79 E.0168
G1 X96.21 Y36.07 E.56542
G1 X95.675 Y36.07 E.0168
G1 X108.93 Y49.325 E.58918
G1 X108.93 Y49.859 E.0168
G1 X95.141 Y36.07 E.61294
G1 X94.606 Y36.07 E.0168
G1 X108.93 Y50.394 E.6367
G1 X108.93 Y50.928 E.0168
G1 X94.072 Y36.07 E.66046
G1 X93.537 Y36.07 E.0168
G1 X108.93 Y51.463 E.68423
G1 X108.93 Y51.998 E.0168
G1 X93.002 Y36.07 E.70799
G1 X92.57 Y36.07 E.0136
G1 X92.57 Y36.172 E.0032
G1 X108.93 Y52.532 E.72722
G1 X108.93 Y53.067 E.0168
G1 X92.57 Y36.706 E.72722
G1 X92.57 Y37.241 E.0168
G1 X108.93 Y53.601 E.72722
G1 X108.93 Y54.136 E.0168
G1 X92.57 Y37.776 E.72722
G1 X92.57 Y38.31 E.0168
G1 X108.93 Y54.67 E.72722
G1 X108.93 Y55.205 E.0168
G1 X92.57 Y38.845 E.72722
G1 X92.57 Y39.07 E.00708
G1 X92.26 Y39.07 E.00973
G1 X94.121 Y40.93 E.08269
G1 X94.57 Y40.93 E.01412
G1 X94.57 Y41.379 E.01412
G1 X108.93 Y55.74 E.63832
G1 X108.93 Y56.274 E.0168
G1 X94.57 Y41.914 E.63832
G1 X94.57 Y42.448 E.0168
G1 X108.93 Y56.809 E.63832
G1 X108.93 Y57.343 E.0168
G1 X94.57 Y42.983 E.63832
G1 X94.57 Y43.518 E.0168
G1 X108.93 Y57.878 E.63832
G1 X108.93 Y58.412 E.0168
G1 X94.57 Y44.052 E.63832
G1 X94.57 Y44.587 E.0168
G1 X108.93 Y58.947 E.63832
G1 X108.93 Y59.482 E.0168
G1 X94.57 Y45.121 E.63832
G1 X94.57 Y45.656 E.0168
G1 X108.93 Y60.016 E.63832
G1 X108.93 Y60.551 E.0168
G1 X94.57 Y46.191 E.63832
G1 X94.57 Y46.725 E.0168
G1 X108.93 Y61.085 E.63832
G1 X108.93 Y61.62 E.0168
G1 X94.57 Y47.26 E.63832
G1 X94.57 Y47.794 E.0168
M73 P4 R51
G1 X108.93 Y62.154 E.63832
G1 X108.93 Y62.689 E.0168
G1 X94.57 Y48.329 E.63832
G1 X94.57 Y48.863 E.0168
G1 X108.93 Y63.224 E.63832
G1 X108.93 Y63.758 E.0168
G1 X94.57 Y49.398 E.63832
G1 X94.57 Y49.933 E.0168
G1 X108.93 Y64.293 E.63832
G1 X108.93 Y64.827 E.0168
G1 X94.57 Y50.467 E.63832
G1 X94.57 Y51.002 E.0168
G1 X108.93 Y65.362 E.63832
G1 X108.93 Y65.897 E.0168
G1 X94.57 Y51.536 E.63832
G1 X94.57 Y52.071 E.0168
G1 X108.93 Y66.431 E.63832
G1 X108.93 Y66.966 E.0168
G1 X94.57 Y52.605 E.63832
G1 X94.57 Y53.14 E.0168
G1 X108.93 Y67.5 E.63832
G1 X108.93 Y68.035 E.0168
G1 X94.57 Y53.675 E.63832
G1 X94.57 Y54.209 E.0168
G1 X108.93 Y68.569 E.63832
G1 X108.93 Y69.104 E.0168
G1 X94.57 Y54.744 E.63832
G1 X94.57 Y55.278 E.0168
G1 X108.93 Y69.639 E.63832
G1 X108.93 Y70.173 E.0168
G1 X94.57 Y55.813 E.63832
G1 X94.57 Y56.348 E.0168
G1 X108.93 Y70.708 E.63832
G1 X108.93 Y71.242 E.0168
G1 X94.57 Y56.882 E.63832
G1 X94.57 Y57.417 E.0168
M73 P4 R50
G1 X108.93 Y71.777 E.63832
G1 X108.93 Y72.311 E.0168
G1 X94.57 Y57.951 E.63832
G1 X94.57 Y58.486 E.0168
G1 X109.1 Y73.016 E.64586
M204 P1000
G1 E-2.24 F4200
;WIPE_START
G1 F7200
G1 X107.936 Y71.852 E-.912
;WIPE_END
G1 E-.048 F4200
G1 Z.4 F720
G1 X111.255 Y73.567 F9000
G1 Z.2 F720
G1 E3.2 F2400
M204 P800
G1 F1200
G1 X111.93 Y74.242 E.03003
G1 X111.93 Y74.597 E.01114
G1 X111.75 Y74.597 E.00566
G1 X110.89 Y73.737 E.03824
G1 X110.355 Y73.737 E.0168
G1 X111.215 Y74.597 E.03824
G1 X110.681 Y74.597 E.0168
G1 X109.651 Y73.567 E.04578
M204 P1000
G1 X110.316 Y74.766 F9000
M204 P800
G1 F1200
G1 X109.286 Y73.737 E.04578
G1 X108.93 Y73.737 E.01119
G1 X108.93 Y73.381 E.01119
G1 X94.57 Y59.02 E.63832
G1 X94.57 Y59.555 E.0168
G1 X109.612 Y74.597 E.66861
G1 X109.077 Y74.597 E.0168
G1 X94.57 Y60.09 E.64485
G1 X94.57 Y60.624 E.0168
G1 X108.93 Y74.984 E.63832
G1 X108.93 Y75.519 E.0168
G1 X94.57 Y61.159 E.63832
G1 X94.57 Y61.693 E.0168
G1 X108.93 Y76.054 E.63832
G1 X108.93 Y76.588 E.0168
G1 X94.57 Y62.228 E.63832
G1 X94.57 Y62.762 E.0168
G1 X108.93 Y77.123 E.63832
G1 X108.93 Y77.657 E.0168
M73 P5 R50
G1 X94.57 Y63.297 E.63832
G1 X94.57 Y63.832 E.0168
G1 X108.93 Y78.192 E.63832
G1 X108.93 Y78.726 E.0168
G1 X94.57 Y64.366 E.63832
G1 X94.57 Y64.901 E.0168
G1 X108.93 Y79.261 E.63832
G1 X108.93 Y79.796 E.0168
G1 X94.57 Y65.435 E.63832
G1 X94.57 Y65.97 E.0168
G1 X108.93 Y80.33 E.63832
G1 X108.93 Y80.865 E.0168
G1 X94.57 Y66.504 E.63832
G1 X94.57 Y67.039 E.0168
G1 X108.93 Y81.399 E.63832
G1 X108.93 Y81.934 E.0168
G1 X94.57 Y67.574 E.63832
G1 X94.57 Y68.108 E.0168
G1 X108.93 Y82.468 E.63832
G1 X108.93 Y83.003 E.0168
G1 X94.57 Y68.643 E.63832
G1 X94.57 Y69.177 E.0168
G1 X108.93 Y83.538 E.63832
G1 X108.93 Y84.072 E.0168
G1 X94.57 Y69.712 E.63832
G1 X94.57 Y70.247 E.0168
G1 X108.93 Y84.607 E.63832
G1 X108.93 Y85.141 E.0168
G1 X94.57 Y70.781 E.63832
G1 X94.57 Y71.316 E.0168
G1 X108.93 Y85.676 E.63832
G1 X108.93 Y86.211 E.0168
G1 X94.57 Y71.85 E.63832
G1 X94.57 Y72.385 E.0168
G1 X108.93 Y86.745 E.63832
G1 X108.93 Y87.28 E.0168
G1 X94.57 Y72.919 E.63832
G1 X94.57 Y73.454 E.0168
G1 X108.93 Y87.814 E.63832
G1 X108.93 Y88.349 E.0168
G1 X94.57 Y73.989 E.63832
G1 X94.57 Y74.523 E.0168
G1 X108.93 Y88.883 E.63832
G1 X108.93 Y89.418 E.0168
G1 X94.57 Y75.058 E.63832
G1 X94.57 Y75.592 E.0168
G1 X108.93 Y89.953 E.63832
G1 X108.93 Y90.487 E.0168
G1 X94.57 Y76.127 E.63832
G1 X94.57 Y76.661 E.0168
G1 X108.93 Y91.022 E.63832
G1 X108.93 Y91.556 E.0168
G1 X94.57 Y77.196 E.63832
G1 X94.57 Y77.731 E.0168
G1 X108.93 Y92.091 E.63832
G1 X108.93 Y92.625 E.0168
G1 X94.57 Y78.265 E.63832
G1 X94.57 Y78.8 E.0168
G1 X108.93 Y93.16 E.63832
G1 X108.93 Y93.695 E.0168
G1 X94.57 Y79.334 E.63832
G1 X94.57 Y79.869 E.0168
M73 P6 R50
G1 X108.93 Y94.229 E.63832
G1 X108.93 Y94.764 E.0168
G1 X94.57 Y80.404 E.63832
G1 X94.57 Y80.938 E.0168
G1 X108.93 Y95.298 E.63832
G1 X108.93 Y95.833 E.0168
G1 X94.57 Y81.473 E.63832
G1 X94.57 Y82.007 E.0168
G1 X108.93 Y96.368 E.63832
G1 X108.93 Y96.902 E.0168
G1 X94.57 Y82.542 E.63832
G1 X94.57 Y83.076 E.0168
G1 X108.93 Y97.437 E.63832
G1 X108.93 Y97.971 E.0168
G1 X94.57 Y83.611 E.63832
G1 X94.57 Y84.146 E.0168
G1 X108.93 Y98.506 E.63832
G1 X108.93 Y99.04 E.0168
G1 X94.57 Y84.68 E.63832
G1 X94.57 Y85.215 E.0168
G1 X108.93 Y99.575 E.63832
G1 X108.93 Y100.11 E.0168
G1 X94.57 Y85.749 E.63832
G1 X94.57 Y86.284 E.0168
G1 X108.93 Y100.644 E.63832
G1 X108.93 Y101.179 E.0168
G1 X94.57 Y86.818 E.63832
G1 X94.57 Y87.353 E.0168
M73 P6 R49
G1 X108.93 Y101.713 E.63832
G1 X108.93 Y102.248 E.0168
G1 X94.57 Y87.888 E.63832
G1 X94.57 Y88.422 E.0168
G1 X108.93 Y102.782 E.63832
G1 X108.93 Y103.317 E.0168
G1 X94.57 Y88.957 E.63832
G1 X94.57 Y89.491 E.0168
G1 X108.93 Y103.852 E.63832
G1 X108.93 Y104.386 E.0168
G1 X94.4 Y89.856 E.64586
M204 P1000
G1 E-2.24 F4200
;WIPE_START
G1 F7200
G1 X95.564 Y91.02 E-.912
;WIPE_END
G1 E-.048 F4200
G1 Z.4 F720
G1 X93.756 Y41.1 F9000
G1 Z.2 F720
G1 E3.2 F2400
M204 P800
G1 F1200
G1 X91.726 Y39.07 E.09023
G1 X91.191 Y39.07 E.0168
G1 X93.052 Y40.93 E.08269
G1 X92.517 Y40.93 E.0168
G1 X90.657 Y39.07 E.08269
G1 X90.122 Y39.07 E.0168
G1 X91.982 Y40.93 E.08269
G1 X91.448 Y40.93 E.0168
G1 X89.588 Y39.07 E.08269
G1 X89.053 Y39.07 E.0168
G1 X90.913 Y40.93 E.08269
G1 X90.379 Y40.93 E.0168
G1 X88.518 Y39.07 E.08269
G1 X87.984 Y39.07 E.0168
G1 X90.014 Y41.1 E.09023
M204 P1000
G1 E-2.24 F4200
;WIPE_START
G1 F7200
G1 X88.85 Y39.936 E-.912
;WIPE_END
G1 E-.048 F4200
G1 Z.4 F720
G1 X87.6 Y36.548 F9000
G1 Z.2 F720
G1 E3.2 F2400
M204 P800
G1 F1200
G1 X87.122 Y36.07 E.02123
G1 X86.588 Y36.07 E.0168
G1 X87.43 Y36.912 E.03745
G1 X87.43 Y37.447 E.0168
G1 X86.053 Y36.07 E.06121
G1 X85.518 Y36.07 E.0168
G1 X87.43 Y37.982 E.08498
G1 X87.43 Y38.516 E.0168
G1 X84.984 Y36.07 E.10874
G1 X84.449 Y36.07 E.0168
G1 X89.309 Y40.93 E.21604
G1 X88.775 Y40.93 E.0168
G1 X83.915 Y36.07 E.21604
G1 X83.38 Y36.07 E.0168
G1 X88.24 Y40.93 E.21604
G1 X87.706 Y40.93 E.0168
G1 X82.846 Y36.07 E.21604
