; generated by PrusaSlicer 2.4.2+win64 on 2022-10-31 at 03:09:52 UTC


;
;

;
;
; 

; external perimeters extrusion width = 0.45mm
; perimeters extrusion width = 0.45mm
; infill extrusion width = 0.45mm
; solid infill extrusion width = 0.45mm
; top infill extrusion width = 0.40mm
; first layer extrusion width = 0.42mm

; external perimeters extrusion width = 0.45mm
; perimeters extrusion width = 0.45mm
; infill extrusion width = 0.45mm
; solid infill extrusion width = 0.45mm
; top infill extrusion width = 0.40mm
; first layer extrusion width = 0.42mm

M73 P0 R96
M201 X2500 Y2500 Z400 E5000 ; sets maximum accelerations, mm/sec^2
M203 X180 Y180 Z12 E80 ; sets maximum feedrates, mm / sec
M204 P1250 R1250 T2500 ; sets acceleration (P, T) and retract acceleration (R), mm/sec^2
M205 X8.00 Y8.00 Z2.00 E10.00 ; sets the jerk limits, mm/sec
M205 S0 T0 ; sets the minimum extruding and travel feed rate, mm/sec
M107
;TYPE:Custom
M862.3 P "MINI" ; printer model check
G90 ; use absolute coordinates
M83 ; extruder relative mode
M104 S170 ; set extruder temp for bed leveling
M140 S60 ; set bed temp
M109 R170 ; wait for bed leveling temp
M190 S60 ; wait for bed temp
M204 T1250 ; set travel acceleration
G28 ; home all without mesh bed level
G29 ; mesh bed leveling 
M204 T2500 ; restore travel acceleration
M104 S215 ; set extruder temp
G92 E0
G1 Y-2 X179 F2400
G1 Z3 F720
M109 S215 ; wait for extruder temp

; intro line
G1 X170 F1000
G1 Z0.2 F720
G1 X110 E8 F900
G1 X40 E10 F700
G92 E0

M221 S95 ; set flow
G21 ; set units to millimeters
G90 ; use absolute coordinates
M83 ; use relative distances for extrusion
M900 K0.2 ; Filament gcode LA 1.5
; ; Filament gcode LA 1.0
M107
;LAYER_CHANGE
;Z:0.2
;HEIGHT:0.2
;BEFORE_LAYER_CHANGE
G92 E0.0
;0.2


M73 P0 R95
G1 E-3.2 F4200
G1 Z.2 F720
;AFTER_LAYER_CHANGE
;0.2
G1 Z.4
G1 X45.846 Y49.753 F9000
G1 Z.2 F720
G1 E3.2 F2400
M204 P800
;TYPE:Skirt/Brim
;WIDTH:0.42
G1 F1200
G1 X47.527 Y49.057 E.05704
G1 X83.6 Y49.058 E1.13104
G1 X137.204 Y50.701 E1.68149
G1 X138.812 Y51.396 E.05493
G1 X144.812 Y57.396 E.26605
G1 X145.508 Y59.077 E.05704
G1 X145.508 Y111.077 E1.63042
G1 X142.489 Y135.372 E.7676
G1 X141.939 Y136.62 E.04278
G1 X140.131 Y137.454 E.06243
G1 X98.131 Y137.454 E1.31688
G1 X44.454 Y135.81 E1.68378
G1 X43.16 Y135.378 E.04278
G1 X42.168 Y133.729 E.06035
G1 X39.15 Y109.434 E.7676
G1 X39.15 Y57.434 E1.63042
G1 X39.846 Y55.753 E.05704
G1 X45.804 Y49.795 E.26417
M204 P1000
; printing object Side4.stl id:1 copy 0
G1 E-2.24 F4200
;WIPE_START
G1 F7200
G1 X47.316 Y49.147 E-.912
;WIPE_END
G1 E-.048 F4200
G1 Z.4 F720
G1 X63.24 Y73.647 F9000
G1 Z.2 F720
G1 E3.2 F2400
M204 P800
;TYPE:Perimeter
G1 F1200
G1 X67.814 Y73.647 E.14342
G1 X67.814 Y78.221 E.14342
G1 X63.24 Y78.221 E.14342
G1 X63.24 Y73.707 E.14154
M204 P1000
G1 X63.617 Y74.024 F9000
M204 P800
;TYPE:External perimeter
G1 F1200
G1 X67.437 Y74.024 E.11977
G1 X67.437 Y77.844 E.11977
G1 X63.617 Y77.844 E.11977
G1 X63.617 Y74.084 E.11789
M204 P1000
G1 X63.514 Y73.637 F9000
G1 E-2.24 F4200
;WIPE_START
G1 F7200
G1 X65.263 Y74.058 E-.912
;WIPE_END
G1 E-.048 F4200
G1 Z.4 F720
G1 X49.74 Y55.221 F9000
G1 Z.2 F720
G1 E3.2 F2400
M204 P800
;TYPE:Perimeter
G1 F1200
G1 X64.814 Y55.221 E.47264
G1 X64.814 Y52.221 E.09406
G1 X66.24 Y52.221 E.04471
G1 X66.24 Y55.221 E.09406
G1 X81.314 Y55.221 E.47264
G1 X81.314 Y52.221 E.09406
G1 X82.74 Y52.221 E.04471
G1 X82.74 Y55.221 E.09406
G1 X85.74 Y55.221 E.09406
G1 X85.74 Y58.221 E.09406
G1 X88.74 Y58.221 E.09406
G1 X88.74 Y59.647 E.04471
G1 X85.74 Y59.647 E.09406
G1 X85.74 Y82.721 E.72347
G1 X88.74 Y82.721 E.09406
G1 X88.74 Y84.147 E.04471
G1 X85.74 Y84.147 E.09406
G1 X85.74 Y107.221 E.72347
G1 X88.74 Y107.221 E.09406
G1 X88.74 Y108.647 E.04471
G1 X85.74 Y108.647 E.09406
G1 X85.74 Y132.647 E.7525
G1 X45.314 Y132.647 E1.26752
G1 X45.314 Y108.647 E.7525
G1 X42.314 Y108.647 E.09406
G1 X42.314 Y107.221 E.04471
G1 X45.314 Y107.221 E.09406
G1 X45.314 Y84.147 E.72347
G1 X42.314 Y84.147 E.09406
G1 X42.314 Y82.721 E.04471
G1 X45.314 Y82.721 E.09406
G1 X45.314 Y59.647 E.72347
G1 X42.314 Y59.647 E.09406
G1 X42.314 Y58.221 E.04471
G1 X45.314 Y58.221 E.09406
G1 X45.314 Y55.221 E.09406
G1 X48.314 Y55.221 E.09406
G1 X48.314 Y52.221 E.09406
G1 X49.74 Y52.221 E.04471
G1 X49.74 Y55.161 E.09218
M204 P1000
G1 X50.117 Y54.844 F9000
M204 P800
;TYPE:External perimeter
G1 F1200
G1 X64.437 Y54.844 E.44899
G1 X64.437 Y51.844 E.09406
G1 X66.617 Y51.844 E.06835
G1 X66.617 Y54.844 E.09406
G1 X80.937 Y54.844 E.44899
G1 X80.937 Y51.844 E.09406
G1 X83.117 Y51.844 E.06835
G1 X83.117 Y54.844 E.09406
G1 X86.117 Y54.844 E.09406
G1 X86.117 Y57.844 E.09406
G1 X89.117 Y57.844 E.09406
G1 X89.117 Y60.024 E.06835
G1 X86.117 Y60.024 E.09406
G1 X86.117 Y82.344 E.69983
G1 X89.117 Y82.344 E.09406
G1 X89.117 Y84.524 E.06835
G1 X86.117 Y84.524 E.09406
G1 X86.117 Y106.844 E.69983
G1 X89.117 Y106.844 E.09406
M73 P1 R95
G1 X89.117 Y109.024 E.06835
G1 X86.117 Y109.024 E.09406
G1 X86.117 Y133.024 E.7525
G1 X44.937 Y133.024 E1.29117
G1 X44.937 Y109.024 E.7525
G1 X41.937 Y109.024 E.09406
G1 X41.937 Y106.844 E.06835
G1 X44.937 Y106.844 E.09406
G1 X44.937 Y84.524 E.69983
G1 X41.937 Y84.524 E.09406
G1 X41.937 Y82.344 E.06835
G1 X44.937 Y82.344 E.09406
G1 X44.937 Y60.024 E.69983
G1 X41.937 Y60.024 E.09406
M73 P1 R94
G1 X41.937 Y57.844 E.06835
G1 X44.937 Y57.844 E.09406
G1 X44.937 Y54.844 E.09406
G1 X47.937 Y54.844 E.09406
G1 X47.937 Y51.844 E.09406
G1 X50.117 Y51.844 E.06835
G1 X50.117 Y54.784 E.09218
M204 P1000
G1 X50.2 Y55.235 F9000
G1 E-2.24 F4200
;WIPE_START
G1 F7200
G1 X51.763 Y54.791 E-.912
;WIPE_END
G1 E-.048 F4200
G1 Z.4 F720
G1 X49.627 Y53.204 F9000
G1 Z.2 F720
G1 E3.2 F2400
M204 P800
;TYPE:Solid infill
;WIDTH:0.420497
G1 F1200
G1 X48.927 Y52.504 E.03108
G1 X48.597 Y52.504 E.01036
G1 X48.597 Y52.708 E.00641
G1 X49.457 Y53.568 E.03819
G1 X49.457 Y54.102 E.01676
G1 X48.597 Y53.242 E.0382
G1 X48.597 Y53.776 E.01676
G1 X49.627 Y54.806 E.04573
M204 P1000
G1 E-2.24 F4200
;WIPE_START
G1 F7200
G1 X48.597 Y53.776 E-.80717
G1 X48.597 Y53.586 E-.10483
;WIPE_END
G1 E-.048 F4200
G1 Z.4 F720
G1 X65.31 Y52.334 F9000
G1 Z.2 F720
G1 E3.2 F2400
M204 P800
G1 F1200
G1 X65.957 Y52.981 E.02872
G1 X65.957 Y53.515 E.01676
G1 X65.097 Y52.655 E.0382
G1 X65.097 Y53.188 E.01676
G1 X65.957 Y54.049 E.0382
G1 X65.957 Y54.583 E.01676
G1 X64.927 Y53.553 E.04573
M204 P1000
G1 E-2.24 F4200
;WIPE_START
G1 F7200
G1 X65.957 Y54.583 E-.80717
G1 X65.957 Y54.394 E-.10483
;WIPE_END
G1 E-.048 F4200
G1 Z.4 F720
G1 X81.864 Y52.334 F9000
G1 Z.2 F720
G1 E3.2 F2400
M204 P800
G1 F1200
G1 X82.457 Y52.928 E.02636
G1 X82.457 Y53.462 E.01676
G1 X81.597 Y52.601 E.0382
G1 X81.597 Y53.135 E.01676
G1 X82.457 Y53.996 E.0382
G1 X82.457 Y54.529 E.01676
G1 X81.427 Y53.5 E.04573
M204 P1000
G1 E-2.24 F4200
;WIPE_START
G1 F7200
G1 X82.457 Y54.529 E-.80717
G1 X82.457 Y54.34 E-.10483
;WIPE_END
G1 E-.048 F4200
G1 Z.4 F720
G1 X84.864 Y55.334 F9000
G1 Z.2 F720
G1 E3.2 F2400
M204 P800
G1 F1200
G1 X85.457 Y55.928 E.02636
G1 X85.457 Y56.462 E.01676
G1 X84.499 Y55.504 E.04253
G1 X83.965 Y55.504 E.01676
G1 X85.457 Y56.996 E.06624
G1 X85.457 Y57.529 E.01676
G1 X83.262 Y55.334 E.09748
M204 P1000
G1 E-2.24 F4200
;WIPE_START
G1 F7200
G1 X84.425 Y56.498 E-.912
;WIPE_END
G1 E-.048 F4200
G1 Z.4 F720
G1 X87.864 Y58.334 F9000
G1 Z.2 F720
G1 E3.2 F2400
M204 P800
G1 F1200
G1 X88.457 Y58.928 E.02636
G1 X88.457 Y59.364 E.0137
G1 X88.359 Y59.364 E.00307
G1 X87.499 Y58.504 E.0382
G1 X86.965 Y58.504 E.01676
G1 X87.825 Y59.364 E.0382
G1 X87.292 Y59.364 E.01676
G1 X86.262 Y58.334 E.04573
M204 P1000
G1 X86.927 Y59.534 F9000
M204 P800
G1 F1200
G1 X85.897 Y58.504 E.04573
G1 X85.457 Y58.504 E.01382
G1 X85.457 Y58.063 E.01382
G1 X82.897 Y55.504 E.11366
G1 X82.457 Y55.504 E.01382
G1 X82.457 Y55.063 E.01382
G1 X81.597 Y54.203 E.0382
G1 X81.597 Y54.737 E.01676
G1 X86.224 Y59.364 E.20542
G1 X85.69 Y59.364 E.01676
G1 X81.597 Y55.271 E.18172
G1 X81.597 Y55.504 E.0073
G1 X81.295 Y55.504 E.00947
G1 X85.457 Y59.665 E.18478
G1 X85.457 Y60.199 E.01676
G1 X80.761 Y55.504 E.20849
G1 X80.227 Y55.504 E.01676
G1 X85.457 Y60.733 E.2322
G1 X85.457 Y61.267 E.01676
G1 X79.693 Y55.504 E.25591
G1 X79.159 Y55.504 E.01676
G1 X85.457 Y61.801 E.27962
G1 X85.457 Y62.335 E.01676
G1 X78.626 Y55.504 E.30333
G1 X78.092 Y55.504 E.01676
G1 X85.457 Y62.869 E.32703
G1 X85.457 Y63.403 E.01676
G1 X77.558 Y55.504 E.35074
G1 X77.024 Y55.504 E.01676
G1 X85.457 Y63.937 E.37445
G1 X85.457 Y64.471 E.01676
G1 X76.49 Y55.504 E.39816
G1 X75.956 Y55.504 E.01676
G1 X85.457 Y65.005 E.42187
G1 X85.457 Y65.539 E.01676
G1 X75.422 Y55.504 E.44558
G1 X74.888 Y55.504 E.01676
G1 X85.457 Y66.073 E.46929
G1 X85.457 Y66.607 E.01676
G1 X74.354 Y55.504 E.49299
G1 X73.82 Y55.504 E.01676
G1 X85.457 Y67.141 E.5167
G1 X85.457 Y67.675 E.01676
G1 X73.286 Y55.504 E.54041
G1 X72.752 Y55.504 E.01676
G1 X85.457 Y68.209 E.56412
G1 X85.457 Y68.743 E.01676
G1 X72.218 Y55.504 E.58783
G1 X71.684 Y55.504 E.01676
G1 X85.457 Y69.277 E.61154
G1 X85.457 Y69.811 E.01676
G1 X71.15 Y55.504 E.63525
G1 X70.616 Y55.504 E.01676
G1 X85.457 Y70.345 E.65895
G1 X85.457 Y70.879 E.01676
G1 X70.082 Y55.504 E.68266
G1 X69.548 Y55.504 E.01676
G1 X85.457 Y71.413 E.70637
G1 X85.457 Y71.947 E.01676
G1 X69.014 Y55.504 E.73008
G1 X68.48 Y55.504 E.01676
G1 X85.457 Y72.481 E.75379
G1 X85.457 Y73.015 E.01676
G1 X67.946 Y55.504 E.7775
G1 X67.412 Y55.504 E.01676
G1 X85.457 Y73.549 E.80121
G1 X85.457 Y74.083 E.01676
G1 X66.708 Y55.334 E.83245
M204 P1000
G1 E-2.24 F4200
;WIPE_START
G1 F7200
G1 X67.872 Y56.498 E-.912
;WIPE_END
G1 E-.048 F4200
G1 Z.4 F720
G1 X64.927 Y54.087 F9000
G1 Z.2 F720
G1 E3.2 F2400
M204 P800
G1 F1200
G1 X65.957 Y55.117 E.04573
G1 X65.957 Y55.504 E.01215
G1 X66.344 Y55.504 E.01215
G1 X85.457 Y74.617 E.84862
G1 X85.457 Y75.151 E.01676
G1 X65.097 Y54.79 E.904
G1 X65.097 Y55.324 E.01676
G1 X85.457 Y75.685 E.904
G1 X85.457 Y76.219 E.01676
G1 X64.742 Y55.504 E.91975
G1 X64.208 Y55.504 E.01676
G1 X85.457 Y76.753 E.94346
G1 X85.457 Y77.287 E.01676
G1 X63.674 Y55.504 E.96717
G1 X63.14 Y55.504 E.01676
G1 X85.457 Y77.821 E.99087
G1 X85.457 Y78.355 E.01676
G1 X62.606 Y55.504 E1.01458
G1 X62.072 Y55.504 E.01676
G1 X85.457 Y78.888 E1.03829
G1 X85.457 Y79.422 E.01676
G1 X61.538 Y55.504 E1.062
G1 X61.004 Y55.504 E.01676
G1 X85.457 Y79.956 E1.08571
G1 X85.457 Y80.49 E.01676
G1 X60.47 Y55.504 E1.10942
G1 X59.936 Y55.504 E.01676
M73 P2 R94
G1 X85.457 Y81.024 E1.13313
G1 X85.457 Y81.558 E.01676
G1 X59.402 Y55.504 E1.15683
G1 X58.868 Y55.504 E.01676
G1 X85.627 Y82.262 E1.18808
M204 P1000
G1 E-2.24 F4200
;WIPE_START
G1 F7200
G1 X84.463 Y81.098 E-.912
;WIPE_END
G1 E-.048 F4200
G1 Z.4 F720
G1 X87.801 Y82.834 F9000
G1 Z.2 F720
G1 E3.2 F2400
M204 P800
G1 F1200
G1 X88.457 Y83.49 E.02915
G1 X88.457 Y83.864 E.01173
G1 X88.297 Y83.864 E.00504
G1 X87.436 Y83.004 E.0382
G1 X86.902 Y83.004 E.01676
G1 X87.763 Y83.864 E.0382
G1 X87.229 Y83.864 E.01676
G1 X86.199 Y82.834 E.04573
M204 P1000
G1 X86.864 Y84.034 F9000
M204 P800
G1 F1200
G1 X85.834 Y83.004 E.04573
G1 X85.457 Y83.004 E.01185
G1 X85.457 Y82.626 E.01185
G1 X58.334 Y55.504 E1.20425
G1 X57.801 Y55.504 E.01676
G1 X86.161 Y83.864 E1.2592
G1 X85.627 Y83.864 E.01676
M73 P2 R93
G1 X57.267 Y55.504 E1.2592
G1 X56.733 Y55.504 E.01676
G1 X85.457 Y84.228 E1.27538
G1 X85.457 Y84.762 E.01676
G1 X56.199 Y55.504 E1.29909
G1 X55.665 Y55.504 E.01676
G1 X85.457 Y85.296 E1.32279
G1 X85.457 Y85.83 E.01676
G1 X55.131 Y55.504 E1.3465
G1 X54.597 Y55.504 E.01676
G1 X85.457 Y86.364 E1.37021
G1 X85.457 Y86.898 E.01676
G1 X54.063 Y55.504 E1.39392
G1 X53.529 Y55.504 E.01676
G1 X85.457 Y87.432 E1.41763
G1 X85.457 Y87.966 E.01676
G1 X52.995 Y55.504 E1.44134
G1 X52.461 Y55.504 E.01676
G1 X85.457 Y88.5 E1.46505
G1 X85.457 Y89.034 E.01676
G1 X51.927 Y55.504 E1.48875
G1 X51.393 Y55.504 E.01676
G1 X85.457 Y89.568 E1.51246
G1 X85.457 Y90.102 E.01676
G1 X50.859 Y55.504 E1.53617
G1 X50.325 Y55.504 E.01676
G1 X85.457 Y90.636 E1.55988
G1 X85.457 Y91.17 E.01676
G1 X68.097 Y73.81 E.7708
G1 X68.097 Y73.364 E.014
G1 X67.651 Y73.364 E.014
G1 X48.597 Y54.31 E.84601
G1 X48.597 Y54.844 E.01676
G1 X67.117 Y73.364 E.8223
G1 X66.583 Y73.364 E.01676
G1 X48.597 Y55.378 E.79859
G1 X48.597 Y55.504 E.00396
G1 X48.189 Y55.504 E.01281
G1 X66.049 Y73.364 E.793
G1 X65.515 Y73.364 E.01676
G1 X47.655 Y55.504 E.793
G1 X47.121 Y55.504 E.01676
G1 X64.981 Y73.364 E.793
G1 X64.447 Y73.364 E.01676
G1 X46.587 Y55.504 E.793
G1 X46.053 Y55.504 E.01676
G1 X63.913 Y73.364 E.793
G1 X63.379 Y73.364 E.01676
G1 X45.597 Y55.581 E.78954
G1 X45.597 Y56.115 E.01676
G1 X62.957 Y73.476 E.7708
G1 X62.957 Y74.01 E.01676
G1 X45.597 Y56.649 E.7708
G1 X45.597 Y57.183 E.01676
M73 P3 R93
G1 X62.957 Y74.544 E.7708
G1 X62.957 Y75.078 E.01676
G1 X45.597 Y57.717 E.7708
G1 X45.597 Y58.251 E.01676
G1 X62.957 Y75.612 E.7708
G1 X62.957 Y76.146 E.01676
G1 X45.315 Y58.504 E.7833
G1 X44.781 Y58.504 E.01676
G1 X62.957 Y76.68 E.80701
G1 X62.957 Y77.213 E.01676
G1 X45.597 Y59.853 E.7708
G1 X45.597 Y59.364 E.01536
G1 X45.108 Y59.364 E.01536
G1 X44.247 Y58.504 E.0382
G1 X43.713 Y58.504 E.01676
G1 X44.574 Y59.364 E.0382
G1 X44.04 Y59.364 E.01676
G1 X43.179 Y58.504 E.0382
G1 X42.645 Y58.504 E.01676
G1 X43.506 Y59.364 E.03819
G1 X42.972 Y59.364 E.01676
G1 X42.427 Y58.819 E.02417
M204 P1000
G1 E-2.24 F4200
;WIPE_START
G1 F7200
G1 X42.972 Y59.364 E-.42667
G1 X43.506 Y59.364 E-.29591
G1 X43.264 Y59.122 E-.18942
;WIPE_END
G1 E-.048 F4200
G1 Z.4 F720
G1 X45.427 Y60.218 F9000
G1 Z.2 F720
G1 E3.2 F2400
M204 P800
G1 F1200
G1 X63.127 Y77.917 E.78587
M204 P1000
G1 E-2.24 F4200
;WIPE_START
G1 F7200
G1 X61.963 Y76.753 E-.912
;WIPE_END
G1 E-.048 F4200
G1 Z.4 F720
G1 X67.927 Y74.174 F9000
G1 Z.2 F720
G1 E3.2 F2400
M204 P800
G1 F1200
G1 X85.457 Y91.704 E.77833
G1 X85.457 Y92.238 E.01676
G1 X68.097 Y74.878 E.7708
G1 X68.097 Y75.412 E.01676
M73 P3 R92
G1 X85.457 Y92.772 E.7708
G1 X85.457 Y93.306 E.01676
G1 X68.097 Y75.946 E.7708
G1 X68.097 Y76.48 E.01676
G1 X85.457 Y93.84 E.7708
G1 X85.457 Y94.374 E.01676
G1 X68.097 Y77.013 E.7708
G1 X68.097 Y77.547 E.01676
G1 X85.457 Y94.908 E.7708
G1 X85.457 Y95.442 E.01676
G1 X68.097 Y78.081 E.7708
G1 X68.097 Y78.504 E.01325
G1 X67.985 Y78.504 E.00351
G1 X85.457 Y95.976 E.77576
G1 X85.457 Y96.51 E.01676
G1 X67.451 Y78.504 E.79947
G1 X66.917 Y78.504 E.01676
G1 X85.457 Y97.044 E.82318
G1 X85.457 Y97.578 E.01676
G1 X66.383 Y78.504 E.84689
G1 X65.849 Y78.504 E.01676
G1 X85.457 Y98.112 E.8706
G1 X85.457 Y98.646 E.01676
G1 X65.315 Y78.504 E.8943
G1 X64.781 Y78.504 E.01676
G1 X85.457 Y99.18 E.91801
G1 X85.457 Y99.713 E.01676
G1 X64.247 Y78.504 E.94172
G1 X63.713 Y78.504 E.01676
G1 X85.457 Y100.247 E.96543
G1 X85.457 Y100.781 E.01676
G1 X45.597 Y60.921 E1.7698
G1 X45.597 Y61.455 E.01676
G1 X85.457 Y101.315 E1.7698
G1 X85.457 Y101.849 E.01676
G1 X45.597 Y61.989 E1.7698
G1 X45.597 Y62.523 E.01676
G1 X85.457 Y102.383 E1.7698
G1 X85.457 Y102.917 E.01676
G1 X45.597 Y63.057 E1.7698
G1 X45.597 Y63.591 E.01676
G1 X85.457 Y103.451 E1.7698
G1 X85.457 Y103.985 E.01676
G1 X45.597 Y64.125 E1.7698
G1 X45.597 Y64.659 E.01676
G1 X85.457 Y104.519 E1.7698
G1 X85.457 Y105.053 E.01676
G1 X45.597 Y65.193 E1.7698
G1 X45.597 Y65.727 E.01676
M73 P4 R92
G1 X85.457 Y105.587 E1.7698
G1 X85.457 Y106.121 E.01676
G1 X45.597 Y66.261 E1.7698
G1 X45.597 Y66.795 E.01676
G1 X85.627 Y106.825 E1.77734
M204 P1000
G1 E-2.24 F4200
;WIPE_START
G1 F7200
G1 X84.463 Y105.661 E-.912
;WIPE_END
G1 E-.048 F4200
G1 Z.4 F720
G1 X88.627 Y107.689 F9000
G1 Z.2 F720
G1 E3.2 F2400
M204 P800
G1 F1200
G1 X88.442 Y107.504 E.00823
G1 X87.908 Y107.504 E.01676
G1 X88.457 Y108.053 E.0244
G1 X88.457 Y108.364 E.00975
G1 X88.234 Y108.364 E.00701
G1 X87.374 Y107.504 E.0382
G1 X86.84 Y107.504 E.01676
G1 X87.7 Y108.364 E.0382
G1 X87.166 Y108.364 E.01676
G1 X86.136 Y107.334 E.04573
M204 P1000
G1 X86.802 Y108.534 F9000
M204 P800
G1 F1200
G1 X45.597 Y67.329 E1.82949
G1 X45.597 Y67.863 E.01676
G1 X86.098 Y108.364 E1.79825
G1 X85.564 Y108.364 E.01676
M73 P4 R91
G1 X45.597 Y68.397 E1.77454
G1 X45.597 Y68.931 E.01676
G1 X85.457 Y108.791 E1.7698
G1 X85.457 Y109.325 E.01676
G1 X45.597 Y69.465 E1.7698
G1 X45.597 Y69.999 E.01676
G1 X85.457 Y109.859 E1.7698
