; generated by PrusaSlicer 2.4.2+win64 on 2022-09-25 at 11:41:32 UTC


;
;

;
;
; 

; external perimeters extrusion width = 0.45mm
; perimeters extrusion width = 0.45mm
; infill extrusion width = 0.45mm
; solid infill extrusion width = 0.45mm
; top infill extrusion width = 0.40mm
; first layer extrusion width = 0.42mm

M73 P0 R40
M201 X2500 Y2500 Z400 E5000 ; sets maximum accelerations, mm/sec^2
M203 X180 Y180 Z12 E80 ; sets maximum feedrates, mm / sec
M204 P1250 R1250 T2500 ; sets acceleration (P, T) and retract acceleration (R), mm/sec^2
M205 X8.00 Y8.00 Z2.00 E10.00 ; sets the jerk limits, mm/sec
M205 S0 T0 ; sets the minimum extruding and travel feed rate, mm/sec
M107
;TYPE:Custom
M862.3 P "MINI" ; printer model check
G90 ; use absolute coordinates
M83 ; extruder relative mode
M104 S170 ; set extruder temp for bed leveling
M140 S60 ; set bed temp
M109 R170 ; wait for bed leveling temp
M190 S60 ; wait for bed temp
M204 T1250 ; set travel acceleration
G28 ; home all without mesh bed level
G29 ; mesh bed leveling 
M204 T2500 ; restore travel acceleration
M104 S215 ; set extruder temp
G92 E0
G1 Y-2 X179 F2400
G1 Z3 F720
M109 S215 ; wait for extruder temp

; intro line
G1 X170 F1000
G1 Z0.2 F720
G1 X110 E8 F900
G1 X40 E10 F700
G92 E0

M221 S95 ; set flow
G21 ; set units to millimeters
G90 ; use absolute coordinates
M83 ; use relative distances for extrusion
M900 K0.2 ; Filament gcode LA 1.5
; ; Filament gcode LA 1.0
M107
;LAYER_CHANGE
;Z:0.2
;HEIGHT:0.2
;BEFORE_LAYER_CHANGE
G92 E0.0
;0.2


G1 E-3.2 F4200
G1 Z.2 F720
;AFTER_LAYER_CHANGE
;0.2
G1 Z.4
G1 X57.319 Y65.319 F9000
G1 Z.2 F720
G1 E3.2 F2400
M204 P800
;TYPE:Skirt/Brim
;WIDTH:0.42
G1 F1200
G1 X59 Y64.623 E.05704
G1 X121 Y64.623 E1.94397
G1 X122.681 Y65.319 E.05704
G1 X128.681 Y71.319 E.26605
G1 X129.377 Y73 E.05704
G1 X129.377 Y107 E1.06605
G1 X128.681 Y108.681 E.05704
G1 X122.681 Y114.681 E.26605
G1 X121 Y115.377 E.05704
G1 X59 Y115.377 E1.94397
G1 X57.319 Y114.681 E.05704
M73 P1 R40
G1 X51.319 Y108.681 E.26605
G1 X50.623 Y107 E.05704
G1 X50.623 Y73 E1.06605
G1 X51.319 Y71.319 E.05704
G1 X57.277 Y65.362 E.26417
M204 P1000
; printing object Side Wall 4.stl id:0 copy 0
G1 E-2.24 F4200
;WIPE_START
G1 F7200
G1 X58.789 Y64.713 E-.912
;WIPE_END
G1 E-.048 F4200
G1 Z.4 F720
G1 X59.787 Y67.787 F9000
G1 Z.2 F720
G1 E3.2 F2400
M204 P800
;TYPE:Perimeter
G1 F1200
G1 X61.213 Y67.787 E.04471
G1 X61.213 Y70.787 E.09406
G1 X89.287 Y70.787 E.88025
G1 X89.287 Y67.787 E.09406
G1 X90.713 Y67.787 E.04471
G1 X90.713 Y70.787 E.09406
G1 X118.787 Y70.787 E.88025
G1 X118.787 Y67.787 E.09406
G1 X120.213 Y67.787 E.04471
G1 X120.213 Y70.787 E.09406
G1 X123.213 Y70.787 E.09406
G1 X123.213 Y73.787 E.09406
G1 X126.213 Y73.787 E.09406
G1 X126.213 Y75.213 E.04471
G1 X123.213 Y75.213 E.09406
G1 X123.213 Y89.287 E.44129
G1 X126.213 Y89.287 E.09406
G1 X126.213 Y90.713 E.04471
G1 X123.213 Y90.713 E.09406
G1 X123.213 Y104.787 E.44129
G1 X126.213 Y104.787 E.09406
G1 X126.213 Y106.213 E.04471
G1 X123.213 Y106.213 E.09406
G1 X123.213 Y109.213 E.09406
G1 X120.213 Y109.213 E.09406
G1 X120.213 Y112.213 E.09406
G1 X118.787 Y112.213 E.04471
G1 X118.787 Y109.213 E.09406
G1 X98.787 Y109.213 E.62709
G1 X98.787 Y99.213 E.31354
G1 X77.213 Y99.213 E.67644
G1 X77.213 Y109.213 E.31354
G1 X61.213 Y109.213 E.50167
G1 X61.213 Y112.213 E.09406
G1 X59.787 Y112.213 E.04471
G1 X59.787 Y109.213 E.09406
G1 X56.787 Y109.213 E.09406
G1 X56.787 Y106.213 E.09406
G1 X53.787 Y106.213 E.09406
G1 X53.787 Y104.787 E.04471
G1 X56.787 Y104.787 E.09406
G1 X56.787 Y90.713 E.44129
G1 X53.787 Y90.713 E.09406
G1 X53.787 Y89.287 E.04471
G1 X56.787 Y89.287 E.09406
G1 X56.787 Y75.213 E.44129
G1 X53.787 Y75.213 E.09406
G1 X53.787 Y73.787 E.04471
G1 X56.787 Y73.787 E.09406
G1 X56.787 Y70.787 E.09406
G1 X59.787 Y70.787 E.09406
G1 X59.787 Y67.847 E.09218
M204 P1000
G1 X59.41 Y67.41 F9000
M204 P800
;TYPE:External perimeter
G1 F1200
G1 X61.59 Y67.41 E.06835
G1 X61.59 Y70.41 E.09406
G1 X88.91 Y70.41 E.8566
G1 X88.91 Y67.41 E.09406
G1 X91.09 Y67.41 E.06835
G1 X91.09 Y70.41 E.09406
G1 X118.41 Y70.41 E.8566
G1 X118.41 Y67.41 E.09406
G1 X120.59 Y67.41 E.06835
G1 X120.59 Y70.41 E.09406
G1 X123.59 Y70.41 E.09406
G1 X123.59 Y73.41 E.09406
G1 X126.59 Y73.41 E.09406
G1 X126.59 Y75.59 E.06835
G1 X123.59 Y75.59 E.09406
G1 X123.59 Y88.91 E.41764
G1 X126.59 Y88.91 E.09406
M73 P2 R40
G1 X126.59 Y91.09 E.06835
G1 X123.59 Y91.09 E.09406
G1 X123.59 Y104.41 E.41764
G1 X126.59 Y104.41 E.09406
G1 X126.59 Y106.59 E.06835
G1 X123.59 Y106.59 E.09406
G1 X123.59 Y109.59 E.09406
G1 X120.59 Y109.59 E.09406
G1 X120.59 Y112.59 E.09406
G1 X118.41 Y112.59 E.06835
G1 X118.41 Y109.59 E.09406
G1 X98.41 Y109.59 E.62709
G1 X98.41 Y99.59 E.31354
G1 X77.59 Y99.59 E.6528
G1 X77.59 Y109.59 E.31354
G1 X61.59 Y109.59 E.50167
G1 X61.59 Y112.59 E.09406
G1 X59.41 Y112.59 E.06835
G1 X59.41 Y109.59 E.09406
G1 X56.41 Y109.59 E.09406
G1 X56.41 Y106.59 E.09406
G1 X53.41 Y106.59 E.09406
G1 X53.41 Y104.41 E.06835
G1 X56.41 Y104.41 E.09406
G1 X56.41 Y91.09 E.41764
G1 X53.41 Y91.09 E.09406
M73 P2 R39
G1 X53.41 Y88.91 E.06835
G1 X56.41 Y88.91 E.09406
G1 X56.41 Y75.59 E.41764
G1 X53.41 Y75.59 E.09406
G1 X53.41 Y73.41 E.06835
G1 X56.41 Y73.41 E.09406
G1 X56.41 Y70.41 E.09406
G1 X59.41 Y70.41 E.09406
G1 X59.41 Y67.47 E.09218
M204 P1000
G1 X59.693 Y67.693 F9000
G1 E-2.24 F4200
;WIPE_START
G1 F7200
G1 X61.055 Y67.425 E-.912
;WIPE_END
G1 E-.048 F4200
G1 Z.4 F720
G1 X120.1 Y68.666 F9000
G1 Z.2 F720
G1 E3.2 F2400
M204 P800
;TYPE:Solid infill
;WIDTH:0.421764
G1 F1200
G1 X119.503 Y68.07 E.02657
G1 X119.07 Y68.07 E.01366
G1 X119.07 Y68.172 E.00322
G1 X119.93 Y69.032 E.03832
G1 X119.93 Y69.568 E.01688
G1 X119.07 Y68.708 E.03832
G1 X119.07 Y69.244 E.01688
G1 X120.1 Y70.274 E.04588
M204 P1000
G1 E-2.24 F4200
;WIPE_START
G1 F7200
G1 X119.07 Y69.244 E-.80717
G1 X119.07 Y69.054 E-.10483
;WIPE_END
G1 E-.048 F4200
G1 Z.4 F720
G1 X122.334 Y70.9 F9000
G1 Z.2 F720
G1 E3.2 F2400
M204 P800
G1 F1200
G1 X122.93 Y71.497 E.02657
G1 X122.93 Y72.032 E.01688
G1 X121.968 Y71.07 E.04287
G1 X121.432 Y71.07 E.01688
G1 X122.93 Y72.568 E.06674
G1 X122.93 Y73.104 E.01688
G1 X120.726 Y70.9 E.09817
M204 P1000
G1 E-2.24 F4200
;WIPE_START
G1 F7200
G1 X121.89 Y72.064 E-.912
;WIPE_END
G1 E-.048 F4200
G1 Z.4 F720
G1 X125.334 Y73.9 F9000
G1 Z.2 F720
G1 E3.2 F2400
M204 P800
G1 F1200
G1 X125.93 Y74.497 E.02657
G1 X125.93 Y74.93 E.01366
G1 X125.828 Y74.93 E.00322
G1 X124.968 Y74.07 E.03832
G1 X124.432 Y74.07 E.01688
G1 X125.292 Y74.93 E.03832
G1 X124.756 Y74.93 E.01688
G1 X123.726 Y73.9 E.04588
M204 P1000
G1 X124.39 Y75.1 F9000
M204 P800
G1 F1200
G1 X123.36 Y74.07 E.04588
G1 X122.93 Y74.07 E.01355
G1 X122.93 Y73.64 E.01355
G1 X120.36 Y71.07 E.11448
G1 X119.93 Y71.07 E.01355
G1 X119.93 Y70.64 E.01355
G1 X119.07 Y69.779 E.03832
G1 X119.07 Y70.315 E.01688
G1 X123.685 Y74.93 E.2056
G1 X123.149 Y74.93 E.01688
G1 X119.07 Y70.851 E.18173
G1 X119.07 Y71.07 E.0069
G1 X118.753 Y71.07 E.00998
G1 X122.93 Y75.247 E.18608
G1 X122.93 Y75.783 E.01688
G1 X118.217 Y71.07 E.20995
G1 X117.682 Y71.07 E.01688
G1 X122.93 Y76.318 E.23382
G1 X122.93 Y76.854 E.01688
G1 X117.146 Y71.07 E.25769
G1 X116.61 Y71.07 E.01688
G1 X122.93 Y77.39 E.28155
G1 X122.93 Y77.926 E.01688
G1 X116.074 Y71.07 E.30542
G1 X115.539 Y71.07 E.01688
G1 X122.93 Y78.461 E.32929
G1 X122.93 Y78.997 E.01688
G1 X115.003 Y71.07 E.35316
G1 X114.467 Y71.07 E.01688
G1 X122.93 Y79.533 E.37703
G1 X122.93 Y80.069 E.01688
G1 X113.931 Y71.07 E.40089
G1 X113.395 Y71.07 E.01688
G1 X122.93 Y80.605 E.42476
G1 X122.93 Y81.14 E.01688
G1 X112.86 Y71.07 E.44863
G1 X112.324 Y71.07 E.01688
G1 X122.93 Y81.676 E.4725
G1 X122.93 Y82.212 E.01688
G1 X111.788 Y71.07 E.49637
G1 X111.252 Y71.07 E.01688
G1 X122.93 Y82.748 E.52023
G1 X122.93 Y83.283 E.01688
G1 X110.717 Y71.07 E.5441
G1 X110.181 Y71.07 E.01688
G1 X122.93 Y83.819 E.56797
G1 X122.93 Y84.355 E.01688
M73 P3 R39
G1 X109.645 Y71.07 E.59184
G1 X109.109 Y71.07 E.01688
G1 X122.93 Y84.891 E.6157
G1 X122.93 Y85.426 E.01688
G1 X108.574 Y71.07 E.63957
G1 X108.038 Y71.07 E.01688
G1 X122.93 Y85.962 E.66344
G1 X122.93 Y86.498 E.01688
G1 X107.502 Y71.07 E.68731
G1 X106.966 Y71.07 E.01688
G1 X122.93 Y87.034 E.71118
G1 X122.93 Y87.57 E.01688
G1 X106.43 Y71.07 E.73504
G1 X105.895 Y71.07 E.01688
G1 X122.93 Y88.105 E.75891
G1 X122.93 Y88.641 E.01688
G1 X105.189 Y70.9 E.79034
M204 P1000
G1 E-2.24 F4200
;WIPE_START
G1 F7200
G1 X106.353 Y72.064 E-.912
;WIPE_END
G1 E-.048 F4200
G1 Z.4 F720
G1 X90.6 Y68.633 F9000
G1 Z.2 F720
G1 E3.2 F2400
M204 P800
G1 F1200
G1 X90.036 Y68.07 E.0251
G1 X89.57 Y68.07 E.01469
G1 X89.57 Y68.139 E.00218
G1 X90.43 Y68.999 E.03832
G1 X90.43 Y69.535 E.01688
G1 X89.57 Y68.675 E.03832
G1 X89.57 Y69.211 E.01688
G1 X90.6 Y70.241 E.04588
M204 P1000
G1 E-2.24 F4200
;WIPE_START
G1 F7200
G1 X89.57 Y69.211 E-.80717
G1 X89.57 Y69.022 E-.10483
;WIPE_END
G1 E-.048 F4200
G1 Z.4 F720
G1 X126.1 Y105.741 F9000
G1 Z.2 F720
G1 E3.2 F2400
M204 P800
G1 F1200
G1 X125.429 Y105.07 E.02988
G1 X124.893 Y105.07 E.01688
G1 X125.754 Y105.93 E.03832
G1 X125.218 Y105.93 E.01688
G1 X124.358 Y105.07 E.03832
G1 X123.822 Y105.07 E.01688
G1 X124.852 Y106.1 E.04588
M204 P1000
G1 E-2.24 F4200
;WIPE_START
G1 F7200
G1 X123.822 Y105.07 E-.80717
G1 X124.011 Y105.07 E-.10483
;WIPE_END
G1 E-.048 F4200
G1 Z.4 F720
G1 X126.1 Y90.203 F9000
G1 Z.2 F720
G1 E3.2 F2400
M204 P800
G1 F1200
G1 X125.466 Y89.57 E.02822
G1 X124.93 Y89.57 E.01688
G1 X125.791 Y90.43 E.03832
G1 X125.255 Y90.43 E.01688
G1 X124.395 Y89.57 E.03832
G1 X123.859 Y89.57 E.01688
G1 X124.719 Y90.43 E.03832
G1 X124.183 Y90.43 E.01688
G1 X123.323 Y89.57 E.03832
G1 X122.93 Y89.57 E.01238
G1 X122.93 Y89.177 E.01238
G1 X104.823 Y71.07 E.80665
G1 X104.287 Y71.07 E.01688
G1 X123.648 Y90.43 E.86248
G1 X123.112 Y90.43 E.01688
G1 X103.752 Y71.07 E.86248
G1 X103.216 Y71.07 E.01688
G1 X122.93 Y90.784 E.87825
G1 X122.93 Y91.32 E.01688
G1 X102.68 Y71.07 E.90212
G1 X102.144 Y71.07 E.01688
G1 X122.93 Y91.856 E.92599
G1 X122.93 Y92.391 E.01688
G1 X101.609 Y71.07 E.94986
G1 X101.073 Y71.07 E.01688
G1 X122.93 Y92.927 E.97372
G1 X122.93 Y93.463 E.01688
M73 P4 R39
G1 X100.537 Y71.07 E.99759
G1 X100.001 Y71.07 E.01688
G1 X122.93 Y93.999 E1.02146
G1 X122.93 Y94.534 E.01688
G1 X99.466 Y71.07 E1.04533
G1 X98.93 Y71.07 E.01688
G1 X122.93 Y95.07 E1.0692
G1 X122.93 Y95.606 E.01688
G1 X98.394 Y71.07 E1.09306
G1 X97.858 Y71.07 E.01688
G1 X122.93 Y96.142 E1.11693
G1 X122.93 Y96.678 E.01688
G1 X97.322 Y71.07 E1.1408
G1 X96.787 Y71.07 E.01688
G1 X122.93 Y97.213 E1.16467
G1 X122.93 Y97.749 E.01688
G1 X96.251 Y71.07 E1.18854
G1 X95.715 Y71.07 E.01688
G1 X122.93 Y98.285 E1.2124
G1 X122.93 Y98.821 E.01688
M73 P4 R38
G1 X95.179 Y71.07 E1.23627
G1 X94.644 Y71.07 E.01688
G1 X122.93 Y99.356 E1.26014
G1 X122.93 Y99.892 E.01688
G1 X94.108 Y71.07 E1.28401
G1 X93.572 Y71.07 E.01688
M73 P5 R38
G1 X122.93 Y100.428 E1.30788
G1 X122.93 Y100.964 E.01688
G1 X93.036 Y71.07 E1.33174
G1 X92.501 Y71.07 E.01688
G1 X122.93 Y101.499 E1.35561
G1 X122.93 Y102.035 E.01688
G1 X91.965 Y71.07 E1.37948
G1 X91.429 Y71.07 E.01688
G1 X122.93 Y102.571 E1.40335
G1 X122.93 Y103.107 E.01688
G1 X90.893 Y71.07 E1.42721
G1 X90.43 Y71.07 E.01459
G1 X90.43 Y70.607 E.01459
G1 X89.57 Y69.746 E.03832
G1 X89.57 Y70.282 E.01688
G1 X122.93 Y103.642 E1.48617
G1 X122.93 Y104.178 E.01688
G1 X89.57 Y70.818 E1.48617
G1 X89.57 Y71.07 E.00793
G1 X89.286 Y71.07 E.00894
G1 X122.93 Y104.714 E1.49882
G1 X122.93 Y105.07 E.01121
G1 X123.286 Y105.07 E.01121
G1 X124.146 Y105.93 E.03832
G1 X123.61 Y105.93 E.01688
G1 X88.75 Y71.07 E1.55299
G1 X88.214 Y71.07 E.01688
G1 X123.075 Y105.93 E1.55299
G1 X122.93 Y105.93 E.00455
M73 P6 R38
G1 X122.93 Y106.321 E.01232
G1 X87.679 Y71.07 E1.57042
G1 X87.143 Y71.07 E.01688
G1 X122.93 Y106.857 E1.59429
G1 X122.93 Y107.393 E.01688
G1 X86.607 Y71.07 E1.61816
G1 X86.071 Y71.07 E.01688
G1 X122.93 Y107.929 E1.64203
G1 X122.93 Y108.464 E.01688
G1 X85.536 Y71.07 E1.66589
G1 X85 Y71.07 E.01688
G1 X122.86 Y108.93 E1.68664
G1 X122.324 Y108.93 E.01688
G1 X84.464 Y71.07 E1.68664
G1 X83.928 Y71.07 E.01688
G1 X121.789 Y108.93 E1.68664
G1 X121.253 Y108.93 E.01688
G1 X83.393 Y71.07 E1.68664
G1 X82.857 Y71.07 E.01688
M73 P7 R38
G1 X120.717 Y108.93 E1.68664
G1 X120.181 Y108.93 E.01688
G1 X82.321 Y71.07 E1.68664
G1 X81.785 Y71.07 E.01688
M73 P7 R37
G1 X119.93 Y109.215 E1.69932
G1 X119.93 Y109.751 E.01688
G1 X81.249 Y71.07 E1.72319
G1 X80.714 Y71.07 E.01688
G1 X118.574 Y108.93 E1.68664
G1 X119.07 Y108.93 E.01562
G1 X119.07 Y109.426 E.01562
G1 X119.93 Y110.286 E.03832
G1 X119.93 Y110.822 E.01688
G1 X119.07 Y109.962 E.03832
G1 X119.07 Y110.498 E.01688
G1 X119.93 Y111.358 E.03832
G1 X119.93 Y111.894 E.01688
G1 X119.07 Y111.033 E.03832
G1 X119.07 Y111.569 E.01688
G1 X119.601 Y112.1 E.02364
M204 P1000
G1 E-2.24 F4200
;WIPE_START
G1 F7200
G1 X119.07 Y111.569 E-.41591
G1 X119.07 Y111.033 E-.2969
G1 X119.324 Y111.287 E-.19918
;WIPE_END
G1 E-.048 F4200
G1 Z.4 F720
G1 X118.208 Y109.1 F9000
G1 Z.2 F720
G1 E3.2 F2400
M204 P800
G1 F1200
G1 X80.178 Y71.07 E1.6942
G1 X79.642 Y71.07 E.01688
G1 X117.502 Y108.93 E1.68664
G1 X116.967 Y108.93 E.01688
G1 X79.106 Y71.07 E1.68664
G1 X78.571 Y71.07 E.01688
G1 X116.431 Y108.93 E1.68664
G1 X115.895 Y108.93 E.01688
M73 P8 R37
G1 X78.035 Y71.07 E1.68664
G1 X77.499 Y71.07 E.01688
G1 X115.359 Y108.93 E1.68664
G1 X114.824 Y108.93 E.01688
G1 X76.963 Y71.07 E1.68664
G1 X76.428 Y71.07 E.01688
G1 X114.288 Y108.93 E1.68664
G1 X113.752 Y108.93 E.01688
G1 X75.892 Y71.07 E1.68664
G1 X75.356 Y71.07 E.01688
G1 X113.216 Y108.93 E1.68664
G1 X112.681 Y108.93 E.01688
G1 X74.82 Y71.07 E1.68664
G1 X74.285 Y71.07 E.01688
G1 X112.145 Y108.93 E1.68664
G1 X111.609 Y108.93 E.01688
G1 X73.749 Y71.07 E1.68664
G1 X73.213 Y71.07 E.01688
M73 P9 R37
G1 X111.073 Y108.93 E1.68664
G1 X110.537 Y108.93 E.01688
G1 X72.677 Y71.07 E1.68664
G1 X72.141 Y71.07 E.01688
G1 X110.002 Y108.93 E1.68664
G1 X109.466 Y108.93 E.01688
G1 X71.606 Y71.07 E1.68664
G1 X71.07 Y71.07 E.01688
G1 X108.93 Y108.93 E1.68664
G1 X108.394 Y108.93 E.01688
G1 X99.07 Y99.606 E.4154
G1 X99.07 Y100.141 E.01688
M73 P9 R36
G1 X107.859 Y108.93 E.39153
G1 X107.323 Y108.93 E.01688
G1 X99.07 Y100.677 E.36766
G1 X99.07 Y101.213 E.01688
G1 X106.787 Y108.93 E.3438
G1 X106.251 Y108.93 E.01688
G1 X99.07 Y101.749 E.31993
G1 X99.07 Y102.284 E.01688
G1 X105.716 Y108.93 E.29606
G1 X105.18 Y108.93 E.01688
G1 X99.07 Y102.82 E.27219
G1 X99.07 Y103.356 E.01688
G1 X104.644 Y108.93 E.24832
G1 X104.108 Y108.93 E.01688
G1 X99.07 Y103.892 E.22446
G1 X99.07 Y104.428 E.01688
G1 X103.573 Y108.93 E.20059
G1 X103.037 Y108.93 E.01688
G1 X99.07 Y104.963 E.17672
G1 X99.07 Y105.499 E.01688
G1 X102.501 Y108.93 E.15285
G1 X101.965 Y108.93 E.01688
G1 X99.07 Y106.035 E.12898
G1 X99.07 Y106.571 E.01688
G1 X101.429 Y108.93 E.10512
G1 X100.894 Y108.93 E.01688
G1 X99.07 Y107.106 E.08125
G1 X99.07 Y107.642 E.01688
G1 X100.358 Y108.93 E.05738
G1 X99.822 Y108.93 E.01688
G1 X99.07 Y108.178 E.03351
G1 X99.07 Y108.714 E.01688
G1 X99.456 Y109.1 E.0172
M204 P1000
G1 E-2.24 F4200
;WIPE_START
G1 F7200
G1 X99.07 Y108.714 E-.30265
G1 X99.07 Y108.178 E-.2969
G1 X99.469 Y108.577 E-.31245
;WIPE_END
G1 E-.048 F4200
G1 Z.4 F720
G1 X98.564 Y99.1 F9000
G1 Z.2 F720
G1 E3.2 F2400
M204 P800
G1 F1200
G1 X70.534 Y71.07 E1.24871
G1 X69.998 Y71.07 E.01688
G1 X97.859 Y98.93 E1.24115
G1 X97.323 Y98.93 E.01688
M73 P10 R36
G1 X69.463 Y71.07 E1.24115
G1 X68.927 Y71.07 E.01688
G1 X96.787 Y98.93 E1.24115
G1 X96.251 Y98.93 E.01688
G1 X68.391 Y71.07 E1.24115
G1 X67.855 Y71.07 E.01688
G1 X95.716 Y98.93 E1.24115
G1 X95.18 Y98.93 E.01688
G1 X67.32 Y71.07 E1.24115
G1 X66.784 Y71.07 E.01688
G1 X94.644 Y98.93 E1.24115
G1 X94.108 Y98.93 E.01688
G1 X66.248 Y71.07 E1.24115
G1 X65.712 Y71.07 E.01688
G1 X93.573 Y98.93 E1.24115
G1 X93.037 Y98.93 E.01688
G1 X65.176 Y71.07 E1.24115
G1 X64.641 Y71.07 E.01688
G1 X92.501 Y98.93 E1.24115
G1 X91.965 Y98.93 E.01688
G1 X64.105 Y71.07 E1.24115
G1 X63.569 Y71.07 E.01688
G1 X91.429 Y98.93 E1.24115
G1 X90.894 Y98.93 E.01688
M73 P11 R36
G1 X63.033 Y71.07 E1.24115
G1 X62.498 Y71.07 E.01688
G1 X90.358 Y98.93 E1.24115
G1 X89.822 Y98.93 E.01688
G1 X61.792 Y70.9 E1.24871
M204 P1000
G1 E-2.24 F4200
;WIPE_START
