; generated by PrusaSlicer 2.4.2+win64 on 2022-10-31 at 03:03:47 UTC


;
;

;
;
; 

; external perimeters extrusion width = 0.45mm
; perimeters extrusion width = 0.45mm
; infill extrusion width = 0.45mm
; solid infill extrusion width = 0.45mm
; top infill extrusion width = 0.40mm
; first layer extrusion width = 0.42mm

M73 P0 R113
M201 X2500 Y2500 Z400 E5000 ; sets maximum accelerations, mm/sec^2
M203 X180 Y180 Z12 E80 ; sets maximum feedrates, mm / sec
M204 P1250 R1250 T2500 ; sets acceleration (P, T) and retract acceleration (R), mm/sec^2
M205 X8.00 Y8.00 Z2.00 E10.00 ; sets the jerk limits, mm/sec
M205 S0 T0 ; sets the minimum extruding and travel feed rate, mm/sec
M107
;TYPE:Custom
M862.3 P "MINI" ; printer model check
G90 ; use absolute coordinates
M83 ; extruder relative mode
M104 S170 ; set extruder temp for bed leveling
M140 S60 ; set bed temp
M109 R170 ; wait for bed leveling temp
M190 S60 ; wait for bed temp
M204 T1250 ; set travel acceleration
G28 ; home all without mesh bed level
G29 ; mesh bed leveling 
M204 T2500 ; restore travel acceleration
M104 S215 ; set extruder temp
G92 E0
G1 Y-2 X179 F2400
G1 Z3 F720
M109 S215 ; wait for extruder temp

; intro line
M73 P0 R112
G1 X170 F1000
G1 Z0.2 F720
G1 X110 E8 F900
G1 X40 E10 F700
G92 E0

M221 S95 ; set flow
G21 ; set units to millimeters
G90 ; use absolute coordinates
M83 ; use relative distances for extrusion
M900 K0.2 ; Filament gcode LA 1.5
; ; Filament gcode LA 1.0
M107
;LAYER_CHANGE
;Z:0.2
;HEIGHT:0.2
;BEFORE_LAYER_CHANGE
G92 E0.0
;0.2


G1 E-3.2 F4200
G1 Z.2 F720
;AFTER_LAYER_CHANGE
;0.2
G1 Z.4
G1 X51.015 Y33.693 F9000
G1 Z.2 F720
G1 E3.2 F2400
M204 P800
;TYPE:Skirt/Brim
;WIDTH:0.42
G1 F1200
G1 X52.06 Y32.817 E.04278
G1 X53 Y32.623 E.03008
G1 X127 Y32.623 E2.32022
G1 X128.307 Y33.015 E.04278
G1 X129.183 Y34.06 E.04278
G1 X129.377 Y35 E.03008
G1 X129.377 Y145 E3.44897
G1 X128.985 Y146.307 E.04278
G1 X127.94 Y147.183 E.04278
G1 X127 Y147.377 E.03008
G1 X53 Y147.377 E2.32022
G1 X51.693 Y146.985 E.04278
G1 X50.817 Y145.94 E.04278
G1 X50.623 Y145 E.03008
G1 X50.623 Y35 E3.44897
G1 X50.997 Y33.75 E.0409
M204 P1000
; printing object Top Wall.stl id:0 copy 0
G1 E-2.24 F4200
;WIPE_START
G1 F7200
G1 X52.06 Y32.817 E-.78411
G1 X52.286 Y32.77 E-.12789
;WIPE_END
G1 E-.048 F4200
G1 Z.4 F720
G1 X88.213 Y97.713 F9000
G1 Z.2 F720
G1 E3.2 F2400
M204 P800
;TYPE:Perimeter
G1 F1200
G1 X91.787 Y97.713 E.11207
G1 X91.787 Y119.287 E.67644
G1 X88.213 Y119.287 E.11207
G1 X88.213 Y97.773 E.67456
M204 P1000
G1 X88.59 Y98.09 F9000
M204 P800
;TYPE:External perimeter
G1 F1200
G1 X91.41 Y98.09 E.08842
G1 X91.41 Y118.91 E.6528
G1 X88.59 Y118.91 E.08842
G1 X88.59 Y98.15 E.65092
M204 P1000
G1 X88.572 Y97.69 F9000
G1 E-2.24 F4200
;WIPE_START
G1 F7200
G1 X90.235 Y98.115 E-.912
;WIPE_END
G1 E-.048 F4200
G1 Z.4 F720
G1 X91.88 Y97.713 F9000
G1 Z.2 F720
G1 E3.2 F2400
M204 P800
;TYPE:Perimeter
G1 F1200
G1 X95.454 Y97.713 E.11207
G1 X95.454 Y119.287 E.67644
G1 X91.88 Y119.287 E.11207
G1 X91.88 Y97.773 E.67456
M204 P1000
G1 X92.257 Y98.09 F9000
M204 P800
;TYPE:External perimeter
G1 F1200
G1 X95.077 Y98.09 E.08842
G1 X95.077 Y118.91 E.6528
G1 X92.257 Y118.91 E.08842
G1 X92.257 Y98.15 E.65092
M204 P1000
G1 X92.239 Y97.69 F9000
G1 E-2.24 F4200
;WIPE_START
G1 F7200
G1 X93.902 Y98.115 E-.912
;WIPE_END
G1 E-.048 F4200
G1 Z.4 F720
G1 X95.546 Y97.713 F9000
G1 Z.2 F720
G1 E3.2 F2400
M204 P800
;TYPE:Perimeter
G1 F1200
G1 X99.12 Y97.713 E.11207
G1 X99.12 Y119.287 E.67644
G1 X95.546 Y119.287 E.11207
G1 X95.546 Y97.773 E.67456
M204 P1000
G1 X95.923 Y98.09 F9000
M204 P800
;TYPE:External perimeter
G1 F1200
G1 X98.743 Y98.09 E.08842
G1 X98.743 Y118.91 E.6528
G1 X95.923 Y118.91 E.08842
G1 X95.923 Y98.15 E.65092
M204 P1000
G1 X95.905 Y97.69 F9000
G1 E-2.24 F4200
;WIPE_START
G1 F7200
G1 X97.569 Y98.115 E-.912
;WIPE_END
G1 E-.048 F4200
G1 Z.4 F720
G1 X99.213 Y97.713 F9000
G1 Z.2 F720
G1 E3.2 F2400
M204 P800
;TYPE:Perimeter
G1 F1200
G1 X102.787 Y97.713 E.11207
G1 X102.787 Y119.287 E.67644
G1 X99.213 Y119.287 E.11207
G1 X99.213 Y97.773 E.67456
M204 P1000
G1 X99.59 Y98.09 F9000
M204 P800
;TYPE:External perimeter
G1 F1200
G1 X102.41 Y98.09 E.08842
G1 X102.41 Y118.91 E.6528
G1 X99.59 Y118.91 E.08842
G1 X99.59 Y98.15 E.65092
M204 P1000
G1 X99.572 Y97.69 F9000
G1 E-2.24 F4200
;WIPE_START
G1 F7200
G1 X101.235 Y98.115 E-.912
;WIPE_END
G1 E-.048 F4200
G1 Z.4 F720
G1 X103.716 Y103.418 F9000
G1 Z.2 F720
G1 E3.2 F2400
M204 P800
;TYPE:Perimeter
G1 F1200
G1 X103.98 Y103.233 E.01012
G1 X104.302 Y103.083 E.01115
G1 X104.646 Y102.991 E.01115
G1 X104.971 Y102.962 E.01023
G1 X105.35 Y102.99 E.01192
G1 X105.698 Y103.083 E.01129
G1 X106.02 Y103.233 E.01115
G1 X106.311 Y103.437 E.01115
G1 X106.563 Y103.689 E.01115
G1 X106.767 Y103.98 E.01115
G1 X106.917 Y104.302 E.01115
G1 X107.009 Y104.646 E.01115
G1 X107.04 Y105 E.01115
G1 X107.009 Y105.354 E.01115
G1 X106.917 Y105.698 E.01115
G1 X106.767 Y106.02 E.01115
G1 X106.563 Y106.311 E.01115
G1 X106.332 Y106.542 E.01023
G1 X106.024 Y106.765 E.01192
G1 X105.698 Y106.917 E.01129
G1 X105.354 Y107.009 E.01115
G1 X105 Y107.04 E.01115
G1 X104.646 Y107.009 E.01115
G1 X104.302 Y106.917 E.01115
G1 X103.98 Y106.767 E.01115
G1 X103.689 Y106.563 E.01115
G1 X103.437 Y106.311 E.01115
G1 X103.233 Y106.02 E.01115
G1 X103.083 Y105.698 E.01115
G1 X102.991 Y105.354 E.01115
G1 X102.96 Y105 E.01115
G1 X102.991 Y104.646 E.01115
G1 X103.083 Y104.302 E.01115
G1 X103.233 Y103.98 E.01115
G1 X103.437 Y103.689 E.01115
G1 X103.67 Y103.456 E.0103
M204 P1000
G1 X103.932 Y103.727 F9000
M204 P800
;TYPE:External perimeter
G1 F1200
G1 X104.169 Y103.561 E.00908
G1 X104.432 Y103.439 E.00908
G1 X104.711 Y103.364 E.00908
G1 X104.974 Y103.341 E.00825
G1 X105.287 Y103.363 E.00985
G1 X105.568 Y103.439 E.00913
G1 X105.831 Y103.561 E.00908
G1 X106.068 Y103.727 E.00908
G1 X106.273 Y103.932 E.00908
G1 X106.439 Y104.169 E.00908
G1 X106.561 Y104.432 E.00908
G1 X106.636 Y104.711 E.00908
G1 X106.662 Y105 E.00908
G1 X106.636 Y105.289 E.00908
G1 X106.561 Y105.568 E.00908
G1 X106.439 Y105.831 E.00908
G1 X106.273 Y106.068 E.00908
G1 X106.087 Y106.254 E.00825
G1 X105.832 Y106.438 E.00985
G1 X105.568 Y106.561 E.00913
G1 X105.289 Y106.636 E.00908
G1 X105 Y106.662 E.00908
G1 X104.711 Y106.636 E.00908
G1 X104.432 Y106.561 E.00908
G1 X104.169 Y106.439 E.00908
G1 X103.932 Y106.273 E.00908
G1 X103.727 Y106.068 E.00908
G1 X103.561 Y105.831 E.00908
G1 X103.439 Y105.568 E.00908
G1 X103.364 Y105.289 E.00908
G1 X103.338 Y105 E.00908
G1 X103.364 Y104.711 E.00908
G1 X103.439 Y104.432 E.00908
G1 X103.561 Y104.169 E.00908
G1 X103.727 Y103.932 E.00908
G1 X103.89 Y103.77 E.0072
M204 P1000
G1 X103.882 Y103.442 F9000
G1 E-2.24 F4200
;WIPE_START
G1 F7200
G1 X104.169 Y103.561 E-.19334
G1 X104.432 Y103.439 E-.1605
G1 X104.711 Y103.364 E-.1605
G1 X104.974 Y103.341 E-.14588
G1 X105.287 Y103.363 E-.17403
G1 X105.422 Y103.4 E-.07774
;WIPE_END
G1 E-.048 F4200
G1 Z.4 F720
G1 X106.291 Y99.043 F9000
G1 Z.2 F720
G1 E3.2 F2400
M204 P800
;TYPE:Perimeter
G1 F1200
G1 X105.917 Y98.875 E.01285
G1 X105.608 Y98.659 E.01183
G1 X105.341 Y98.392 E.01183
G1 X105.125 Y98.083 E.01183
G1 X104.965 Y97.741 E.01183
G1 X104.876 Y97.405 E.0109
G1 X104.835 Y97.004 E.01262
G1 X104.868 Y96.624 E.01197
G1 X104.965 Y96.259 E.01183
G1 X105.125 Y95.917 E.01183
G1 X105.341 Y95.608 E.01183
G1 X105.608 Y95.341 E.01183
G1 X105.917 Y95.125 E.01183
G1 X106.26 Y94.965 E.01183
G1 X106.624 Y94.868 E.01183
G1 X106.97 Y94.838 E.0109
G1 X107.372 Y94.867 E.01262
G1 X107.741 Y94.965 E.01197
G1 X108.083 Y95.125 E.01183
G1 X108.392 Y95.341 E.01183
G1 X108.659 Y95.608 E.01183
G1 X108.875 Y95.917 E.01183
G1 X109.035 Y96.259 E.01183
G1 X109.124 Y96.595 E.0109
G1 X109.165 Y96.996 E.01262
G1 X109.132 Y97.376 E.01197
G1 X109.035 Y97.741 E.01183
G1 X108.875 Y98.083 E.01183
G1 X108.659 Y98.392 E.01183
G1 X108.392 Y98.659 E.01183
G1 X108.083 Y98.875 E.01183
G1 X107.74 Y99.035 E.01183
G1 X107.376 Y99.132 E.01183
G1 X107 Y99.165 E.01183
G1 X106.624 Y99.132 E.01183
G1 X106.349 Y99.059 E.00892
M204 P1000
G1 X106.389 Y98.679 F9000
M204 P800
;TYPE:External perimeter
G1 F1200
G1 X106.107 Y98.547 E.00976
G1 X105.852 Y98.369 E.00976
G1 X105.631 Y98.148 E.00976
G1 X105.453 Y97.893 E.00976
G1 X105.321 Y97.611 E.00976
G1 X105.248 Y97.336 E.00892
G1 X105.213 Y97.002 E.01055
G1 X105.241 Y96.69 E.00981
G1 X105.321 Y96.389 E.00976
G1 X105.453 Y96.107 E.00976
G1 X105.631 Y95.852 E.00976
G1 X105.852 Y95.631 E.00976
G1 X106.107 Y95.453 E.00976
G1 X106.389 Y95.321 E.00976
G1 X106.69 Y95.241 E.00976
G1 X106.973 Y95.216 E.00892
G1 X107.309 Y95.24 E.01055
G1 X107.611 Y95.321 E.00981
G1 X107.893 Y95.453 E.00976
G1 X108.148 Y95.631 E.00976
G1 X108.369 Y95.852 E.00976
G1 X108.547 Y96.107 E.00976
G1 X108.679 Y96.389 E.00976
G1 X108.752 Y96.664 E.00892
G1 X108.787 Y96.998 E.01055
G1 X108.759 Y97.31 E.00981
G1 X108.679 Y97.611 E.00976
G1 X108.547 Y97.893 E.00976
G1 X108.369 Y98.148 E.00976
G1 X108.148 Y98.369 E.00976
G1 X107.893 Y98.547 E.00976
G1 X107.611 Y98.679 E.00976
G1 X107.31 Y98.759 E.00976
G1 X107 Y98.787 E.00976
G1 X106.69 Y98.759 E.00976
G1 X106.447 Y98.694 E.00788
M204 P1000
G1 X106.15 Y98.879 F9000
G1 E-2.24 F4200
;WIPE_START
G1 F7200
G1 X106.107 Y98.547 E-.2054
G1 X105.852 Y98.369 E-.17258
G1 X105.631 Y98.148 E-.17257
G1 X105.453 Y97.893 E-.17258
G1 X105.321 Y97.611 E-.17258
G1 X105.314 Y97.583 E-.01629
;WIPE_END
G1 E-.048 F4200
G1 Z.4 F720
G1 X114.787 Y76.213 F9000
G1 Z.2 F720
G1 E3.2 F2400
M204 P800
;TYPE:Perimeter
G1 F1200
G1 X114.787 Y103.787 E.86457
G1 X110.213 Y103.787 E.14342
G1 X110.213 Y76.213 E.86457
G1 X114.727 Y76.213 E.14154
M204 P1000
M73 P0 R111
G1 X114.41 Y76.59 F9000
M204 P800
;TYPE:External perimeter
G1 F1200
G1 X114.41 Y103.41 E.84092
G1 X110.59 Y103.41 E.11977
G1 X110.59 Y76.59 E.84092
G1 X114.35 Y76.59 E.11789
M204 P1000
G1 X114.765 Y76.407 F9000
G1 E-2.24 F4200
;WIPE_START
G1 F7200
G1 X114.354 Y78.236 E-.912
;WIPE_END
G1 E-.048 F4200
G1 Z.4 F720
G1 X107.012 Y75.321 F9000
G1 Z.2 F720
G1 E3.2 F2400
M204 P800
;TYPE:Perimeter
G1 F1200
G1 X106.917 Y75.698 E.01217
G1 X106.767 Y76.02 E.01115
G1 X106.563 Y76.311 E.01115
G1 X106.311 Y76.563 E.01115
G1 X106.044 Y76.75 E.01023
G1 X105.702 Y76.916 E.01191
G1 X105.354 Y77.009 E.01129
G1 X105 Y77.04 E.01115
G1 X104.646 Y77.009 E.01115
G1 X104.302 Y76.917 E.01115
M73 P1 R111
G1 X103.98 Y76.767 E.01115
G1 X103.689 Y76.563 E.01115
G1 X103.458 Y76.332 E.01023
G1 X103.235 Y76.024 E.01192
G1 X103.083 Y75.698 E.01129
G1 X102.991 Y75.354 E.01115
G1 X102.96 Y75 E.01115
G1 X102.991 Y74.646 E.01115
G1 X103.083 Y74.302 E.01115
G1 X103.233 Y73.98 E.01115
G1 X103.437 Y73.689 E.01115
G1 X103.689 Y73.437 E.01115
G1 X103.98 Y73.233 E.01115
G1 X104.302 Y73.083 E.01115
G1 X104.646 Y72.991 E.01115
G1 X104.971 Y72.962 E.01023
G1 X105.35 Y72.99 E.01192
G1 X105.698 Y73.083 E.01129
G1 X106.02 Y73.233 E.01115
G1 X106.311 Y73.437 E.01115
G1 X106.563 Y73.689 E.01115
G1 X106.767 Y73.98 E.01115
G1 X106.905 Y74.276 E.01023
G1 X107.009 Y74.641 E.01192
G1 X107.04 Y75 E.01129
G1 X107.017 Y75.262 E.00823
M204 P1000
G1 X106.636 Y75.289 F9000
M204 P800
;TYPE:External perimeter
G1 F1200
G1 X106.561 Y75.568 E.00908
G1 X106.439 Y75.831 E.00908
G1 X106.273 Y76.068 E.00908
G1 X106.068 Y76.273 E.00908
G1 X105.852 Y76.424 E.00825
G1 X105.57 Y76.561 E.00985
G1 X105.289 Y76.636 E.00913
G1 X105 Y76.662 E.00908
G1 X104.711 Y76.636 E.00908
G1 X104.432 Y76.561 E.00908
G1 X104.169 Y76.439 E.00908
G1 X103.932 Y76.273 E.00908
G1 X103.746 Y76.087 E.00825
G1 X103.562 Y75.832 E.00985
G1 X103.439 Y75.568 E.00913
G1 X103.364 Y75.289 E.00908
G1 X103.338 Y75 E.00908
G1 X103.364 Y74.711 E.00908
G1 X103.439 Y74.432 E.00908
G1 X103.561 Y74.169 E.00908
G1 X103.727 Y73.932 E.00908
G1 X103.932 Y73.727 E.00908
G1 X104.169 Y73.561 E.00908
G1 X104.432 Y73.439 E.00908
G1 X104.711 Y73.364 E.00908
G1 X104.974 Y73.341 E.00825
G1 X105.287 Y73.363 E.00985
G1 X105.568 Y73.439 E.00913
G1 X105.831 Y73.561 E.00908
G1 X106.068 Y73.727 E.00908
G1 X106.273 Y73.932 E.00908
G1 X106.439 Y74.169 E.00908
G1 X106.55 Y74.408 E.00825
G1 X106.636 Y74.71 E.00985
G1 X106.662 Y75 E.00913
G1 X106.642 Y75.229 E.0072
M204 P1000
G1 X106.858 Y75.475 F9000
G1 E-2.24 F4200
;WIPE_START
G1 F7200
G1 X106.561 Y75.568 E-.19333
G1 X106.439 Y75.831 E-.1605
G1 X106.273 Y76.068 E-.16051
G1 X106.068 Y76.273 E-.16051
G1 X105.852 Y76.424 E-.14588
G1 X105.704 Y76.496 E-.09127
;WIPE_END
G1 E-.048 F4200
G1 Z.4 F720
G1 X69.787 Y76.213 F9000
G1 Z.2 F720
G1 E3.2 F2400
M204 P800
;TYPE:Perimeter
G1 F1200
G1 X69.787 Y103.787 E.86457
G1 X65.213 Y103.787 E.14342
G1 X65.213 Y76.213 E.86457
G1 X69.727 Y76.213 E.14154
M204 P1000
G1 X69.41 Y76.59 F9000
M204 P800
;TYPE:External perimeter
G1 F1200
G1 X69.41 Y103.41 E.84092
G1 X65.59 Y103.41 E.11977
G1 X65.59 Y76.59 E.84092
G1 X69.35 Y76.59 E.11789
M204 P1000
G1 X69.765 Y76.407 F9000
G1 E-2.24 F4200
;WIPE_START
G1 F7200
G1 X69.354 Y78.236 E-.912
;WIPE_END
G1 E-.048 F4200
G1 Z.4 F720
G1 X73.074 Y75.666 F9000
G1 Z.2 F720
G1 E3.2 F2400
M204 P800
;TYPE:Perimeter
G1 F1200
G1 X72.991 Y75.354 E.01012
G1 X72.96 Y75 E.01115
G1 X72.991 Y74.646 E.01115
G1 X73.083 Y74.302 E.01115
G1 X73.233 Y73.98 E.01115
G1 X73.437 Y73.689 E.01115
G1 X73.689 Y73.437 E.01115
G1 X73.98 Y73.233 E.01115
G1 X74.302 Y73.083 E.01115
G1 X74.646 Y72.991 E.01115
G1 X74.971 Y72.962 E.01023
G1 X75.35 Y72.99 E.01192
G1 X75.698 Y73.083 E.01129
G1 X76.02 Y73.233 E.01115
G1 X76.311 Y73.437 E.01115
G1 X76.563 Y73.689 E.01115
G1 X76.75 Y73.956 E.01023
G1 X76.916 Y74.298 E.01192
G1 X77.009 Y74.646 E.01129
G1 X77.04 Y75 E.01115
G1 X77.009 Y75.354 E.01115
G1 X76.917 Y75.698 E.01115
G1 X76.767 Y76.02 E.01115
G1 X76.563 Y76.311 E.01115
G1 X76.311 Y76.563 E.01115
G1 X76.02 Y76.767 E.01115
G1 X75.698 Y76.917 E.01115
G1 X75.383 Y77.002 E.01023
G1 X75.005 Y77.04 E.01192
G1 X74.646 Y77.009 E.01129
G1 X74.302 Y76.917 E.01115
G1 X73.98 Y76.767 E.01115
G1 X73.689 Y76.563 E.01115
G1 X73.437 Y76.311 E.01115
G1 X73.233 Y76.02 E.01115
G1 X73.094 Y75.722 E.0103
M204 P1000
G1 X73.439 Y75.568 F9000
M204 P800
;TYPE:External perimeter
G1 F1200
G1 X73.364 Y75.289 E.00908
G1 X73.338 Y75 E.00908
G1 X73.364 Y74.711 E.00908
G1 X73.439 Y74.432 E.00908
G1 X73.561 Y74.169 E.00908
G1 X73.727 Y73.932 E.00908
G1 X73.932 Y73.727 E.00908
G1 X74.169 Y73.561 E.00908
G1 X74.432 Y73.439 E.00908
G1 X74.711 Y73.364 E.00908
G1 X74.974 Y73.341 E.00825
G1 X75.287 Y73.363 E.00985
G1 X75.568 Y73.439 E.00913
G1 X75.831 Y73.561 E.00908
G1 X76.068 Y73.727 E.00908
G1 X76.273 Y73.932 E.00908
G1 X76.424 Y74.148 E.00825
G1 X76.561 Y74.43 E.00985
G1 X76.636 Y74.711 E.00913
G1 X76.662 Y75 E.00908
G1 X76.636 Y75.289 E.00908
G1 X76.561 Y75.568 E.00908
G1 X76.439 Y75.831 E.00908
G1 X76.273 Y76.068 E.00908
G1 X76.068 Y76.273 E.00908
G1 X75.831 Y76.439 E.00908
G1 X75.568 Y76.561 E.00908
G1 X75.314 Y76.629 E.00825
G1 X75.002 Y76.662 E.00985
G1 X74.711 Y76.636 E.00913
G1 X74.432 Y76.561 E.00908
G1 X74.169 Y76.439 E.00908
G1 X73.932 Y76.273 E.00908
G1 X73.727 Y76.068 E.00908
G1 X73.561 Y75.831 E.00908
G1 X73.464 Y75.623 E.0072
M204 P1000
G1 X73.153 Y75.518 F9000
G1 E-2.24 F4200
;WIPE_START
G1 F7200
G1 X73.364 Y75.289 E-.19333
G1 X73.338 Y75 E-.16051
G1 X73.364 Y74.711 E-.16051
G1 X73.439 Y74.432 E-.1605
G1 X73.561 Y74.169 E-.1605
G1 X73.64 Y74.056 E-.07666
;WIPE_END
G1 E-.048 F4200
G1 Z.4 F720
G1 X82.947 Y95.111 F9000
G1 Z.2 F720
G1 E3.2 F2400
M204 P800
;TYPE:Perimeter
G1 F1200
G1 X83.259 Y94.965 E.0108
G1 X83.624 Y94.868 E.01183
G1 X83.97 Y94.838 E.0109
G1 X84.372 Y94.867 E.01262
G1 X84.741 Y94.965 E.01197
G1 X85.083 Y95.125 E.01183
G1 X85.392 Y95.341 E.01183
G1 X85.659 Y95.608 E.01183
G1 X85.875 Y95.917 E.01183
G1 X86.035 Y96.259 E.01183
G1 X86.132 Y96.624 E.01183
G1 X86.165 Y97 E.01183
G1 X86.132 Y97.376 E.01183
G1 X86.035 Y97.74 E.01183
G1 X85.875 Y98.083 E.01183
G1 X85.659 Y98.392 E.01183
G1 X85.392 Y98.659 E.01183
G1 X85.083 Y98.875 E.01183
G1 X84.741 Y99.035 E.01183
G1 X84.405 Y99.124 E.0109
G1 X84.004 Y99.165 E.01262
G1 X83.624 Y99.132 E.01197
G1 X83.259 Y99.035 E.01183
G1 X82.917 Y98.875 E.01183
G1 X82.608 Y98.659 E.01183
G1 X82.341 Y98.392 E.01183
G1 X82.125 Y98.083 E.01183
G1 X81.965 Y97.741 E.01183
G1 X81.868 Y97.376 E.01183
