; generated by PrusaSlicer 2.4.2+win64 on 2022-09-25 at 11:39:32 UTC


;
;

;
;
; 

; external perimeters extrusion width = 0.45mm
; perimeters extrusion width = 0.45mm
; infill extrusion width = 0.45mm
; solid infill extrusion width = 0.45mm
; top infill extrusion width = 0.40mm
; support material extrusion width = 0.35mm
; first layer extrusion width = 0.42mm

M73 P0 R111
M201 X2500 Y2500 Z400 E5000 ; sets maximum accelerations, mm/sec^2
M203 X180 Y180 Z12 E80 ; sets maximum feedrates, mm / sec
M204 P1250 R1250 T2500 ; sets acceleration (P, T) and retract acceleration (R), mm/sec^2
M205 X8.00 Y8.00 Z2.00 E10.00 ; sets the jerk limits, mm/sec
M205 S0 T0 ; sets the minimum extruding and travel feed rate, mm/sec
M107
;TYPE:Custom
M862.3 P "MINI" ; printer model check
G90 ; use absolute coordinates
M83 ; extruder relative mode
M104 S170 ; set extruder temp for bed leveling
M140 S60 ; set bed temp
M109 R170 ; wait for bed leveling temp
M190 S60 ; wait for bed temp
M204 T1250 ; set travel acceleration
G28 ; home all without mesh bed level
G29 ; mesh bed leveling 
M204 T2500 ; restore travel acceleration
M104 S215 ; set extruder temp
G92 E0
G1 Y-2 X179 F2400
G1 Z3 F720
M109 S215 ; wait for extruder temp

; intro line
G1 X170 F1000
G1 Z0.2 F720
G1 X110 E8 F900
G1 X40 E10 F700
G92 E0

M221 S95 ; set flow
G21 ; set units to millimeters
G90 ; use absolute coordinates
M83 ; use relative distances for extrusion
M900 K0.2 ; Filament gcode LA 1.5
; ; Filament gcode LA 1.0
M107
;LAYER_CHANGE
;Z:0.2
;HEIGHT:0.2
;BEFORE_LAYER_CHANGE
G92 E0.0
;0.2


G1 E-3.2 F4200
G1 Z.2 F720
;AFTER_LAYER_CHANGE
;0.2
G1 Z.4
G1 X51.015 Y33.693 F9000
G1 Z.2 F720
G1 E3.2 F2400
M204 P800
;TYPE:Skirt/Brim
;WIDTH:0.42
G1 F1200
G1 X52.06 Y32.817 E.04278
G1 X53 Y32.623 E.03008
G1 X127 Y32.623 E2.32022
G1 X128.307 Y33.015 E.04278
G1 X129.183 Y34.06 E.04278
G1 X129.377 Y35 E.03008
G1 X129.377 Y145 E3.44897
G1 X128.985 Y146.307 E.04278
G1 X127.94 Y147.183 E.04278
G1 X127 Y147.377 E.03008
G1 X53 Y147.377 E2.32022
G1 X51.693 Y146.985 E.04278
G1 X50.817 Y145.94 E.04278
G1 X50.623 Y145 E.03008
G1 X50.623 Y35 E3.44897
G1 X50.997 Y33.75 E.0409
M204 P1000
; printing object Top Wall.stl id:0 copy 0
G1 E-2.24 F4200
;WIPE_START
G1 F7200
G1 X52.06 Y32.817 E-.78411
G1 X52.286 Y32.77 E-.12789
;WIPE_END
G1 E-.048 F4200
G1 Z.4 F720
G1 X102.02 Y61.487 F9000
G1 Z.2 F720
G1 E3.2 F2400
M204 P800
;TYPE:Support material
G1 F1200
G1 X77.98 Y61.487 E.75376
G1 X77.98 Y57.48 E.12562
G1 X102.02 Y57.48 E.75376
G1 X102.02 Y61.43 E.12385
M204 P1000
G1 X101.312 Y61.317 F9000
M204 P800
G1 F1200
G1 X101.312 Y57.819 E.10966
G1 X100.893 Y57.819 E.01314
G1 X100.893 Y61.147 E.10434
G1 X100.474 Y61.147 E.01314
G1 X100.474 Y57.819 E.10434
G1 X100.055 Y57.819 E.01314
G1 X100.055 Y61.147 E.10434
G1 X99.636 Y61.147 E.01314
G1 X99.636 Y57.819 E.10434
G1 X99.217 Y57.819 E.01314
G1 X99.217 Y61.147 E.10434
G1 X98.799 Y61.147 E.01314
G1 X98.799 Y57.819 E.10434
G1 X98.38 Y57.819 E.01314
G1 X98.38 Y61.147 E.10434
G1 X97.961 Y61.147 E.01314
G1 X97.961 Y57.819 E.10434
G1 X97.542 Y57.819 E.01314
G1 X97.542 Y61.147 E.10434
G1 X97.123 Y61.147 E.01314
G1 X97.123 Y57.819 E.10434
G1 X96.704 Y57.819 E.01314
G1 X96.704 Y61.147 E.10434
G1 X96.285 Y61.147 E.01314
G1 X96.285 Y57.819 E.10434
G1 X95.866 Y57.819 E.01314
G1 X95.866 Y61.147 E.10434
G1 X95.447 Y61.147 E.01314
G1 X95.447 Y57.819 E.10434
G1 X95.028 Y57.819 E.01314
G1 X95.028 Y61.147 E.10434
G1 X94.609 Y61.147 E.01314
G1 X94.609 Y57.819 E.10434
G1 X94.19 Y57.819 E.01314
G1 X94.19 Y61.147 E.10434
G1 X93.771 Y61.147 E.01314
G1 X93.771 Y57.819 E.10434
G1 X93.352 Y57.819 E.01314
G1 X93.352 Y61.147 E.10434
G1 X92.933 Y61.147 E.01314
G1 X92.933 Y57.819 E.10434
G1 X92.514 Y57.819 E.01314
G1 X92.514 Y61.147 E.10434
G1 X92.095 Y61.147 E.01314
G1 X92.095 Y57.819 E.10434
G1 X91.676 Y57.819 E.01314
G1 X91.676 Y61.147 E.10434
G1 X91.257 Y61.147 E.01314
G1 X91.257 Y57.819 E.10434
G1 X90.838 Y57.819 E.01314
G1 X90.838 Y61.147 E.10434
G1 X90.419 Y61.147 E.01314
G1 X90.419 Y57.819 E.10434
G1 X90 Y57.819 E.01314
G1 X90 Y61.147 E.10434
G1 X89.581 Y61.147 E.01314
G1 X89.581 Y57.819 E.10434
G1 X89.162 Y57.819 E.01314
G1 X89.162 Y61.147 E.10434
G1 X88.743 Y61.147 E.01314
G1 X88.743 Y57.819 E.10434
G1 X88.324 Y57.819 E.01314
G1 X88.324 Y61.147 E.10434
G1 X87.905 Y61.147 E.01314
G1 X87.905 Y57.819 E.10434
G1 X87.486 Y57.819 E.01314
G1 X87.486 Y61.147 E.10434
G1 X87.067 Y61.147 E.01314
G1 X87.067 Y57.819 E.10434
G1 X86.648 Y57.819 E.01314
M73 P0 R110
G1 X86.648 Y61.147 E.10434
G1 X86.229 Y61.147 E.01314
G1 X86.229 Y57.819 E.10434
G1 X85.81 Y57.819 E.01314
G1 X85.81 Y61.147 E.10434
G1 X85.391 Y61.147 E.01314
G1 X85.391 Y57.819 E.10434
G1 X84.972 Y57.819 E.01314
G1 X84.972 Y61.147 E.10434
G1 X84.553 Y61.147 E.01314
G1 X84.553 Y57.819 E.10434
G1 X84.134 Y57.819 E.01314
G1 X84.134 Y61.147 E.10434
G1 X83.715 Y61.147 E.01314
G1 X83.715 Y57.819 E.10434
G1 X83.296 Y57.819 E.01314
G1 X83.296 Y61.147 E.10434
G1 X82.877 Y61.147 E.01314
G1 X82.877 Y57.819 E.10434
G1 X82.458 Y57.819 E.01314
G1 X82.458 Y61.147 E.10434
G1 X82.039 Y61.147 E.01314
G1 X82.039 Y57.819 E.10434
G1 X81.62 Y57.819 E.01314
G1 X81.62 Y61.147 E.10434
G1 X81.201 Y61.147 E.01314
G1 X81.201 Y57.819 E.10434
G1 X80.783 Y57.819 E.01314
G1 X80.783 Y61.147 E.10434
G1 X80.364 Y61.147 E.01314
G1 X80.364 Y57.819 E.10434
G1 X79.945 Y57.819 E.01314
G1 X79.945 Y61.147 E.10434
G1 X79.526 Y61.147 E.01314
G1 X79.526 Y57.819 E.10434
G1 X79.107 Y57.819 E.01314
G1 X79.107 Y61.147 E.10434
G1 X78.688 Y61.147 E.01314
G1 X78.688 Y57.65 E.10966
M204 P1000
G1 E-2.24 F4200
;WIPE_START
G1 F7200
G1 X78.688 Y59.295 E-.912
;WIPE_END
G1 E-.048 F4200
G1 Z.4 F720
G1 X104.01 Y103.219 F9000
G1 Z.2 F720
G1 E3.2 F2400
M204 P800
;TYPE:Perimeter
G1 F1200
G1 X104.302 Y103.083 E.01012
G1 X104.646 Y102.991 E.01115
G1 X104.971 Y102.962 E.01023
G1 X105.35 Y102.99 E.01192
G1 X105.698 Y103.083 E.01129
G1 X106.02 Y103.233 E.01115
G1 X106.311 Y103.437 E.01115
G1 X106.563 Y103.689 E.01115
G1 X106.767 Y103.98 E.01115
G1 X106.917 Y104.302 E.01115
G1 X107.009 Y104.646 E.01115
G1 X107.04 Y105 E.01115
G1 X107.009 Y105.354 E.01115
G1 X106.917 Y105.698 E.01115
G1 X106.767 Y106.02 E.01115
G1 X106.563 Y106.311 E.01115
G1 X106.332 Y106.542 E.01023
G1 X106.024 Y106.765 E.01192
G1 X105.698 Y106.917 E.01129
G1 X105.354 Y107.009 E.01115
G1 X105 Y107.04 E.01115
G1 X104.646 Y107.009 E.01115
G1 X104.302 Y106.917 E.01115
G1 X103.98 Y106.767 E.01115
G1 X103.689 Y106.563 E.01115
G1 X103.437 Y106.311 E.01115
G1 X103.233 Y106.02 E.01115
G1 X103.083 Y105.698 E.01115
G1 X102.991 Y105.354 E.01115
G1 X102.96 Y105 E.01115
G1 X102.991 Y104.646 E.01115
G1 X103.083 Y104.302 E.01115
G1 X103.233 Y103.98 E.01115
G1 X103.437 Y103.689 E.01115
G1 X103.689 Y103.437 E.01115
G1 X103.958 Y103.249 E.0103
M204 P1000
G1 X104.169 Y103.561 F9000
M204 P800
;TYPE:External perimeter
G1 F1200
G1 X104.432 Y103.439 E.00908
G1 X104.711 Y103.364 E.00908
G1 X104.974 Y103.341 E.00825
G1 X105.287 Y103.363 E.00985
G1 X105.568 Y103.439 E.00913
G1 X105.831 Y103.561 E.00908
G1 X106.068 Y103.727 E.00908
G1 X106.273 Y103.932 E.00908
G1 X106.439 Y104.169 E.00908
G1 X106.561 Y104.432 E.00908
G1 X106.636 Y104.711 E.00908
G1 X106.662 Y105 E.00908
G1 X106.636 Y105.289 E.00908
G1 X106.561 Y105.568 E.00908
G1 X106.439 Y105.831 E.00908
G1 X106.273 Y106.068 E.00908
G1 X106.087 Y106.254 E.00825
G1 X105.832 Y106.438 E.00985
G1 X105.568 Y106.561 E.00913
G1 X105.289 Y106.636 E.00908
G1 X105 Y106.662 E.00908
G1 X104.711 Y106.636 E.00908
G1 X104.432 Y106.561 E.00908
G1 X104.169 Y106.439 E.00908
G1 X103.932 Y106.273 E.00908
G1 X103.727 Y106.068 E.00908
G1 X103.561 Y105.831 E.00908
G1 X103.439 Y105.568 E.00908
G1 X103.364 Y105.289 E.00908
G1 X103.338 Y105 E.00908
G1 X103.364 Y104.711 E.00908
G1 X103.439 Y104.432 E.00908
G1 X103.561 Y104.169 E.00908
G1 X103.727 Y103.932 E.00908
G1 X103.932 Y103.727 E.00908
G1 X104.12 Y103.595 E.0072
M204 P1000
G1 X104.169 Y103.271 F9000
G1 E-2.24 F4200
;WIPE_START
G1 F7200
G1 X104.432 Y103.439 E-.19333
G1 X104.711 Y103.364 E-.1605
G1 X104.974 Y103.341 E-.14588
G1 X105.287 Y103.363 E-.17403
G1 X105.568 Y103.439 E-.16141
G1 X105.694 Y103.497 E-.07684
;WIPE_END
G1 E-.048 F4200
G1 Z.4 F720
G1 X105.033 Y77.037 F9000
G1 Z.2 F720
G1 E3.2 F2400
M204 P800
;TYPE:Perimeter
G1 F1200
G1 X104.646 Y77.009 E.01217
G1 X104.302 Y76.917 E.01115
G1 X103.98 Y76.767 E.01115
G1 X103.689 Y76.563 E.01115
G1 X103.458 Y76.332 E.01023
G1 X103.235 Y76.024 E.01192
G1 X103.083 Y75.698 E.01129
G1 X102.991 Y75.354 E.01115
G1 X102.96 Y75 E.01115
G1 X102.991 Y74.646 E.01115
G1 X103.083 Y74.302 E.01115
G1 X103.233 Y73.98 E.01115
G1 X103.437 Y73.689 E.01115
G1 X103.689 Y73.437 E.01115
G1 X103.98 Y73.233 E.01115
G1 X104.302 Y73.083 E.01115
G1 X104.646 Y72.991 E.01115
G1 X104.971 Y72.962 E.01023
G1 X105.35 Y72.99 E.01192
G1 X105.698 Y73.083 E.01129
G1 X106.02 Y73.233 E.01115
G1 X106.311 Y73.437 E.01115
G1 X106.563 Y73.689 E.01115
G1 X106.767 Y73.98 E.01115
G1 X106.905 Y74.276 E.01023
G1 X107.009 Y74.641 E.01192
G1 X107.04 Y75 E.01129
G1 X107.009 Y75.354 E.01115
G1 X106.917 Y75.698 E.01115
G1 X106.767 Y76.02 E.01115
G1 X106.563 Y76.311 E.01115
G1 X106.311 Y76.563 E.01115
G1 X106.044 Y76.75 E.01023
G1 X105.702 Y76.916 E.01191
G1 X105.354 Y77.009 E.01129
G1 X105.093 Y77.032 E.00823
M204 P1000
G1 X105 Y76.662 F9000
M204 P800
;TYPE:External perimeter
G1 F1200
G1 X104.711 Y76.636 E.00908
G1 X104.432 Y76.561 E.00908
G1 X104.169 Y76.439 E.00908
G1 X103.932 Y76.273 E.00908
G1 X103.746 Y76.087 E.00825
G1 X103.562 Y75.832 E.00985
G1 X103.439 Y75.568 E.00913
G1 X103.364 Y75.289 E.00908
G1 X103.338 Y75 E.00908
G1 X103.364 Y74.711 E.00908
G1 X103.439 Y74.432 E.00908
G1 X103.561 Y74.169 E.00908
G1 X103.727 Y73.932 E.00908
G1 X103.932 Y73.727 E.00908
G1 X104.169 Y73.561 E.00908
G1 X104.432 Y73.439 E.00908
G1 X104.711 Y73.364 E.00908
G1 X104.974 Y73.341 E.00825
G1 X105.287 Y73.363 E.00985
G1 X105.568 Y73.439 E.00913
G1 X105.831 Y73.561 E.00908
G1 X106.068 Y73.727 E.00908
G1 X106.273 Y73.932 E.00908
G1 X106.439 Y74.169 E.00908
G1 X106.55 Y74.408 E.00825
G1 X106.636 Y74.71 E.00985
G1 X106.662 Y75 E.00913
G1 X106.636 Y75.289 E.00908
G1 X106.561 Y75.568 E.00908
G1 X106.439 Y75.831 E.00908
G1 X106.273 Y76.068 E.00908
G1 X106.068 Y76.273 E.00908
G1 X105.852 Y76.424 E.00825
G1 X105.57 Y76.561 E.00985
G1 X105.289 Y76.636 E.00913
G1 X105.06 Y76.656 E.0072
M204 P1000
G1 X104.855 Y76.912 F9000
G1 E-2.24 F4200
;WIPE_START
G1 F7200
G1 X104.711 Y76.636 E-.19334
G1 X104.432 Y76.561 E-.1605
G1 X104.169 Y76.439 E-.1605
G1 X103.932 Y76.273 E-.1605
G1 X103.746 Y76.087 E-.14588
G1 X103.649 Y75.953 E-.09128
;WIPE_END
G1 E-.048 F4200
G1 Z.4 F720
G1 X103.287 Y62.754 F9000
G1 Z.2 F720
G1 E3.2 F2400
M204 P800
;TYPE:Perimeter
G1 F1200
G1 X76.713 Y62.754 E.83321
G1 X76.713 Y56.213 E.20508
G1 X103.287 Y56.213 E.83321
G1 X103.287 Y62.694 E.2032
M204 P1000
G1 X102.91 Y62.377 F9000
M204 P800
;TYPE:External perimeter
G1 F1200
G1 X77.09 Y62.377 E.80957
G1 X77.09 Y56.59 E.18143
G1 X102.91 Y56.59 E.80957
G1 X102.91 Y62.317 E.17955
M204 P1000
G1 X103.084 Y62.737 F9000
G1 E-2.24 F4200
;WIPE_START
G1 F7200
G1 X101.264 Y62.32 E-.912
;WIPE_END
G1 E-.048 F4200
G1 Z.4 F720
G1 X76.9 Y74.265 F9000
G1 Z.2 F720
G1 E3.2 F2400
M204 P800
;TYPE:Perimeter
G1 F1200
G1 X77.009 Y74.646 E.0124
G1 X77.04 Y75 E.01115
G1 X77.009 Y75.354 E.01115
G1 X76.917 Y75.698 E.01115
G1 X76.767 Y76.02 E.01115
G1 X76.563 Y76.311 E.01115
G1 X76.311 Y76.563 E.01115
G1 X76.02 Y76.767 E.01115
G1 X75.698 Y76.917 E.01115
G1 X75.383 Y77.002 E.01023
G1 X75.005 Y77.04 E.01192
G1 X74.646 Y77.009 E.01129
G1 X74.302 Y76.917 E.01115
G1 X73.98 Y76.767 E.01115
G1 X73.689 Y76.563 E.01115
G1 X73.437 Y76.311 E.01115
G1 X73.233 Y76.02 E.01115
G1 X73.083 Y75.698 E.01115
G1 X72.991 Y75.354 E.01115
G1 X72.96 Y75 E.01115
G1 X72.991 Y74.646 E.01115
G1 X73.083 Y74.302 E.01115
G1 X73.233 Y73.98 E.01115
G1 X73.437 Y73.689 E.01115
G1 X73.689 Y73.437 E.01115
G1 X73.98 Y73.233 E.01115
G1 X74.302 Y73.083 E.01115
G1 X74.646 Y72.991 E.01115
G1 X74.971 Y72.962 E.01023
G1 X75.35 Y72.99 E.01192
G1 X75.698 Y73.083 E.01129
G1 X76.02 Y73.233 E.01115
G1 X76.311 Y73.437 E.01115
G1 X76.563 Y73.689 E.01115
G1 X76.75 Y73.956 E.01023
G1 X76.874 Y74.212 E.00891
M204 P1000
G1 X76.561 Y74.43 F9000
M204 P800
;TYPE:External perimeter
G1 F1200
G1 X76.636 Y74.711 E.00913
G1 X76.662 Y75 E.00908
G1 X76.636 Y75.289 E.00908
G1 X76.561 Y75.568 E.00908
G1 X76.439 Y75.831 E.00908
G1 X76.273 Y76.068 E.00908
G1 X76.068 Y76.273 E.00908
G1 X75.831 Y76.439 E.00908
G1 X75.568 Y76.561 E.00908
G1 X75.314 Y76.629 E.00825
G1 X75.002 Y76.662 E.00985
G1 X74.711 Y76.636 E.00913
G1 X74.432 Y76.561 E.00908
G1 X74.169 Y76.439 E.00908
G1 X73.932 Y76.273 E.00908
G1 X73.727 Y76.068 E.00908
G1 X73.561 Y75.831 E.00908
G1 X73.439 Y75.568 E.00908
G1 X73.364 Y75.289 E.00908
G1 X73.338 Y75 E.00908
G1 X73.364 Y74.711 E.00908
G1 X73.439 Y74.432 E.00908
G1 X73.561 Y74.169 E.00908
G1 X73.727 Y73.932 E.00908
G1 X73.932 Y73.727 E.00908
G1 X74.169 Y73.561 E.00908
G1 X74.432 Y73.439 E.00908
G1 X74.711 Y73.364 E.00908
G1 X74.974 Y73.341 E.00825
G1 X75.287 Y73.363 E.00985
G1 X75.568 Y73.439 E.00913
G1 X75.831 Y73.561 E.00908
G1 X76.068 Y73.727 E.00908
G1 X76.273 Y73.932 E.00908
G1 X76.424 Y74.148 E.00825
G1 X76.535 Y74.376 E.00797
M204 P1000
G1 X76.848 Y74.481 F9000
G1 E-2.24 F4200
;WIPE_START
G1 F7200
G1 X76.636 Y74.711 E-.19416
G1 X76.662 Y75 E-.16051
G1 X76.636 Y75.289 E-.1605
G1 X76.561 Y75.568 E-.1605
G1 X76.439 Y75.831 E-.16051
G1 X76.36 Y75.943 E-.07583
;WIPE_END
G1 E-.048 F4200
G1 Z.4 F720
G1 X75.001 Y102.965 F9000
G1 Z.2 F720
G1 E3.2 F2400
M204 P800
;TYPE:Perimeter
G1 F1200
G1 X75.35 Y102.99 E.01097
G1 X75.698 Y103.083 E.01129
G1 X76.02 Y103.233 E.01115
G1 X76.311 Y103.437 E.01115
G1 X76.563 Y103.689 E.01115
G1 X76.75 Y103.956 E.01023
G1 X76.916 Y104.298 E.01192
G1 X77.009 Y104.646 E.01129
G1 X77.04 Y105 E.01115
G1 X77.009 Y105.354 E.01115
G1 X76.917 Y105.698 E.01115
G1 X76.767 Y106.02 E.01115
G1 X76.563 Y106.311 E.01115
G1 X76.311 Y106.563 E.01115
G1 X76.02 Y106.767 E.01115
G1 X75.698 Y106.917 E.01115
G1 X75.354 Y107.009 E.01115
G1 X75 Y107.04 E.01115
G1 X74.646 Y107.009 E.01115
G1 X74.302 Y106.917 E.01115
G1 X73.98 Y106.767 E.01115
G1 X73.689 Y106.563 E.01115
G1 X73.437 Y106.311 E.01115
G1 X73.233 Y106.02 E.01115
G1 X73.095 Y105.724 E.01023
G1 X72.991 Y105.359 E.01192
G1 X72.96 Y105 E.01129
G1 X72.991 Y104.646 E.01115
G1 X73.083 Y104.302 E.01115
G1 X73.233 Y103.98 E.01115
G1 X73.437 Y103.689 E.01115
G1 X73.689 Y103.437 E.01115
G1 X73.98 Y103.233 E.01115
G1 X74.302 Y103.083 E.01115
G1 X74.646 Y102.991 E.01115
G1 X74.941 Y102.965 E.00929
M204 P1000
G1 X74.974 Y103.341 F9000
M204 P800
;TYPE:External perimeter
G1 F1200
G1 X75.287 Y103.363 E.00985
G1 X75.568 Y103.439 E.00913
G1 X75.831 Y103.561 E.00908
G1 X76.068 Y103.727 E.00908
G1 X76.273 Y103.932 E.00908
G1 X76.424 Y104.148 E.00825
G1 X76.561 Y104.43 E.00985
G1 X76.636 Y104.711 E.00913
G1 X76.662 Y105 E.00908
G1 X76.636 Y105.289 E.00908
G1 X76.561 Y105.568 E.00908
G1 X76.439 Y105.831 E.00908
G1 X76.273 Y106.068 E.00908
G1 X76.068 Y106.273 E.00908
G1 X75.831 Y106.439 E.00908
G1 X75.568 Y106.561 E.00908
G1 X75.289 Y106.636 E.00908
G1 X75 Y106.662 E.00908
G1 X74.711 Y106.636 E.00908
G1 X74.432 Y106.561 E.00908
G1 X74.169 Y106.439 E.00908
G1 X73.932 Y106.273 E.00908
G1 X73.727 Y106.068 E.00908
G1 X73.561 Y105.831 E.00908
G1 X73.45 Y105.592 E.00825
G1 X73.364 Y105.29 E.00985
G1 X73.338 Y105 E.00913
G1 X73.364 Y104.711 E.00908
G1 X73.439 Y104.432 E.00908
G1 X73.561 Y104.169 E.00908
G1 X73.727 Y103.932 E.00908
G1 X73.932 Y103.727 E.00908
G1 X74.169 Y103.561 E.00908
G1 X74.432 Y103.439 E.00908
G1 X74.711 Y103.364 E.00908
G1 X74.914 Y103.346 E.00637
M204 P1000
G1 X75.128 Y103.067 F9000
G1 E-2.24 F4200
;WIPE_START
G1 F7200
G1 X75.287 Y103.363 E-.20693
G1 X75.568 Y103.439 E-.1614
G1 X75.831 Y103.561 E-.1605
G1 X76.068 Y103.727 E-.16051
G1 X76.273 Y103.932 E-.16051
G1 X76.337 Y104.024 E-.06215
;WIPE_END
G1 E-.048 F4200
G1 Z.4 F720
G1 X56.787 Y103.546 F9000
G1 Z.2 F720
G1 E3.2 F2400
M204 P800
;TYPE:Perimeter
G1 F1200
G1 X53.787 Y103.546 E.09406
