; generated by PrusaSlicer 2.4.2+win64 on 2022-10-31 at 16:19:41 UTC


;
;

;
;
; 

; external perimeters extrusion width = 0.45mm
; perimeters extrusion width = 0.45mm
; infill extrusion width = 0.45mm
; solid infill extrusion width = 0.45mm
; top infill extrusion width = 0.40mm
; support material extrusion width = 0.35mm
; first layer extrusion width = 0.42mm

M73 P0 R34
M201 X2500 Y2500 Z400 E5000 ; sets maximum accelerations, mm/sec^2
M203 X180 Y180 Z12 E80 ; sets maximum feedrates, mm / sec
M204 P1250 R1250 T2500 ; sets acceleration (P, T) and retract acceleration (R), mm/sec^2
M205 X8.00 Y8.00 Z2.00 E10.00 ; sets the jerk limits, mm/sec
M205 S0 T0 ; sets the minimum extruding and travel feed rate, mm/sec
M107
;TYPE:Custom
M862.3 P "MINI" ; printer model check
G90 ; use absolute coordinates
M83 ; extruder relative mode
M104 S170 ; set extruder temp for bed leveling
M140 S60 ; set bed temp
M109 R170 ; wait for bed leveling temp
M190 S60 ; wait for bed temp
M204 T1250 ; set travel acceleration
G28 ; home all without mesh bed level
G29 ; mesh bed leveling 
M204 T2500 ; restore travel acceleration
M104 S215 ; set extruder temp
G92 E0
G1 Y-2 X179 F2400
G1 Z3 F720
M109 S215 ; wait for extruder temp

; intro line
G1 X170 F1000
G1 Z0.2 F720
G1 X110 E8 F900
G1 X40 E10 F700
G92 E0

M221 S95 ; set flow
G21 ; set units to millimeters
G90 ; use absolute coordinates
M83 ; use relative distances for extrusion
M900 K0.2 ; Filament gcode LA 1.5
; ; Filament gcode LA 1.0
M107
;LAYER_CHANGE
;Z:0.2
;HEIGHT:0.2
;BEFORE_LAYER_CHANGE
G92 E0.0
;0.2


G1 E-3.2 F4200
G1 Z.2 F720
;AFTER_LAYER_CHANGE
;0.2
G1 Z.4
G1 X76.716 Y55.929 F9000
G1 Z.2 F720
G1 E3.2 F2400
M204 P800
;TYPE:Skirt/Brim
;WIDTH:0.42
G1 F1200
G1 X83.45 Y48.286 E.31938
G1 X83.994 Y47.787 E.02313
G1 X84.495 Y47.48 E.01844
G1 X85.211 Y47.219 E.02388
G1 X86 Y47.123 E.02492
G1 X94.207 Y47.132 E.25733
G1 X94.789 Y47.219 E.01844
G1 X95.505 Y47.48 E.02388
G1 X96.006 Y47.787 E.01844
G1 X96.55 Y48.286 E.02313
G1 X103.284 Y55.929 E.31938
G1 X103.877 Y57.5 E.05267
G1 X103.877 Y130.5 E2.28886
G1 X103.485 Y131.807 E.04278
M73 P1 R34
G1 X102.44 Y132.683 E.04278
G1 X101.5 Y132.877 E.03008
G1 X78.5 Y132.877 E.72115
G1 X77.193 Y132.485 E.04278
G1 X76.317 Y131.44 E.04278
G1 X76.123 Y130.5 E.03008
G1 X76.123 Y57.5 E2.28886
G1 X76.695 Y55.985 E.05079
M204 P1000
; printing object Tray.stl id:0 copy 0
G1 E-2.24 F4200
;WIPE_START
G1 F7200
G1 X77.781 Y54.748 E-.912
;WIPE_END
G1 E-.048 F4200
G1 Z.4 F720
G1 X98.52 Y128.02 F9000
G1 Z.2 F720
G1 E3.2 F2400
M204 P800
;TYPE:Support material
G1 F1200
G1 X81.48 Y128.02 E.53428
G1 X81.48 Y110.98 E.53428
M73 P1 R33
G1 X98.52 Y110.98 E.53428
G1 X98.52 Y127.963 E.5325
M204 P1000
G1 E-2.24 F4200
;WIPE_START
G1 F7200
G1 X98.52 Y126.318 E-.912
;WIPE_END
G1 E-.048 F4200
G1 Z.4 F720
G1 X85.995 Y116.127 F9000
G1 Z.2 F720
G1 E3.2 F2400
M204 P800
G1 F1200
G1 X85.995 Y121.818 E.17845
G1 X94.005 Y121.818 E.25112
G1 X94.005 Y116.127 E.17845
G1 X86.052 Y116.127 E.24935
M204 P1000
G1 E-2.24 F4200
;WIPE_START
G1 F7200
G1 X87.698 Y116.127 E-.912
;WIPE_END
G1 E-.048 F4200
G1 Z.4 F720
G1 X97.961 Y127.85 F9000
G1 Z.2 F720
G1 E3.2 F2400
M204 P800
G1 F1200
G1 X97.961 Y111.319 E.51832
G1 X97.542 Y111.319 E.01314
G1 X97.542 Y127.681 E.513
G1 X97.123 Y127.681 E.01314
G1 X97.123 Y111.319 E.513
G1 X96.704 Y111.319 E.01314
G1 X96.704 Y127.681 E.513
G1 X96.285 Y127.681 E.01314
G1 X96.285 Y111.319 E.513
G1 X95.866 Y111.319 E.01314
G1 X95.866 Y127.681 E.513
G1 X95.447 Y127.681 E.01314
G1 X95.447 Y111.319 E.513
G1 X95.028 Y111.319 E.01314
G1 X95.028 Y127.681 E.513
G1 X94.609 Y127.681 E.01314
G1 X94.609 Y111.319 E.513
G1 X94.19 Y111.319 E.01314
G1 X94.19 Y127.681 E.513
G1 X93.771 Y127.681 E.01314
M73 P2 R33
G1 X93.771 Y122.158 E.17317
G1 X93.352 Y122.158 E.01314
G1 X93.352 Y127.681 E.17317
G1 X92.933 Y127.681 E.01314
G1 X92.933 Y122.158 E.17317
G1 X92.514 Y122.158 E.01314
G1 X92.514 Y127.681 E.17317
G1 X92.095 Y127.681 E.01314
G1 X92.095 Y122.158 E.17317
G1 X91.676 Y122.158 E.01314
G1 X91.676 Y127.681 E.17317
G1 X91.257 Y127.681 E.01314
G1 X91.257 Y122.158 E.17317
G1 X90.838 Y122.158 E.01314
G1 X90.838 Y127.681 E.17317
G1 X90.419 Y127.681 E.01314
G1 X90.419 Y122.158 E.17317
G1 X90 Y122.158 E.01314
G1 X90 Y127.681 E.17317
G1 X89.581 Y127.681 E.01314
G1 X89.581 Y122.158 E.17317
G1 X89.162 Y122.158 E.01314
G1 X89.162 Y127.681 E.17317
G1 X88.743 Y127.681 E.01314
G1 X88.743 Y122.158 E.17317
G1 X88.324 Y122.158 E.01314
G1 X88.324 Y127.681 E.17317
G1 X87.905 Y127.681 E.01314
G1 X87.905 Y122.158 E.17317
G1 X87.486 Y122.158 E.01314
G1 X87.486 Y127.681 E.17317
G1 X87.067 Y127.681 E.01314
G1 X87.067 Y122.158 E.17317
G1 X86.648 Y122.158 E.01314
G1 X86.648 Y127.681 E.17317
G1 X86.229 Y127.681 E.01314
G1 X86.229 Y121.988 E.17849
M204 P1000
G1 E-2.24 F4200
;WIPE_START
G1 F7200
G1 X86.229 Y123.634 E-.912
;WIPE_END
G1 E-.048 F4200
G1 Z.4 F720
G1 X93.771 Y115.957 F9000
G1 Z.2 F720
G1 E3.2 F2400
M204 P800
G1 F1200
G1 X93.771 Y111.319 E.14542
G1 X93.352 Y111.319 E.01314
G1 X93.352 Y115.788 E.1401
G1 X92.933 Y115.788 E.01314
G1 X92.933 Y111.319 E.1401
G1 X92.514 Y111.319 E.01314
G1 X92.514 Y115.788 E.1401
G1 X92.095 Y115.788 E.01314
G1 X92.095 Y111.319 E.1401
G1 X91.676 Y111.319 E.01314
G1 X91.676 Y115.788 E.1401
G1 X91.257 Y115.788 E.01314
G1 X91.257 Y111.319 E.1401
G1 X90.838 Y111.319 E.01314
G1 X90.838 Y115.788 E.1401
G1 X90.419 Y115.788 E.01314
G1 X90.419 Y111.319 E.1401
G1 X90 Y111.319 E.01314
G1 X90 Y115.788 E.1401
G1 X89.581 Y115.788 E.01314
G1 X89.581 Y111.319 E.1401
G1 X89.162 Y111.319 E.01314
G1 X89.162 Y115.788 E.1401
G1 X88.743 Y115.788 E.01314
G1 X88.743 Y111.319 E.1401
G1 X88.324 Y111.319 E.01314
G1 X88.324 Y115.788 E.1401
G1 X87.905 Y115.788 E.01314
G1 X87.905 Y111.319 E.1401
G1 X87.486 Y111.319 E.01314
G1 X87.486 Y115.788 E.1401
G1 X87.067 Y115.788 E.01314
G1 X87.067 Y111.319 E.1401
G1 X86.648 Y111.319 E.01314
G1 X86.648 Y115.788 E.1401
G1 X86.229 Y115.788 E.01314
G1 X86.229 Y111.319 E.1401
G1 X85.81 Y111.319 E.01314
G1 X85.81 Y127.681 E.513
G1 X85.391 Y127.681 E.01314
G1 X85.391 Y111.319 E.513
G1 X84.972 Y111.319 E.01314
G1 X84.972 Y127.681 E.513
G1 X84.553 Y127.681 E.01314
G1 X84.553 Y111.319 E.513
G1 X84.134 Y111.319 E.01314
G1 X84.134 Y127.681 E.513
G1 X83.715 Y127.681 E.01314
G1 X83.715 Y111.319 E.513
G1 X83.296 Y111.319 E.01314
G1 X83.296 Y127.681 E.513
G1 X82.877 Y127.681 E.01314
G1 X82.877 Y111.319 E.513
G1 X82.458 Y111.319 E.01314
G1 X82.458 Y127.681 E.513
G1 X82.039 Y127.681 E.01314
G1 X82.039 Y111.15 E.51832
M204 P1000
G1 E-2.24 F4200
;WIPE_START
M73 P3 R33
G1 F7200
G1 X82.039 Y112.795 E-.912
;WIPE_END
G1 E-.048 F4200
G1 Z.4 F720
G1 X99.787 Y109.713 F9000
G1 Z.2 F720
G1 E3.2 F2400
M204 P800
;TYPE:Perimeter
G1 F1200
G1 X99.787 Y129.287 E.61373
G1 X80.213 Y129.287 E.61373
G1 X80.213 Y109.713 E.61373
G1 X99.727 Y109.713 E.61185
M204 P1000
G1 X99.41 Y110.09 F9000
M204 P800
;TYPE:External perimeter
G1 F1200
G1 X99.41 Y128.91 E.59009
G1 X80.59 Y128.91 E.59009
G1 X80.59 Y110.09 E.59009
G1 X99.35 Y110.09 E.58821
M204 P1000
G1 X99.796 Y109.986 F9000
G1 E-2.24 F4200
;WIPE_START
G1 F7200
G1 X99.355 Y111.736 E-.912
;WIPE_END
G1 E-.048 F4200
G1 Z.4 F720
G1 X92.287 Y107.037 F9000
G1 Z.2 F720
G1 E3.2 F2400
M204 P800
;TYPE:Perimeter
G1 F1200
G1 X87.713 Y107.037 E.14342
G1 X87.713 Y56.463 E1.58572
G1 X92.287 Y56.463 E.14342
G1 X92.287 Y106.977 E1.58384
M204 P1000
G1 X91.91 Y106.66 F9000
M204 P800
;TYPE:External perimeter
G1 F1200
G1 X88.09 Y106.66 E.11977
G1 X88.09 Y56.84 E1.56207
G1 X91.91 Y56.84 E.11977
G1 X91.91 Y106.6 E1.56019
M204 P1000
G1 X91.92 Y107.06 F9000
G1 E-2.24 F4200
;WIPE_START
G1 F7200
G1 X90.264 Y106.626 E-.912
;WIPE_END
G1 E-.048 F4200
G1 Z.4 F720
G1 X94.213 Y58.287 F9000
G1 Z.2 F720
G1 E3.2 F2400
M204 P800
;TYPE:Perimeter
G1 F1200
G1 X100.713 Y58.287 E.2038
G1 X100.713 Y129.713 E2.23951
M73 P4 R33
G1 X79.287 Y129.713 E.67179
G1 X79.287 Y58.287 E2.23951
G1 X85.787 Y58.287 E.2038
M73 P4 R32
G1 X85.787 Y50.534 E.24308
G1 X85.824 Y50.398 E.00442
G1 X85.881 Y50.33 E.00279
G1 X86.034 Y50.287 E.00499
G1 X93.966 Y50.287 E.24868
G1 X94.102 Y50.324 E.00442
G1 X94.156 Y50.369 E.00221
G1 X94.204 Y50.453 E.00303
G1 X94.213 Y50.534 E.00256
G1 X94.213 Y58.227 E.2412
M204 P1000
G1 X94.59 Y57.91 F9000
M204 P800
;TYPE:External perimeter
G1 F1200
G1 X101.09 Y57.91 E.2038
G1 X101.09 Y130.09 E2.26315
G1 X78.91 Y130.09 E.69544
G1 X78.91 Y57.91 E2.26315
G1 X85.41 Y57.91 E.2038
G1 X85.41 Y50.518 E.23177
G1 X85.42 Y50.407 E.00349
G1 X85.493 Y50.207 E.00668
G1 X85.629 Y50.044 E.00668
G1 X85.698 Y49.996 E.00263
G1 X85.907 Y49.92 E.00697
G1 X86.018 Y49.91 E.00349
G1 X93.982 Y49.91 E.24971
G1 X94.093 Y49.92 E.00349
G1 X94.293 Y49.993 E.00668
G1 X94.449 Y50.123 E.00638
G1 X94.555 Y50.308 E.00668
G1 X94.59 Y50.518 E.00668
G1 X94.59 Y57.85 E.22989
M204 P1000
G1 X94.591 Y58.31 F9000
G1 E-2.24 F4200
;WIPE_START
G1 F7200
G1 X96.236 Y57.865 E-.912
;WIPE_END
G1 E-.048 F4200
G1 Z.4 F720
G1 X93.262 Y50.404 F9000
G1 Z.2 F720
G1 E3.2 F2400
M204 P800
;TYPE:Solid infill
;WIDTH:0.42016
G1 F1200
G1 X93.93 Y51.072 E.02964
G1 X93.93 Y51.605 E.01673
G1 X92.898 Y50.573 E.04579
G1 X92.364 Y50.573 E.01674
M73 P5 R32
G1 X93.93 Y52.139 E.06946
G1 X93.93 Y52.672 E.01673
G1 X91.83 Y50.573 E.09314
G1 X91.297 Y50.572 E.01674
G1 X93.93 Y53.206 E.11682
G1 X93.93 Y53.739 E.01673
G1 X90.763 Y50.572 E.1405
G1 X90.229 Y50.572 E.01674
G1 X93.93 Y54.273 E.16418
G1 X93.93 Y54.806 E.01673
G1 X89.695 Y50.572 E.18785
G1 X89.162 Y50.571 E.01674
G1 X93.93 Y55.34 E.21153
G1 X93.93 Y55.873 E.01673
G1 X88.628 Y50.571 E.23521
G1 X88.094 Y50.571 E.01674
G1 X93.93 Y56.407 E.25889
G1 X93.93 Y56.94 E.01673
G1 X87.56 Y50.571 E.28256
G1 X87.027 Y50.57 E.01674
G1 X93.93 Y57.474 E.30624
G1 X93.93 Y58.007 E.01673
G1 X92.57 Y56.647 E.06034
G1 X92.57 Y56.18 E.01465
G1 X92.103 Y56.18 E.01465
G1 X86.493 Y50.57 E.24886
G1 X86.07 Y50.571 E.01326
G1 X86.07 Y50.681 E.00344
G1 X91.569 Y56.18 E.24396
G1 X91.036 Y56.18 E.01673
G1 X86.07 Y51.214 E.22029
G1 X86.07 Y51.748 E.01673
G1 X90.502 Y56.18 E.19663
G1 X89.969 Y56.18 E.01673
G1 X86.07 Y52.281 E.17296
G1 X86.07 Y52.815 E.01673
G1 X89.435 Y56.18 E.1493
G1 X88.902 Y56.18 E.01673
G1 X86.07 Y53.348 E.12563
G1 X86.07 Y53.882 E.01673
G1 X88.368 Y56.18 E.10196
G1 X87.835 Y56.18 E.01673
G1 X86.07 Y54.415 E.0783
G1 X86.07 Y54.949 E.01673
G1 X87.43 Y56.309 E.06034
G1 X87.43 Y56.842 E.01673
G1 X86.07 Y55.482 E.06034
G1 X86.07 Y56.016 E.01673
G1 X87.43 Y57.376 E.06034
G1 X87.43 Y57.909 E.01673
G1 X86.07 Y56.549 E.06034
G1 X86.07 Y57.083 E.01673
G1 X87.43 Y58.443 E.06034
G1 X87.43 Y58.976 E.01673
G1 X86.07 Y57.616 E.06034
G1 X86.07 Y58.15 E.01673
G1 X87.43 Y59.51 E.06034
G1 X87.43 Y60.043 E.01673
G1 X85.957 Y58.57 E.06536
G1 X85.423 Y58.57 E.01673
G1 X87.43 Y60.577 E.08903
G1 X87.43 Y61.11 E.01673
G1 X84.89 Y58.57 E.1127
G1 X84.356 Y58.57 E.01673
G1 X87.43 Y61.644 E.13636
G1 X87.43 Y62.177 E.01673
G1 X83.823 Y58.57 E.16003
G1 X83.289 Y58.57 E.01673
G1 X87.43 Y62.711 E.18369
G1 X87.43 Y63.244 E.01673
G1 X82.756 Y58.57 E.20736
G1 X82.222 Y58.57 E.01673
G1 X87.43 Y63.778 E.23103
G1 X87.43 Y64.311 E.01673
G1 X81.689 Y58.57 E.25469
G1 X81.155 Y58.57 E.01673
G1 X87.43 Y64.845 E.27836
G1 X87.43 Y65.378 E.01673
G1 X80.622 Y58.57 E.30203
G1 X80.088 Y58.57 E.01673
G1 X87.43 Y65.912 E.32569
G1 X87.43 Y66.445 E.01673
G1 X79.57 Y58.585 E.34868
G1 X79.57 Y59.119 E.01673
G1 X87.43 Y66.979 E.34868
G1 X87.43 Y67.512 E.01673
G1 X79.57 Y59.652 E.34868
G1 X79.57 Y60.186 E.01673
G1 X87.43 Y68.046 E.34868
G1 X87.43 Y68.579 E.01673
G1 X79.57 Y60.719 E.34868
G1 X79.57 Y61.253 E.01673
G1 X87.43 Y69.113 E.34868
G1 X87.43 Y69.646 E.01673
G1 X79.57 Y61.786 E.34868
G1 X79.57 Y62.32 E.01673
G1 X87.43 Y70.18 E.34868
G1 X87.43 Y70.713 E.01673
G1 X79.57 Y62.853 E.34868
G1 X79.57 Y63.387 E.01673
G1 X87.43 Y71.247 E.34868
G1 X87.43 Y71.78 E.01673
G1 X79.57 Y63.92 E.34868
G1 X79.57 Y64.454 E.01673
G1 X87.43 Y72.314 E.34868
G1 X87.43 Y72.847 E.01673
G1 X79.57 Y64.987 E.34868
G1 X79.57 Y65.521 E.01673
G1 X87.43 Y73.381 E.34868
G1 X87.43 Y73.914 E.01673
G1 X79.57 Y66.054 E.34868
G1 X79.57 Y66.588 E.01673
M73 P6 R32
G1 X87.43 Y74.448 E.34868
G1 X87.43 Y74.981 E.01673
G1 X79.57 Y67.121 E.34868
G1 X79.57 Y67.655 E.01673
G1 X87.43 Y75.515 E.34868
G1 X87.43 Y76.048 E.01673
G1 X79.57 Y68.188 E.34868
G1 X79.57 Y68.722 E.01673
G1 X87.43 Y76.582 E.34868
G1 X87.43 Y77.115 E.01673
G1 X79.57 Y69.255 E.34868
G1 X79.57 Y69.789 E.01673
G1 X87.43 Y77.649 E.34868
G1 X87.43 Y78.182 E.01673
G1 X79.57 Y70.322 E.34868
G1 X79.57 Y70.856 E.01673
G1 X87.43 Y78.716 E.34868
G1 X87.43 Y79.249 E.01673
G1 X79.57 Y71.389 E.34868
G1 X79.57 Y71.923 E.01673
G1 X87.43 Y79.783 E.34868
G1 X87.43 Y80.316 E.01673
G1 X79.57 Y72.456 E.34868
G1 X79.57 Y72.989 E.01673
G1 X87.43 Y80.85 E.34868
G1 X87.43 Y81.383 E.01673
G1 X79.57 Y73.523 E.34868
G1 X79.57 Y74.056 E.01673
G1 X87.43 Y81.917 E.34868
G1 X87.43 Y82.45 E.01673
G1 X79.57 Y74.59 E.34868
G1 X79.57 Y75.123 E.01673
G1 X87.43 Y82.984 E.34868
G1 X87.43 Y83.517 E.01673
G1 X79.57 Y75.657 E.34868
G1 X79.57 Y76.19 E.01673
G1 X87.43 Y84.051 E.34868
G1 X87.43 Y84.584 E.01673
G1 X79.57 Y76.724 E.34868
G1 X79.57 Y77.257 E.01673
G1 X87.43 Y85.118 E.34868
G1 X87.43 Y85.651 E.01673
G1 X79.57 Y77.791 E.34868
G1 X79.57 Y78.324 E.01673
G1 X87.43 Y86.185 E.34868
G1 X87.43 Y86.718 E.01673
G1 X79.57 Y78.858 E.34868
G1 X79.57 Y79.391 E.01673
G1 X87.43 Y87.252 E.34868
G1 X87.43 Y87.785 E.01673
G1 X79.57 Y79.925 E.34868
G1 X79.57 Y80.458 E.01673
G1 X87.43 Y88.319 E.34868
G1 X87.43 Y88.852 E.01673
G1 X79.57 Y80.992 E.34868
G1 X79.57 Y81.525 E.01673
G1 X87.43 Y89.386 E.34868
G1 X87.43 Y89.919 E.01673
G1 X79.57 Y82.059 E.34868
G1 X79.57 Y82.592 E.01673
G1 X87.43 Y90.453 E.34868
G1 X87.43 Y90.986 E.01673
G1 X79.57 Y83.126 E.34868
G1 X79.57 Y83.659 E.01673
G1 X87.43 Y91.52 E.34868
G1 X87.43 Y92.053 E.01673
G1 X79.57 Y84.193 E.34868
G1 X79.57 Y84.726 E.01673
G1 X87.43 Y92.587 E.34868
G1 X87.43 Y93.12 E.01673
M73 P7 R32
G1 X79.57 Y85.26 E.34868
G1 X79.57 Y85.793 E.01673
G1 X87.43 Y93.654 E.34868
G1 X87.43 Y94.187 E.01673
G1 X79.57 Y86.327 E.34868
G1 X79.57 Y86.86 E.01673
G1 X87.43 Y94.721 E.34868
G1 X87.43 Y95.254 E.01673
G1 X79.57 Y87.394 E.34868
G1 X79.57 Y87.927 E.01673
G1 X87.43 Y95.788 E.34868
G1 X87.43 Y96.321 E.01673
M73 P7 R31
G1 X79.57 Y88.461 E.34868
G1 X79.57 Y88.994 E.01673
G1 X87.43 Y96.855 E.34868
G1 X87.43 Y97.388 E.01673
G1 X79.57 Y89.528 E.34868
G1 X79.57 Y90.061 E.01673
G1 X87.43 Y97.922 E.34868
G1 X87.43 Y98.455 E.01673
G1 X79.57 Y90.595 E.34868
G1 X79.57 Y91.128 E.01673
G1 X87.43 Y98.989 E.34868
G1 X87.43 Y99.522 E.01673
G1 X79.57 Y91.662 E.34868
G1 X79.57 Y92.195 E.01673
G1 X87.43 Y100.056 E.34868
G1 X87.43 Y100.589 E.01673
G1 X79.57 Y92.729 E.34868
G1 X79.57 Y93.262 E.01673
G1 X87.43 Y101.123 E.34868
G1 X87.43 Y101.656 E.01673
G1 X79.57 Y93.796 E.34868
G1 X79.57 Y94.329 E.01673
G1 X87.43 Y102.19 E.34868
G1 X87.43 Y102.723 E.01673
G1 X79.57 Y94.863 E.34868
G1 X79.57 Y95.396 E.01673
G1 X87.43 Y103.257 E.34868
G1 X87.43 Y103.79 E.01673
G1 X79.57 Y95.93 E.34868
G1 X79.57 Y96.463 E.01673
G1 X87.43 Y104.324 E.34868
G1 X87.43 Y104.857 E.01673
G1 X79.57 Y96.997 E.34868
G1 X79.57 Y97.53 E.01673
G1 X87.43 Y105.391 E.34868
G1 X87.43 Y105.924 E.01673
G1 X79.57 Y98.064 E.34868
G1 X79.57 Y98.597 E.01673
G1 X87.6 Y106.627 E.35621
M204 P1000
G1 E-2.24 F4200
;WIPE_START
G1 F7200
G1 X86.436 Y105.464 E-.912
;WIPE_END
G1 E-.048 F4200
G1 Z.4 F720
G1 X100.191 Y58.4 F9000
G1 Z.2 F720
G1 E3.2 F2400
M204 P800
G1 F1200
G1 X100.43 Y58.639 E.01059
G1 X100.43 Y59.172 E.01673
G1 X99.828 Y58.57 E.02673
G1 X99.294 Y58.57 E.01673
G1 X100.43 Y59.706 E.05039
G1 X100.43 Y60.239 E.01673
G1 X98.761 Y58.57 E.07406
G1 X98.227 Y58.57 E.01673
G1 X100.43 Y60.773 E.09773
G1 X100.43 Y61.306 E.01673
G1 X97.694 Y58.57 E.12139
G1 X97.16 Y58.57 E.01673
G1 X100.43 Y61.84 E.14506
G1 X100.43 Y62.373 E.01673
G1 X96.627 Y58.57 E.16873
G1 X96.093 Y58.57 E.01673
G1 X100.43 Y62.907 E.19239
G1 X100.43 Y63.44 E.01673
G1 X95.56 Y58.57 E.21606
G1 X95.026 Y58.57 E.01673
G1 X100.43 Y63.974 E.23972
G1 X100.43 Y64.507 E.01673
G1 X94.323 Y58.4 E.27092
M204 P1000
G1 E-2.24 F4200
;WIPE_START
G1 F7200
